; generated by Slic3r 1.3.1-dev (Build 18ddd3a36dc69d81fb9b7440498bff9e1dde8b7e) on 2021-07-13 at 13:06:31

; external perimeters extrusion width = 0.44mm (3.38mm^3/s)
; perimeters extrusion width = 0.48mm (7.54mm^3/s)
; infill extrusion width = 0.48mm (10.05mm^3/s)
; solid infill extrusion width = 0.48mm (2.51mm^3/s)
; top infill extrusion width = 0.48mm (1.88mm^3/s)

M107
G92 E0
M190 S85 ; set bed temperature and wait for it to be reached
M104 S225 ; set temperature
G28 ; home all axes
G1 Z5 F5000 ; lift nozzle

; Filament gcode

M109 S225 ; set temperature and wait for it to be reached
G21 ; set units to millimeters
G90 ; use absolute coordinates
M82 ; use absolute distances for extrusion
G92 E0
G1 Z0.400 F7800.000
G1 E-2.00000 F2400.00000
G92 E0
G1 X60.195 Y62.884 F7800.000
G1 E2.00000 F2400.00000
G1 F1800.000
G1 X61.915 Y61.323 E2.27581
G1 X71.415 Y55.323 E3.61027
G1 X73.550 Y54.444 E3.88450
G1 X75.000 Y54.286 E4.05775
G1 X145.000 Y54.286 E12.37131
G1 X147.275 Y54.683 E12.64554
G1 X148.585 Y55.323 E12.81880
G1 X158.085 Y61.323 E14.15325
G1 X159.796 Y62.874 E14.42748
G1 X160.885 Y64.925 E14.70329
G1 X167.385 Y84.925 E17.20089
G1 X167.714 Y87.000 E17.45043
G1 X167.714 Y133.000 E22.91363
G1 X167.385 Y135.075 E23.16317
G1 X160.885 Y155.075 E25.66077
G1 X159.805 Y157.116 E25.93500
G1 X158.085 Y158.677 E26.21081
G1 X148.585 Y164.677 E27.54527
G1 X146.450 Y165.556 E27.81950
G1 X145.000 Y165.714 E27.99275
G1 X75.000 Y165.714 E36.30631
G1 X72.725 Y165.317 E36.58054
G1 X71.415 Y164.677 E36.75379
G1 X61.915 Y158.677 E38.08825
G1 X60.204 Y157.126 E38.36248
G1 X59.115 Y155.075 E38.63829
G1 X52.615 Y135.075 E41.13589
G1 X52.286 Y133.000 E41.38543
G1 X52.286 Y87.000 E46.84863
G1 X52.615 Y84.925 E47.09817
G1 X59.115 Y64.925 E49.59577
G1 X60.167 Y62.937 E49.86287
G1 E47.86287 F2400.00000
G92 E0
G1 X131.600 Y152.600 F7800.000
G1 E2.00000 F2400.00000
G1 F1800.000
G1 X143.400 Y152.600 E3.40143
G1 X143.400 Y157.400 E3.97150
G1 X131.600 Y157.400 E5.37293
G1 X131.600 Y152.660 E5.93588
G1 X131.446 Y152.231 F7800.000
G1 E3.93588 F2400.00000
G92 E0
G1 X88.400 Y152.600 F7800.000
G1 E2.00000 F2400.00000
G1 F1800.000
G1 X88.400 Y157.400 E2.57007
G1 X76.600 Y157.400 E3.97150
G1 X76.600 Y152.600 E4.54157
G1 X88.340 Y152.600 E5.93588
G1 X88.797 Y152.549 F7800.000
G1 E3.93588 F2400.00000
G92 E0
G1 X88.400 Y67.400 F7800.000
G1 E2.00000 F2400.00000
G1 F1800.000
G1 X76.600 Y67.400 E3.40143
G1 X76.600 Y62.600 E3.97150
G1 X88.400 Y62.600 E5.37293
G1 X88.400 Y67.340 E5.93588
G1 X88.554 Y67.769 F7800.000
G1 E3.93588 F2400.00000
G92 E0
G1 X131.600 Y67.400 F7800.000
G1 E2.00000 F2400.00000
G1 F1800.000
G1 X131.600 Y62.600 E2.57007
G1 X143.400 Y62.600 E3.97150
G1 X143.400 Y67.400 E4.54157
G1 X131.660 Y67.400 E5.93588
G1 X131.203 Y67.451 F7800.000
G1 E3.93588 F2400.00000
G92 E0
G1 X152.309 Y68.886 F7800.000
G1 E2.00000 F2400.00000
G1 F1800.000
G1 X159.114 Y89.823 E4.61469
G1 X159.114 Y130.177 E9.40723
G1 X152.309 Y151.114 E12.02192
G1 X67.691 Y151.114 E22.07169
G1 X60.886 Y130.177 E24.68639
G1 X60.886 Y89.823 E29.47892
G1 X67.691 Y68.886 E32.09362
G1 X152.249 Y68.886 E42.13626
G1 X151.791 Y69.600 F7800.000
G1 F1800.000
G1 X158.400 Y89.937 E44.67590
G1 X158.400 Y130.063 E49.44156
G1 X151.791 Y150.400 E51.98120
G1 X68.209 Y150.400 E61.90774
G1 X61.600 Y130.063 E64.44738
G1 X61.600 Y89.937 E69.21303
G1 X68.209 Y69.600 E71.75267
G1 X151.731 Y69.600 E81.67208
G1 X152.175 Y69.488 F7800.000
G1 E79.67208 F2400.00000
G92 E0
G1 X153.691 Y68.114 F7800.000
G1 E2.00000 F2400.00000
G1 F1800.000
G1 X159.886 Y87.177 E4.38051
G1 X159.886 Y132.823 E9.80178
G1 X153.691 Y151.886 E12.18229
G1 X66.309 Y151.886 E22.56012
G1 X60.114 Y132.823 E24.94063
G1 X60.114 Y87.177 E30.36190
G1 X66.309 Y68.114 E32.74241
G1 X153.631 Y68.114 E43.11312
G1 E41.11312 F2400.00000
G92 E0
G1 X144.600 Y67.400 F7800.000
G1 E2.00000 F2400.00000
G1 F1800.000
G1 X154.209 Y67.400 E3.14126
G1 X160.600 Y87.063 E5.59682
G1 X160.600 Y132.937 E11.04497
G1 X154.209 Y152.600 E13.50053
G1 X144.600 Y152.600 E14.64180
G1 X144.600 Y158.600 E15.35439
G1 X130.400 Y158.600 E17.04085
G1 X130.400 Y152.600 E17.75344
G1 X89.600 Y152.600 E22.59906
G1 X89.600 Y158.600 E23.31165
G1 X75.400 Y158.600 E24.99812
G1 X75.400 Y152.600 E25.71071
G1 X65.791 Y152.600 E26.85197
G1 X59.400 Y132.937 E29.30754
G1 X59.400 Y87.063 E34.75568
G1 X65.791 Y67.400 E37.21124
G1 X75.400 Y67.400 E38.35251
G1 X75.400 Y61.400 E39.06510
G1 X89.600 Y61.400 E40.75156
G1 X89.600 Y67.400 E41.46415
G1 X130.400 Y67.400 E46.30977
G1 X130.400 Y61.400 E47.02236
G1 X144.600 Y61.400 E48.70883
G1 X144.600 Y67.340 E49.41430
G1 X144.752 Y67.770 F7800.000
G1 X144.000 Y67.757 F7800.000
G1 F1800.000
G1 X144.000 Y62.243 E49.78110
G1 X143.979 Y62.142 E49.78793
G1 F1800.000
G1 X143.958 Y62.042 E49.79619
G1 X143.757 Y62.000 E49.81271
G1 F1800.000
G1 X131.243 Y62.000 E50.64516
G1 X131.142 Y62.021 E50.65200
G1 F1800.000
G1 X131.042 Y62.042 E50.66026
G1 X131.000 Y62.243 E50.67678
G1 F1800.000
G1 X131.000 Y67.757 E51.04358
G1 E49.04358 F2400.00000
G92 E0
G1 X152.991 Y68.471 F7800.000
G1 E2.00000 F2400.00000
G1 F1800.000
G1 X159.110 Y87.299 E4.47599
G1 X159.135 Y87.459 E4.49616
G1 F1800.000
G1 X159.186 Y87.777 E4.53119
G1 F1800.000
G1 X159.236 Y88.096 E4.56091
G1 F1800.000
G1 X159.286 Y88.414 E4.58533
G1 F1800.000
G1 X159.337 Y88.733 E4.60444
G1 F1800.000
G1 X159.387 Y89.051 E4.61825
G1 F1800.000
G1 X159.438 Y89.370 E4.62675
G1 F1800.000
G1 X159.488 Y89.688 E4.62995
G1 E2.62995 F2400.00000
G92 E0
G1 X159.488 Y130.312 F7800.000
G1 E2.00000 F2400.00000
G1 F1800.000
G1 X159.438 Y130.630 E2.00320
G1 F1800.000
G1 X159.387 Y130.949 E2.01170
G1 F1800.000
G1 X159.337 Y131.267 E2.02551
G1 F1800.000
G1 X159.286 Y131.586 E2.04462
G1 F1800.000
G1 X159.236 Y131.904 E2.06904
G1 F1800.000
G1 X159.186 Y132.223 E2.09876
G1 F1800.000
G1 X159.135 Y132.541 E2.13379
G1 F1800.000
G1 X159.110 Y132.701 E2.15395
G1 X152.991 Y151.529 E4.62994
G1 E2.62994 F2400.00000
G92 E0
G1 X144.000 Y152.243 F7800.000
G1 E2.00000 F2400.00000
G1 F1800.000
G1 X144.000 Y157.757 E2.36680
G1 X143.979 Y157.858 E2.37364
G1 F1800.000
G1 X143.958 Y157.958 E2.38190
G1 X143.757 Y158.000 E2.39842
G1 F1800.000
G1 X131.243 Y158.000 E3.23087
G1 X131.142 Y157.979 E3.23770
G1 F1800.000
G1 X131.042 Y157.958 E3.24596
G1 X131.000 Y157.757 E3.26248
G1 F1800.000
G1 X131.000 Y152.243 E3.62929
G1 E1.62929 F2400.00000
G92 E0
G1 X89.000 Y152.243 F7800.000
G1 E2.00000 F2400.00000
G1 F1800.000
G1 X89.000 Y157.757 E2.36680
G1 X88.979 Y157.858 E2.37364
G1 F1800.000
G1 X88.958 Y157.958 E2.38190
G1 X88.757 Y158.000 E2.39842
G1 F1800.000
G1 X76.243 Y158.000 E3.23087
G1 X76.142 Y157.979 E3.23770
G1 F1800.000
G1 X76.042 Y157.958 E3.24596
G1 X76.000 Y157.757 E3.26248
G1 F1800.000
G1 X76.000 Y152.243 E3.62929
G1 E1.62929 F2400.00000
G92 E0
G1 X67.009 Y151.529 F7800.000
G1 E2.00000 F2400.00000
G1 F1800.000
G1 X60.890 Y132.701 E4.47599
G1 X60.840 Y132.382 E4.51632
G1 F1800.000
G1 X60.789 Y132.064 E4.55135
G1 F1800.000
G1 X60.739 Y131.745 E4.58107
G1 F1800.000
G1 X60.688 Y131.426 E4.60549
G1 F1800.000
G1 X60.638 Y131.108 E4.62460
G1 F1800.000
G1 X60.587 Y130.789 E4.63841
G1 F1800.000
G1 X60.537 Y130.471 E4.64691
G1 F1800.000
G1 X60.512 Y130.312 E4.64851
G1 E2.64851 F2400.00000
G92 E0
G1 X60.512 Y89.688 F7800.000
G1 E2.00000 F2400.00000
G1 F1800.000
G1 X60.537 Y89.529 E2.00160
G1 F1800.000
G1 X60.587 Y89.211 E2.01010
G1 F1800.000
G1 X60.638 Y88.892 E2.02391
G1 F1800.000
G1 X60.688 Y88.574 E2.04302
G1 F1800.000
G1 X60.739 Y88.255 E2.06744
G1 F1800.000
G1 X60.789 Y87.936 E2.09716
G1 F1800.000
G1 X60.840 Y87.618 E2.13219
G1 F1800.000
G1 X60.890 Y87.299 E2.17252
G1 X67.009 Y68.471 E4.64850
G1 E2.64850 F2400.00000
G92 E0
G1 X76.000 Y67.757 F7800.000
G1 E2.00000 F2400.00000
G1 F1800.000
G1 X76.000 Y62.243 E2.36680
G1 F1800.000
G1 X76.042 Y62.042 E2.38332
G1 X76.142 Y62.021 E2.39158
G1 F1800.000
G1 X76.243 Y62.000 E2.39842
G1 X88.757 Y62.000 E3.23087
G1 F1800.000
G1 X88.958 Y62.042 E3.24739
G1 X88.979 Y62.142 E3.25565
G1 F1800.000
G1 X89.000 Y62.243 E3.26248
G1 X89.000 Y67.757 E3.62929
M104 S220 ; set temperature
M140 S80 ; set bed temperature
G1 Z0.700 F7800.000
G1 E1.62929 F2400.00000
G92 E0
G1 X143.617 Y152.383 F7800.000
G1 E2.00000 F2400.00000
G1 F900.000
G1 X143.617 Y157.617 E2.27348
G1 X131.383 Y157.617 E2.91267
G1 X131.383 Y152.383 E3.18614
G1 X143.557 Y152.383 E3.82220
G1 X143.220 Y152.780 F7800.000
G1 F900.000
G1 X143.220 Y157.220 E4.03021
G1 X131.780 Y157.220 E4.56616
G1 X131.780 Y152.780 E4.77417
G1 X143.160 Y152.780 E5.30732
G1 X143.617 Y152.731 F7800.000
G1 X88.617 Y152.383 F7800.000
G1 F900.000
G1 X88.617 Y157.617 E5.58080
G1 X76.383 Y157.617 E6.21999
G1 X76.383 Y152.383 E6.49346
G1 X88.557 Y152.383 E7.12952
G1 X88.220 Y152.780 F7800.000
G1 F900.000
G1 X88.220 Y157.220 E7.33753
G1 X76.780 Y157.220 E7.87348
G1 X76.780 Y152.780 E8.08149
G1 X88.160 Y152.780 E8.61464
G1 X88.617 Y152.731 F7800.000
G1 E6.61464 F2400.00000
G92 E0
G1 X88.617 Y67.617 F7800.000
G1 E2.00000 F2400.00000
G1 F900.000
G1 X76.383 Y67.617 E2.63919
G1 X76.383 Y62.383 E2.91267
G1 X88.617 Y62.383 E3.55186
G1 X88.617 Y67.557 E3.82220
G1 X88.220 Y67.220 F7800.000
G1 F900.000
G1 X76.780 Y67.220 E4.35815
G1 X76.780 Y62.780 E4.56616
G1 X88.220 Y62.780 E5.10212
G1 X88.220 Y67.160 E5.30732
G1 X88.376 Y67.588 F7800.000
G1 X131.383 Y67.617 F7800.000
G1 F900.000
G1 X131.383 Y62.383 E5.58080
G1 X143.617 Y62.383 E6.21999
G1 X143.617 Y67.617 E6.49346
G1 X131.443 Y67.617 E7.12952
G1 X131.780 Y67.220 F7800.000
G1 F900.000
G1 X131.780 Y62.780 E7.33753
G1 X143.220 Y62.780 E7.87348
G1 X143.220 Y67.220 E8.08149
G1 X131.840 Y67.220 E8.61464
G1 X131.383 Y67.269 F7800.000
G1 X152.253 Y68.964 F7800.000
G1 F3600.000
G1 X159.036 Y89.836 E9.76124
G1 X159.036 Y130.164 E11.86819
G1 X152.253 Y151.036 E13.01479
G1 X67.747 Y151.036 E17.42977
G1 X60.964 Y130.164 E18.57636
G1 X60.964 Y89.836 E20.68331
G1 X67.747 Y68.964 E21.82991
G1 X152.193 Y68.964 E26.24176
G1 X151.948 Y69.383 F7800.000
G1 F3600.000
G1 X158.617 Y89.902 E27.36899
G1 X158.617 Y130.098 E29.46900
G1 X151.948 Y150.617 E30.59624
G1 X68.052 Y150.617 E34.97942
G1 X61.383 Y130.098 E36.10665
G1 X61.383 Y89.902 E38.20667
G1 X68.052 Y69.383 E39.33390
G1 X151.888 Y69.383 E43.71395
G1 X151.660 Y69.780 F7800.000
G1 F1800.000
G1 X158.220 Y89.965 E44.70830
G1 X158.220 Y130.035 E46.58554
G1 X151.660 Y150.220 E47.57989
G1 X68.340 Y150.220 E51.48335
G1 X61.780 Y130.035 E52.47770
G1 X61.780 Y89.965 E54.35494
G1 X68.340 Y69.780 E55.34929
G1 X151.600 Y69.780 E59.24995
G1 X152.044 Y69.668 F7800.000
G1 X153.747 Y68.036 F7800.000
G1 F3600.000
G1 X159.964 Y87.164 E60.30075
G1 X159.964 Y132.836 E62.68686
G1 X153.747 Y151.964 E63.73765
G1 X66.253 Y151.964 E68.30880
G1 X60.036 Y132.836 E69.35959
G1 X60.036 Y87.164 E71.74571
G1 X66.253 Y68.036 E72.79650
G1 X153.687 Y68.036 E77.36451
G1 X144.383 Y67.617 F7800.000
G1 F3600.000
G1 X154.052 Y67.617 E77.86966
G1 X160.383 Y87.098 E78.93982
G1 X160.383 Y132.902 E81.33286
G1 X154.052 Y152.383 E82.40302
G1 X144.383 Y152.383 E82.90817
G1 X144.383 Y158.383 E83.22164
G1 X130.617 Y158.383 E83.94082
G1 X130.617 Y152.383 E84.25429
G1 X89.383 Y152.383 E86.40858
G1 X89.383 Y158.383 E86.72205
G1 X75.617 Y158.383 E87.44123
G1 X75.617 Y152.383 E87.75470
G1 X65.948 Y152.383 E88.25984
G1 X59.617 Y132.902 E89.33000
G1 X59.617 Y87.098 E91.72305
G1 X65.948 Y67.617 E92.79321
G1 X75.617 Y67.617 E93.29836
G1 X75.617 Y61.617 E93.61183
G1 X89.383 Y61.617 E94.33101
G1 X89.383 Y67.617 E94.64447
G1 X130.617 Y67.617 E96.79877
G1 X130.617 Y61.617 E97.11224
G1 X144.383 Y61.617 E97.83141
G1 X144.383 Y67.557 E98.14175
G1 X144.780 Y67.220 F7800.000
G1 F1800.000
G1 X154.340 Y67.220 E98.58964
G1 X160.780 Y87.035 E99.56574
G1 X160.780 Y132.965 E101.71755
G1 X154.340 Y152.780 E102.69366
G1 X144.780 Y152.780 E103.14154
G1 X144.780 Y158.780 E103.42264
G1 X130.220 Y158.780 E104.10477
G1 X130.220 Y152.780 E104.38586
G1 X89.780 Y152.780 E106.28045
G1 X89.780 Y158.780 E106.56154
G1 X75.220 Y158.780 E107.24367
G1 X75.220 Y152.780 E107.52477
G1 X65.660 Y152.780 E107.97265
G1 X59.220 Y132.965 E108.94876
G1 X59.220 Y87.035 E111.10057
G1 X65.660 Y67.220 E112.07668
G1 X75.220 Y67.220 E112.52456
G1 X75.220 Y61.220 E112.80566
G1 X89.780 Y61.220 E113.48779
G1 X89.780 Y67.220 E113.76888
G1 X130.220 Y67.220 E115.66347
G1 X130.220 Y61.220 E115.94456
G1 X144.780 Y61.220 E116.62669
G1 X144.780 Y67.160 E116.90497
G1 X144.933 Y67.589 F7800.000
G1 X144.000 Y67.827 F7800.000
G1 F1200.000
G1 X144.000 Y62.173 E117.10399
G1 X143.985 Y62.102 E117.10657
G1 F1200.000
G1 X143.970 Y62.030 E117.10970
G1 X143.827 Y62.000 E117.11595
G1 F1200.000
G1 X131.173 Y62.000 E117.56139
G1 X131.102 Y62.015 E117.56397
G1 F1200.000
G1 X131.030 Y62.030 E117.56709
G1 X131.000 Y62.173 E117.57334
G1 F1200.000
G1 X131.000 Y67.827 E117.77236
G1 X152.322 Y68.500 F7800.000
G1 F1200.000
G1 X67.678 Y68.500 E122.46495
G1 X67.422 Y68.618 F7800.000
G1 F1200.000
G1 X67.096 Y68.292 E122.48919
G1 X66.500 Y68.292 E122.52053
G1 X67.422 Y69.214 E122.58909
G1 X67.422 Y69.274 E122.59224
G1 X67.290 Y69.679 E122.61462
G1 X66.274 Y68.662 E122.69020
G1 X66.128 Y69.112 E122.71507
G1 X67.144 Y70.129 E122.79066
G1 X66.998 Y70.579 E122.81553
G1 X65.981 Y69.562 E122.89112
G1 X65.835 Y70.012 E122.91599
G1 X66.852 Y71.029 E122.99157
G1 X66.705 Y71.479 E123.01645
G1 X65.689 Y70.462 E123.09203
G1 X65.543 Y70.912 E123.11690
G1 X66.559 Y71.928 E123.19249
G1 X66.413 Y72.378 E123.21736
G1 X65.396 Y71.362 E123.29295
G1 X65.250 Y71.812 E123.31782
G1 X66.267 Y72.828 E123.39340
G1 X66.121 Y73.278 E123.41828
G1 X65.104 Y72.262 E123.49386
G1 X64.958 Y72.712 E123.51874
G1 X65.974 Y73.728 E123.59432
G1 X65.828 Y74.178 E123.61919
G1 X64.812 Y73.162 E123.69478
G1 X64.665 Y73.611 E123.71965
G1 X65.682 Y74.628 E123.79523
G1 X65.536 Y75.078 E123.82011
G1 X64.519 Y74.061 E123.89569
G1 X64.373 Y74.511 E123.92057
G1 X65.389 Y75.528 E123.99615
G1 X65.243 Y75.978 E124.02102
G1 X64.227 Y74.961 E124.09661
G1 X64.080 Y75.411 E124.12148
G1 X65.097 Y76.428 E124.19707
G1 X64.951 Y76.878 E124.22194
G1 X63.934 Y75.861 E124.29752
G1 X63.788 Y76.311 E124.32240
G1 X64.805 Y77.328 E124.39798
G1 X64.658 Y77.777 E124.42285
G1 X63.642 Y76.761 E124.49844
G1 X63.496 Y77.211 E124.52331
G1 X64.512 Y78.227 E124.59890
G1 X64.366 Y78.677 E124.62377
G1 X63.349 Y77.661 E124.69935
G1 X63.203 Y78.111 E124.72423
G1 X64.220 Y79.127 E124.79981
G1 X64.073 Y79.577 E124.82469
G1 X63.057 Y78.561 E124.90027
G1 X62.911 Y79.011 E124.92514
G1 X63.927 Y80.027 E125.00073
G1 X63.781 Y80.477 E125.02560
G1 X62.764 Y79.460 E125.10118
G1 X62.618 Y79.910 E125.12606
G1 X63.635 Y80.927 E125.20164
G1 X63.488 Y81.377 E125.22652
G1 X62.472 Y80.360 E125.30210
G1 X62.326 Y80.810 E125.32697
G1 X63.342 Y81.827 E125.40256
G1 X63.196 Y82.277 E125.42743
G1 X62.179 Y81.260 E125.50302
G1 X62.033 Y81.710 E125.52789
G1 X63.050 Y82.727 E125.60347
G1 X62.904 Y83.177 E125.62835
G1 X61.887 Y82.160 E125.70393
G1 X61.741 Y82.610 E125.72880
G1 X62.757 Y83.626 E125.80439
G1 X62.611 Y84.076 E125.82926
G1 X61.595 Y83.060 E125.90485
G1 X61.448 Y83.510 E125.92972
G1 X62.465 Y84.526 E126.00530
G1 X62.319 Y84.976 E126.03018
G1 X61.302 Y83.960 E126.10576
G1 X61.156 Y84.410 E126.13063
G1 X62.172 Y85.426 E126.20622
G1 X62.026 Y85.876 E126.23109
G1 X61.010 Y84.860 E126.30668
G1 X60.863 Y85.309 E126.33155
G1 X61.880 Y86.326 E126.40713
G1 X61.734 Y86.776 E126.43201
G1 X60.717 Y85.759 E126.50759
G1 X60.571 Y86.209 E126.53247
G1 X61.588 Y87.226 E126.60805
G1 X61.441 Y87.676 E126.63292
G1 X60.425 Y86.659 E126.70851
G1 X60.292 Y87.068 E126.73108
