; generated by Slic3r 1.3.1-dev (Build 18ddd3a36dc69d81fb9b7440498bff9e1dde8b7e) on 2021-07-11 at 19:33:14

; external perimeters extrusion width = 0.44mm (3.38mm^3/s)
; perimeters extrusion width = 0.48mm (7.54mm^3/s)
; infill extrusion width = 0.48mm (10.05mm^3/s)
; solid infill extrusion width = 0.48mm (2.51mm^3/s)
; top infill extrusion width = 0.48mm (1.88mm^3/s)

M107
G92 E0
M190 S85 ; set bed temperature and wait for it to be reached
M104 S225 ; set temperature
G28 ; home all axes
G1 Z5 F5000 ; lift nozzle

; Filament gcode

M109 S225 ; set temperature and wait for it to be reached
G21 ; set units to millimeters
G90 ; use absolute coordinates
M82 ; use absolute distances for extrusion
G92 E0
G1 Z0.400 F7800.000
G1 E-2.00000 F2400.00000
G92 E0
G1 X60.851 Y59.862 F7800.000
G1 E2.00000 F2400.00000
G1 F1800.000
G1 X63.411 Y57.473 E2.41583
G1 X66.093 Y55.214 E2.83242
G1 X68.875 Y53.095 E3.24770
G1 X71.760 Y51.117 E3.66318
G1 X74.743 Y49.283 E4.07902
G1 X77.815 Y47.601 E4.49500
G1 X80.965 Y46.075 E4.91066
G1 X84.187 Y44.707 E5.32637
G1 X87.472 Y43.501 E5.74205
G1 X90.817 Y42.461 E6.15797
G1 X94.208 Y41.589 E6.57390
G1 X97.633 Y40.886 E6.98904
G1 X101.098 Y40.356 E7.40545
G1 X104.454 Y40.009 E7.80611
G1 X107.891 Y39.821 E8.21498
G1 X109.052 Y39.798 E8.35279
G1 X110.946 Y39.798 E8.57780
G1 X112.303 Y39.828 E8.73893
G1 X115.544 Y40.009 E9.12452
G1 X118.901 Y40.356 E9.52529
G1 X122.367 Y40.886 E9.94171
G1 X125.792 Y41.589 E10.35699
G1 X129.180 Y42.461 E10.77244
G1 X132.238 Y43.403 E11.15251
G1 X135.811 Y44.707 E11.60422
G1 X139.031 Y46.074 E12.01973
G1 X142.186 Y47.602 E12.43607
G1 X145.253 Y49.282 E12.85136
G1 X148.240 Y51.117 E13.26767
G1 X151.125 Y53.096 E13.68317
G1 X153.909 Y55.216 E14.09879
G1 X156.587 Y57.474 E14.51487
G1 X159.147 Y59.863 E14.93071
G1 X161.582 Y62.372 E15.34592
G1 X163.893 Y65.003 E15.76180
G1 X166.073 Y67.749 E16.17815
G1 X168.106 Y70.593 E16.59338
G1 X170.000 Y73.541 E17.00951
G1 X171.744 Y76.580 E17.42568
G1 X173.329 Y79.693 E17.84054
G1 X174.765 Y82.892 E18.25699
G1 X176.036 Y86.153 E18.67273
G1 X177.141 Y89.473 E19.08828
G1 X178.082 Y92.848 E19.50436
G1 X178.852 Y96.260 E19.91979
G1 X179.453 Y99.713 E20.33606
G1 X179.879 Y103.185 E20.75153
G1 X180.133 Y106.680 E21.16774
G1 X180.211 Y110.176 E21.58304
G1 X180.116 Y113.678 E21.99910
G1 X179.846 Y117.166 E22.41451
G1 X179.406 Y120.625 E22.82875
G1 X178.790 Y124.068 E23.24408
G1 X178.006 Y127.476 E23.65939
G1 X177.052 Y130.839 E24.07456
G1 X175.932 Y134.153 E24.49007
G1 X174.643 Y137.420 E24.90721
G1 X173.273 Y140.449 E25.30201
G1 X171.828 Y143.286 E25.68005
G1 X171.272 Y144.293 E25.81674
G1 X170.324 Y145.935 E26.04191
G1 X169.728 Y146.926 E26.17922
G1 X167.995 Y149.594 E26.55704
G1 X166.055 Y152.298 E26.95230
G1 X163.866 Y155.052 E27.37014
G1 X161.559 Y157.676 E27.78512
G1 X159.121 Y160.187 E28.20079
G1 X156.560 Y162.572 E28.61637
G1 X153.884 Y164.827 E29.03202
G1 X151.101 Y166.943 E29.44717
G1 X148.211 Y168.923 E29.86331
G1 X145.230 Y170.752 E30.27867
G1 X142.164 Y172.431 E30.69380
G1 X139.011 Y173.957 E31.10986
G1 X135.791 Y175.324 E31.52527
G1 X132.506 Y176.527 E31.94079
G1 X129.174 Y177.563 E32.35515
G1 X125.788 Y178.435 E32.77039
G1 X122.353 Y179.137 E33.18680
G1 X118.896 Y179.667 E33.60224
G1 X115.412 Y180.023 E34.01814
G1 X111.916 Y180.206 E34.43387
G1 X108.416 Y180.215 E34.84962
G1 X104.920 Y180.048 E35.26528
G1 X101.436 Y179.708 E35.68096
G1 X97.973 Y179.195 E36.09681
G1 X94.543 Y178.511 E36.51216
G1 X91.142 Y177.653 E36.92877
G1 X87.798 Y176.629 E37.34409
G1 X84.134 Y175.293 E37.80730
G1 X80.986 Y173.957 E38.21341
G1 X77.833 Y172.430 E38.62950
G1 X74.769 Y170.754 E39.04428
G1 X71.786 Y168.922 E39.46004
G1 X68.898 Y166.943 E39.87586
G1 X66.116 Y164.827 E40.29089
G1 X63.437 Y162.572 E40.70685
G1 X60.834 Y160.143 E41.12967
G1 X58.438 Y157.677 E41.53804
G1 X56.129 Y155.050 E41.95346
G1 X53.945 Y152.299 E42.37054
G1 X52.003 Y149.596 E42.76587
G1 X50.268 Y146.922 E43.14444
G1 X49.676 Y145.937 E43.28095
G1 X48.728 Y144.295 E43.50616
G1 X48.171 Y143.288 E43.64282
G1 X46.725 Y140.449 E44.02115
G1 X45.355 Y137.418 E44.41620
G1 X44.065 Y134.153 E44.83314
G1 X42.944 Y130.834 E45.24922
G1 X41.991 Y127.467 E45.66474
G1 X41.204 Y124.057 E46.08044
G1 X40.591 Y120.615 E46.49568
G1 X40.148 Y117.140 E46.91173
G1 X39.881 Y113.653 E47.32708
G1 X39.786 Y110.157 E47.74244
G1 X39.866 Y106.659 E48.15792
G1 X40.120 Y103.166 E48.57385
G1 X40.548 Y99.695 E48.98926
G1 X41.148 Y96.244 E49.40525
G1 X41.918 Y92.841 E49.81966
G1 X42.857 Y89.472 E50.23499
G1 X43.967 Y86.140 E50.65212
G1 X45.236 Y82.887 E51.06675
G1 X46.667 Y79.694 E51.48238
G1 X48.256 Y76.576 E51.89798
G1 X50.001 Y73.537 E52.31415
G1 X51.891 Y70.594 E52.72951
G1 X53.929 Y67.744 E53.14568
G1 X56.103 Y65.004 E53.56108
G1 X58.416 Y62.371 E53.97733
G1 X60.809 Y59.905 E54.38539
G1 E52.38539 F2400.00000
G92 E0
G1 X72.787 Y60.922 F7800.000
G1 E2.00000 F2400.00000
G1 F1800.000
G1 X73.949 Y60.038 E2.17346
G1 X76.485 Y58.303 E2.53837
G1 X79.104 Y56.695 E2.90329
G1 X81.798 Y55.222 E3.26803
G1 X84.565 Y53.884 E3.63302
G1 X87.393 Y52.686 E3.99784
G1 X90.280 Y51.631 E4.36282
G1 X93.213 Y50.719 E4.72761
G1 X96.190 Y49.956 E5.09258
G1 X99.199 Y49.342 E5.45741
G1 X102.237 Y48.880 E5.82228
G1 X105.292 Y48.569 E6.18700
G1 X108.352 Y48.410 E6.55097
G1 X111.637 Y48.410 E6.94109
G1 X114.699 Y48.569 E7.30519
G1 X117.751 Y48.879 E7.66953
G1 X120.786 Y49.339 E8.03412
G1 X123.794 Y49.952 E8.39867
G1 X126.768 Y50.714 E8.76328
G1 X129.698 Y51.623 E9.12771
G1 X132.580 Y52.676 E9.49208
G1 X135.408 Y53.872 E9.85673
G1 X138.171 Y55.207 E10.22115
G1 X140.865 Y56.677 E10.58569
G1 X143.482 Y58.281 E10.95025
G1 X146.016 Y60.013 E11.31469
G1 X148.460 Y61.869 E11.67927
G1 X150.810 Y63.844 E12.04375
G1 X153.057 Y65.932 E12.40813
G1 X155.198 Y68.131 E12.77267
G1 X157.228 Y70.434 E13.13729
G1 X159.138 Y72.835 E13.50162
G1 X160.930 Y75.329 E13.86633
G1 X162.593 Y77.909 E14.23093
G1 X164.127 Y80.568 E14.59544
G1 X165.525 Y83.300 E14.95989
G1 X166.786 Y86.097 E15.32437
G1 X167.905 Y88.956 E15.68893
G1 X168.883 Y91.864 E16.05334
G1 X169.713 Y94.821 E16.41811
G1 X170.396 Y97.813 E16.78257
G1 X170.927 Y100.835 E17.14703
G1 X171.309 Y103.882 E17.51165
G1 X171.537 Y106.942 E17.87617
G1 X171.613 Y110.011 E18.24073
G1 X171.538 Y113.073 E18.60445
G1 X171.310 Y116.127 E18.96826
G1 X170.930 Y119.168 E19.33215
G1 X170.401 Y122.185 E19.69598
G1 X169.720 Y125.172 E20.05983
G1 X168.893 Y128.122 E20.42368
G1 X167.919 Y131.026 E20.78746
G1 X166.804 Y133.878 E21.15119
G1 X165.548 Y136.672 E21.51494
G1 X164.155 Y139.401 E21.87883
G1 X162.521 Y142.230 E22.26684
G1 X160.965 Y144.640 E22.60753
G1 X159.174 Y147.138 E22.97258
G1 X157.264 Y149.543 E23.33731
G1 X155.235 Y151.849 E23.70222
G1 X153.093 Y154.053 E24.06711
G1 X150.845 Y156.146 E24.43189
G1 X148.495 Y158.127 E24.79696
G1 X146.049 Y159.985 E25.16180
G1 X143.513 Y161.720 E25.52668
G1 X140.719 Y163.429 E25.91573
G1 X138.016 Y164.893 E26.28077
G1 X135.247 Y166.221 E26.64550
G1 X132.413 Y167.410 E27.01051
G1 X129.525 Y168.456 E27.37531
G1 X126.589 Y169.357 E27.74011
G1 X123.610 Y170.111 E28.10505
G1 X120.597 Y170.715 E28.46996
G1 X117.558 Y171.168 E28.83493
G1 X114.501 Y171.470 E29.19978
G1 X111.434 Y171.616 E29.56444
G1 X108.361 Y171.611 E29.92940
G1 X105.292 Y171.454 E30.29429
G1 X102.236 Y171.143 E30.65913
G1 X99.199 Y170.679 E31.02401
G1 X96.190 Y170.065 E31.38880
G1 X93.213 Y169.302 E31.75375
G1 X90.280 Y168.391 E32.11852
G1 X87.393 Y167.335 E32.48356
G1 X84.565 Y166.137 E32.84835
G1 X81.798 Y164.800 E33.21329
G1 X79.104 Y163.327 E33.57805
G1 X76.485 Y161.719 E33.94296
G1 X73.949 Y159.985 E34.30785
G1 X71.504 Y158.126 E34.67261
G1 X69.154 Y156.146 E35.03766
G1 X66.905 Y154.053 E35.40244
G1 X64.764 Y151.849 E35.76734
G1 X62.735 Y149.543 E36.13221
G1 X60.823 Y147.138 E36.49712
G1 X59.034 Y144.639 E36.86206
G1 X57.478 Y142.230 E37.20272
G1 X55.840 Y139.392 E37.59183
G1 X54.444 Y136.655 E37.95682
G1 X53.183 Y133.853 E38.32169
G1 X52.066 Y130.990 E38.68663
G1 X51.093 Y128.078 E39.05135
G1 X50.316 Y125.315 E39.39217
G1 X49.628 Y122.322 E39.75697
G1 X49.089 Y119.297 E40.12185
G1 X48.701 Y116.248 E40.48689
G1 X48.466 Y113.184 E40.85182
G1 X48.385 Y110.113 E41.21666
G1 X48.456 Y107.041 E41.58160
G1 X48.680 Y103.977 E41.94652
G1 X49.059 Y100.927 E42.31157
G1 X49.588 Y97.901 E42.67637
G1 X50.266 Y94.905 E43.04114
G1 X51.093 Y91.944 E43.40627
G1 X52.066 Y89.032 E43.77099
G1 X53.183 Y86.168 E44.13604
G1 X54.444 Y83.366 E44.50092
G1 X55.839 Y80.630 E44.86571
G1 X57.372 Y77.967 E45.23060
G1 X59.034 Y75.383 E45.59553
G1 X60.823 Y72.884 E45.96052
G1 X62.735 Y70.479 E46.32541
G1 X64.764 Y68.172 E46.69037
G1 X66.905 Y65.968 E47.05528
G1 X69.154 Y63.876 E47.42003
G1 X71.504 Y61.897 E47.78488
G1 X72.739 Y60.958 E47.96917
G1 X73.219 Y61.490 F7800.000
G1 F1800.000
G1 X74.367 Y60.617 E48.14049
G1 X76.874 Y58.902 E48.50118
G1 X79.462 Y57.313 E48.86187
G1 X82.125 Y55.857 E49.22236
G1 X84.860 Y54.535 E49.58313
G1 X87.655 Y53.350 E49.94371
G1 X90.508 Y52.307 E50.30446
G1 X93.408 Y51.407 E50.66505
G1 X96.350 Y50.652 E51.02577
G1 X99.325 Y50.045 E51.38635
G1 X102.327 Y49.589 E51.74698
G1 X105.347 Y49.282 E52.10751
G1 X108.377 Y49.124 E52.46785
G1 X111.617 Y49.124 E52.85271
G1 X114.644 Y49.281 E53.21270
G1 X117.661 Y49.587 E53.57286
G1 X120.661 Y50.042 E53.93322
G1 X123.634 Y50.648 E54.29351
G1 X126.573 Y51.401 E54.65388
G1 X129.470 Y52.300 E55.01410
G1 X132.318 Y53.340 E55.37426
G1 X135.113 Y54.523 E55.73467
G1 X137.844 Y55.842 E56.09487
G1 X140.507 Y57.295 E56.45518
G1 X143.094 Y58.881 E56.81551
G1 X145.598 Y60.592 E57.17572
G1 X148.015 Y62.427 E57.53608
G1 X150.337 Y64.379 E57.89635
G1 X152.558 Y66.443 E58.25649
G1 X154.674 Y68.617 E58.61680
G1 X156.681 Y70.893 E58.97719
G1 X158.569 Y73.266 E59.33730
G1 X160.340 Y75.731 E59.69779
G1 X161.983 Y78.281 E60.05815
G1 X163.499 Y80.909 E60.41845
G1 X164.881 Y83.609 E60.77867
G1 X166.127 Y86.375 E61.13891
G1 X167.234 Y89.200 E61.49926
G1 X168.200 Y92.075 E61.85946
G1 X169.021 Y94.997 E62.21999
G1 X169.696 Y97.954 E62.58022
G1 X170.221 Y100.942 E62.94044
G1 X170.598 Y103.953 E63.30084
G1 X170.824 Y106.978 E63.66113
G1 X170.899 Y110.011 E64.02148
G1 X170.824 Y113.037 E64.38099
G1 X170.599 Y116.057 E64.74058
G1 X170.224 Y119.062 E65.10026
G1 X169.700 Y122.044 E65.45986
G1 X169.028 Y124.996 E65.81949
G1 X168.210 Y127.912 E66.17910
G1 X167.248 Y130.782 E66.53868
G1 X166.146 Y133.602 E66.89820
G1 X164.904 Y136.363 E67.25774
G1 X163.527 Y139.060 E67.61735
G1 X161.912 Y141.857 E68.00105
G1 X160.374 Y144.238 E68.33758
G1 X158.604 Y146.708 E68.69848
G1 X156.716 Y149.085 E69.05898
G1 X154.710 Y151.364 E69.41965
G1 X152.594 Y153.542 E69.78032
G1 X150.372 Y155.611 E70.14088
G1 X148.049 Y157.569 E70.50170
G1 X145.631 Y159.405 E70.86230
G1 X143.125 Y161.120 E71.22291
G1 X140.362 Y162.810 E71.60757
G1 X137.692 Y164.257 E71.96830
G1 X134.955 Y165.570 E72.32880
G1 X132.153 Y166.745 E72.68959
G1 X129.299 Y167.779 E73.05016
G1 X126.396 Y168.669 E73.41073
G1 X123.452 Y169.414 E73.77145
G1 X120.474 Y170.011 E74.13213
G1 X117.470 Y170.459 E74.49287
G1 X114.448 Y170.757 E74.85346
G1 X111.417 Y170.902 E75.21388
G1 X108.380 Y170.897 E75.57465
G1 X105.347 Y170.742 E75.93530
G1 X102.326 Y170.434 E76.29589
G1 X99.324 Y169.976 E76.65654
G1 X96.350 Y169.369 E77.01710
G1 X93.408 Y168.614 E77.37782
G1 X90.508 Y167.715 E77.73838
G1 X87.655 Y166.671 E78.09917
G1 X84.860 Y165.486 E78.45974
G1 X82.125 Y164.165 E78.82046
G1 X79.462 Y162.709 E79.18096
G1 X76.874 Y161.120 E79.54165
G1 X74.367 Y159.405 E79.90232
G1 X71.950 Y157.569 E80.26284
G1 X69.627 Y155.611 E80.62365
G1 X67.405 Y153.542 E80.98421
G1 X65.289 Y151.364 E81.34488
G1 X63.283 Y149.085 E81.70554
G1 X61.393 Y146.708 E82.06619
G1 X59.625 Y144.237 E82.42697
G1 X58.087 Y141.857 E82.76349
G1 X56.468 Y139.051 E83.14827
G1 X55.088 Y136.346 E83.50898
G1 X53.842 Y133.576 E83.86964
G1 X52.738 Y130.747 E84.23033
G1 X51.776 Y127.868 E84.59088
G1 X51.008 Y125.138 E84.92761
G1 X50.328 Y122.179 E85.28825
G1 X49.796 Y119.189 E85.64894
G1 X49.411 Y116.175 E86.00974
G1 X49.180 Y113.147 E86.37042
G1 X49.099 Y110.112 E86.73103
G1 X49.170 Y107.076 E87.09175
G1 X49.391 Y104.047 E87.45241
G1 X49.765 Y101.032 E87.81322
G1 X50.288 Y98.041 E88.17382
G1 X50.958 Y95.080 E88.53437
G1 X51.776 Y92.154 E88.89528
G1 X52.738 Y89.275 E89.25576
G1 X53.842 Y86.445 E89.61656
G1 X55.088 Y83.675 E89.97722
G1 X56.467 Y80.971 E90.33778
G1 X57.982 Y78.339 E90.69845
G1 X59.625 Y75.784 E91.05917
G1 X61.393 Y73.314 E91.41990
G1 X63.282 Y70.937 E91.78054
G1 X65.289 Y68.657 E92.14129
G1 X67.405 Y66.479 E92.50197
G1 X69.627 Y64.411 E92.86248
G1 X71.950 Y62.455 E93.22312
G1 X73.171 Y61.526 E93.40531
G1 X73.164 Y61.094 F7800.000
G1 X72.322 Y60.306 F7800.000
G1 F1800.000
G1 X73.581 Y59.352 E93.59293
G1 X76.150 Y57.599 E93.96227
G1 X78.803 Y55.977 E94.33159
G1 X81.534 Y54.489 E94.70101
G1 X84.336 Y53.140 E95.07032
G1 X87.202 Y51.931 E95.43980
G1 X90.126 Y50.866 E95.80931
G1 X93.096 Y49.950 E96.17847
G1 X96.112 Y49.182 E96.54811
G1 X99.160 Y48.564 E96.91749
G1 X102.236 Y48.101 E97.28692
G1 X105.208 Y47.801 E97.64163
G1 X108.073 Y47.647 E97.98240
G1 X109.063 Y47.627 E98.10003
G1 X110.935 Y47.627 E98.32228
G1 X111.924 Y47.647 E98.43982
G1 X114.790 Y47.801 E98.78074
G1 X117.763 Y48.101 E99.13555
G1 X120.839 Y48.564 E99.50499
G1 X123.887 Y49.183 E99.87438
G1 X126.901 Y49.950 E100.24381
G1 X129.874 Y50.866 E100.61320
G1 X132.795 Y51.931 E100.98250
G1 X135.662 Y53.140 E101.35203
G1 X138.466 Y54.490 E101.72154
G1 X141.195 Y55.977 E102.09077
G1 X143.851 Y57.600 E102.46032
G1 X146.419 Y59.352 E102.82966
G1 X148.899 Y61.231 E103.19915
G1 X151.281 Y63.230 E103.56844
G1 X153.561 Y65.347 E103.93796
G1 X155.732 Y67.575 E104.30742
G1 X157.791 Y69.907 E104.67689
G1 X159.731 Y72.338 E105.04631
G1 X161.545 Y74.865 E105.41569
G1 X163.234 Y77.478 E105.78527
G1 X164.789 Y80.172 E106.15467
G1 X166.207 Y82.941 E106.52414
G1 X167.488 Y85.776 E106.89359
G1 X168.623 Y88.671 E107.26293
G1 X169.613 Y91.621 E107.63248
G1 X170.456 Y94.615 E108.00185
G1 X171.148 Y97.649 E108.37145
G1 X171.689 Y100.712 E108.74093
G1 X172.075 Y103.798 E109.11029
G1 X172.308 Y106.901 E109.47983
G1 X172.385 Y110.011 E109.84928
G1 X172.308 Y113.120 E110.21867
G1 X172.075 Y116.222 E110.58803
G1 X171.689 Y119.308 E110.95746
G1 X171.148 Y122.371 E111.32687
G1 X170.457 Y125.404 E111.69630
G1 X169.614 Y128.398 E112.06572
G1 X168.624 Y131.347 E112.43509
G1 X167.489 Y134.243 E112.80457
G1 X166.262 Y136.965 E113.15915
G1 X164.963 Y139.524 E113.50004
G1 X164.485 Y140.391 E113.61758
G1 X163.549 Y142.014 E113.84013
G1 X163.037 Y142.862 E113.95777
G1 X161.471 Y145.267 E114.29857
G1 X159.726 Y147.690 E114.65325
G1 X157.785 Y150.122 E115.02276
G1 X155.726 Y152.455 E115.39238
G1 X153.555 Y154.682 E115.76168
G1 X151.275 Y156.797 E116.13106
G1 X148.892 Y158.796 E116.50042
G1 X146.413 Y160.673 E116.86981
G1 X143.844 Y162.426 E117.23915
G1 X141.188 Y164.048 E117.60869
G1 X138.458 Y165.535 E117.97793
G1 X135.655 Y166.885 E118.34749
G1 X132.788 Y168.094 E118.71699
G1 X129.867 Y169.157 E119.08620
G1 X126.894 Y170.074 E119.45569
G1 X123.880 Y170.843 E119.82509
G1 X120.832 Y171.458 E120.19437
G1 X117.756 Y171.922 E120.56381
G1 X114.661 Y172.231 E120.93327
G1 X111.554 Y172.386 E121.30276
G1 X108.443 Y172.386 E121.67212
G1 X105.338 Y172.231 E122.04138
G1 X102.243 Y171.922 E122.41084
G1 X99.167 Y171.458 E122.78028
G1 X96.119 Y170.843 E123.14957
G1 X93.103 Y170.074 E123.51919
G1 X90.132 Y169.157 E123.88846
G1 X87.209 Y168.094 E124.25789
G1 X84.343 Y166.885 E124.62736
G1 X81.541 Y165.535 E124.99674
G1 X78.809 Y164.048 E125.36618
G1 X76.155 Y162.426 E125.73550
