; generated by Slic3r 1.3.1-dev (Build 18ddd3a36dc69d81fb9b7440498bff9e1dde8b7e) on 2021-07-12 at 12:54:23

; external perimeters extrusion width = 0.44mm (3.38mm^3/s)
; perimeters extrusion width = 0.48mm (7.54mm^3/s)
; infill extrusion width = 0.48mm (10.05mm^3/s)
; solid infill extrusion width = 0.48mm (2.51mm^3/s)
; top infill extrusion width = 0.48mm (1.88mm^3/s)

M107
G92 E0
M190 S85 ; set bed temperature and wait for it to be reached
M104 S225 ; set temperature
G28 ; home all axes
G1 Z5 F5000 ; lift nozzle

; Filament gcode

M109 S225 ; set temperature and wait for it to be reached
G21 ; set units to millimeters
G90 ; use absolute coordinates
M82 ; use absolute distances for extrusion
G92 E0
G1 Z0.400 F7800.000
G1 E-2.00000 F2400.00000
G92 E0
G1 X61.553 Y60.557 F7800.000
G1 E2.00000 F2400.00000
G1 F900.000
G1 X64.077 Y58.203 E2.40993
G1 X66.715 Y55.978 E2.81982
G1 X69.461 Y53.887 E3.22974
G1 X72.308 Y51.935 E3.63962
G1 X75.248 Y50.128 E4.04952
G1 X78.275 Y48.470 E4.45940
G1 X81.381 Y46.964 E4.86933
G1 X84.557 Y45.616 E5.27919
G1 X87.797 Y44.427 E5.68905
G1 X91.093 Y43.402 E6.09897
G1 X94.435 Y42.542 E6.50884
G1 X97.816 Y41.849 E6.91872
G1 X101.560 Y41.285 E7.36842
G1 X104.994 Y40.950 E7.77818
G1 X108.442 Y40.786 E8.18810
G1 X111.893 Y40.794 E8.59801
G1 X115.339 Y40.975 E9.00777
G1 X118.773 Y41.327 E9.41773
G1 X122.184 Y41.849 E9.82759
G1 X125.565 Y42.542 E10.23747
G1 X128.907 Y43.402 E10.64734
G1 X132.203 Y44.427 E11.05726
G1 X135.443 Y45.616 E11.46711
G1 X138.619 Y46.964 E11.87698
G1 X141.725 Y48.470 E12.28691
G1 X144.752 Y50.128 E12.69679
G1 X147.692 Y51.935 E13.10669
G1 X150.539 Y53.887 E13.51657
G1 X153.285 Y55.978 E13.92649
G1 X155.923 Y58.203 E14.33638
G1 X158.447 Y60.557 E14.74631
G1 X160.851 Y63.034 E15.15623
G1 X163.128 Y65.628 E15.56616
G1 X165.273 Y68.332 E15.97607
G1 X167.281 Y71.140 E16.38607
G1 X169.145 Y74.043 E16.79587
G1 X170.864 Y77.038 E17.20594
G1 X172.431 Y80.113 E17.61577
G1 X173.843 Y83.263 E18.02580
G1 X174.981 Y86.165 E18.39601
G1 X176.088 Y89.434 E18.80596
G1 X177.031 Y92.755 E19.21592
G1 X177.807 Y96.118 E19.62587
G1 X178.414 Y99.517 E20.03587
G1 X178.852 Y102.940 E20.44580
G1 X179.118 Y106.382 E20.85573
G1 X179.212 Y109.833 E21.26578
G1 X179.135 Y113.283 E21.67564
G1 X178.885 Y116.727 E22.08569
G1 X178.464 Y120.153 E22.49562
G1 X177.873 Y123.553 E22.90554
G1 X177.113 Y126.921 E23.31555
G1 X176.187 Y130.246 E23.72549
G1 X175.096 Y133.521 E24.13544
G1 X173.843 Y136.737 E24.54539
G1 X172.431 Y139.887 E24.95542
G1 X170.864 Y142.962 E25.36525
G1 X169.145 Y145.957 E25.77532
G1 X167.281 Y148.860 E26.18512
G1 X165.273 Y151.668 E26.59513
G1 X163.128 Y154.372 E27.00504
G1 X160.851 Y156.966 E27.41496
G1 X158.447 Y159.443 E27.82489
G1 X155.923 Y161.797 E28.23481
G1 X153.285 Y164.022 E28.64471
G1 X150.539 Y166.113 E29.05462
G1 X147.692 Y168.065 E29.46451
G1 X144.752 Y169.872 E29.87440
G1 X141.725 Y171.530 E30.28429
G1 X138.619 Y173.036 E30.69422
G1 X135.443 Y174.384 E31.10408
G1 X132.203 Y175.573 E31.51394
G1 X128.907 Y176.598 E31.92385
G1 X125.565 Y177.458 E32.33372
G1 X122.184 Y178.151 E32.74360
G1 X118.440 Y178.715 E33.19331
G1 X115.006 Y179.050 E33.60306
G1 X111.558 Y179.214 E34.01298
G1 X108.107 Y179.206 E34.42290
G1 X104.661 Y179.025 E34.83266
G1 X101.227 Y178.673 E35.24261
G1 X97.816 Y178.151 E35.65248
G1 X94.435 Y177.458 E36.06236
G1 X91.093 Y176.598 E36.47222
G1 X87.797 Y175.573 E36.88214
G1 X84.557 Y174.384 E37.29200
G1 X81.381 Y173.036 E37.70186
G1 X78.275 Y171.530 E38.11179
G1 X75.248 Y169.872 E38.52168
G1 X72.308 Y168.065 E38.93157
G1 X69.461 Y166.113 E39.34146
G1 X66.715 Y164.022 E39.75137
G1 X64.077 Y161.797 E40.16127
G1 X61.553 Y159.443 E40.57119
G1 X59.149 Y156.966 E40.98112
G1 X56.872 Y154.372 E41.39104
G1 X54.727 Y151.668 E41.80095
G1 X52.719 Y148.860 E42.21096
G1 X50.855 Y145.957 E42.62075
G1 X49.136 Y142.962 E43.03083
G1 X47.569 Y139.887 E43.44065
G1 X46.157 Y136.737 E43.85069
G1 X45.019 Y133.835 E44.22090
G1 X43.912 Y130.566 E44.63085
G1 X42.969 Y127.245 E45.04081
G1 X42.193 Y123.882 E45.45075
G1 X41.586 Y120.483 E45.86076
G1 X41.148 Y117.060 E46.27068
G1 X40.882 Y113.618 E46.68062
G1 X40.788 Y110.167 E47.09066
G1 X40.865 Y106.717 E47.50053
G1 X41.115 Y103.273 E47.91057
G1 X41.536 Y99.847 E48.32051
G1 X42.127 Y96.447 E48.73043
G1 X42.887 Y93.079 E49.14044
G1 X43.813 Y89.754 E49.55037
G1 X44.904 Y86.479 E49.96033
G1 X46.157 Y83.263 E50.37028
G1 X47.569 Y80.113 E50.78031
G1 X49.136 Y77.038 E51.19013
G1 X50.855 Y74.043 E51.60021
G1 X52.719 Y71.140 E52.01001
G1 X54.727 Y68.332 E52.42001
G1 X56.872 Y65.628 E52.82992
G1 X59.149 Y63.034 E53.23985
G1 X61.511 Y60.600 E53.64264
G1 E51.64264 F2400.00000
G92 E0
G1 X87.189 Y62.670 F7800.000
G1 E2.00000 F2400.00000
G1 F900.000
G1 X88.389 Y62.092 E2.15819
G1 X90.804 Y61.074 E2.46936
G1 X93.265 Y60.178 E2.78052
G1 X95.769 Y59.406 E3.09169
G1 X98.308 Y58.759 E3.40285
G1 X100.876 Y58.240 E3.71401
G1 X103.466 Y57.849 E4.02516
G1 X106.073 Y57.588 E4.33632
G1 X108.690 Y57.457 E4.64748
G1 X111.310 Y57.457 E4.95863
G1 X113.927 Y57.588 E5.26979
G1 X116.534 Y57.849 E5.58094
G1 X119.124 Y58.240 E5.89210
G1 X121.692 Y58.759 E6.20326
G1 X124.231 Y59.406 E6.51442
G1 X126.735 Y60.178 E6.82558
G1 X129.196 Y61.074 E7.13674
G1 X131.611 Y62.092 E7.44791
G1 X133.971 Y63.229 E7.75909
G1 X136.272 Y64.483 E8.07026
G1 X138.507 Y65.849 E8.38143
G1 X140.672 Y67.326 E8.69262
G1 X142.761 Y68.908 E9.00380
G1 X144.767 Y70.593 E9.31499
G1 X146.688 Y72.375 E9.62618
G1 X148.517 Y74.251 E9.93738
G1 X150.251 Y76.216 E10.24858
G1 X151.884 Y78.265 E10.55979
G1 X153.413 Y80.393 E10.87100
G1 X154.835 Y82.594 E11.18222
G1 X156.145 Y84.864 E11.49343
G1 X157.340 Y87.196 E11.80465
G1 X158.417 Y89.585 E12.11588
G1 X159.375 Y92.024 E12.42711
G1 X160.209 Y94.508 E12.73834
G1 X160.919 Y97.031 E13.04957
G1 X161.502 Y99.586 E13.36080
G1 X161.956 Y102.167 E13.67204
G1 X162.282 Y104.767 E13.98327
G1 X162.478 Y107.380 E14.29451
G1 X162.543 Y110.000 E14.60575
G1 X162.478 Y112.620 E14.91699
G1 X162.282 Y115.233 E15.22822
G1 X161.956 Y117.833 E15.53946
G1 X161.502 Y120.414 E15.85070
G1 X160.919 Y122.969 E16.16193
G1 X160.209 Y125.492 E16.47316
G1 X159.375 Y127.976 E16.78439
G1 X158.417 Y130.415 E17.09562
G1 X157.340 Y132.804 E17.40685
G1 X156.145 Y135.136 E17.71807
G1 X154.835 Y137.406 E18.02928
G1 X153.413 Y139.607 E18.34050
G1 X151.884 Y141.735 E18.65171
G1 X150.251 Y143.784 E18.96291
G1 X148.517 Y145.749 E19.27412
G1 X146.688 Y147.625 E19.58531
G1 X144.767 Y149.407 E19.89650
G1 X142.761 Y151.092 E20.20770
G1 X140.672 Y152.674 E20.51888
G1 X138.507 Y154.151 E20.83007
G1 X136.272 Y155.517 E21.14124
G1 X133.971 Y156.771 E21.45241
G1 X131.611 Y157.908 E21.76359
G1 X129.196 Y158.926 E22.07476
G1 X126.735 Y159.822 E22.38592
G1 X124.231 Y160.594 E22.69708
G1 X121.692 Y161.241 E23.00824
G1 X119.124 Y161.760 E23.31940
G1 X116.534 Y162.151 E23.63056
G1 X113.927 Y162.412 E23.94171
G1 X111.310 Y162.543 E24.25287
G1 X108.690 Y162.543 E24.56402
G1 X106.073 Y162.412 E24.87518
G1 X103.466 Y162.151 E25.18634
G1 X100.876 Y161.760 E25.49749
G1 X98.308 Y161.241 E25.80865
G1 X95.769 Y160.594 E26.11981
G1 X93.265 Y159.822 E26.43098
G1 X90.804 Y158.926 E26.74214
G1 X88.389 Y157.908 E27.05331
G1 X86.029 Y156.771 E27.36448
G1 X83.728 Y155.517 E27.67565
G1 X81.493 Y154.151 E27.98683
G1 X79.328 Y152.674 E28.29801
G1 X77.239 Y151.092 E28.60920
G1 X75.233 Y149.407 E28.92039
G1 X73.312 Y147.625 E29.23158
G1 X71.483 Y145.749 E29.54278
G1 X69.749 Y143.784 E29.85398
G1 X68.116 Y141.735 E30.16518
G1 X66.587 Y139.607 E30.47639
G1 X65.165 Y137.406 E30.78761
G1 X63.855 Y135.136 E31.09883
G1 X62.660 Y132.804 E31.41005
G1 X61.583 Y130.415 E31.72127
G1 X60.625 Y127.976 E32.03250
G1 X59.791 Y125.492 E32.34373
G1 X59.081 Y122.969 E32.65496
G1 X58.498 Y120.414 E32.96620
G1 X58.044 Y117.833 E33.27743
G1 X57.718 Y115.233 E33.58867
G1 X57.522 Y112.620 E33.89991
G1 X57.457 Y110.000 E34.21114
G1 X57.522 Y107.380 E34.52238
G1 X57.718 Y104.767 E34.83362
G1 X58.044 Y102.167 E35.14485
G1 X58.498 Y99.586 E35.45609
G1 X59.081 Y97.031 E35.76733
G1 X59.791 Y94.508 E36.07856
G1 X60.625 Y92.024 E36.38979
G1 X61.583 Y89.585 E36.70102
G1 X62.660 Y87.196 E37.01224
G1 X63.855 Y84.864 E37.32346
G1 X65.165 Y82.594 E37.63468
G1 X66.587 Y80.393 E37.94589
G1 X68.116 Y78.265 E38.25710
G1 X69.749 Y76.216 E38.56831
G1 X71.483 Y74.251 E38.87951
G1 X73.312 Y72.375 E39.19071
G1 X75.233 Y70.593 E39.50190
G1 X77.239 Y68.908 E39.81309
G1 X79.328 Y67.326 E40.12428
G1 X81.493 Y65.849 E40.43546
G1 X83.728 Y64.483 E40.74663
G1 X86.029 Y63.229 E41.05781
G1 X87.135 Y62.697 E41.20366
G1 X87.499 Y63.314 F7800.000
G1 F900.000
G1 X88.683 Y62.744 E41.35974
G1 X91.065 Y61.739 E41.66668
G1 X93.493 Y60.855 E41.97361
G1 X95.963 Y60.093 E42.28054
G1 X98.467 Y59.455 E42.58747
G1 X101.000 Y58.943 E42.89440
G1 X103.555 Y58.558 E43.20132
G1 X106.127 Y58.300 E43.50825
G1 X108.708 Y58.172 E43.81517
G1 X111.292 Y58.172 E44.12209
G1 X113.873 Y58.300 E44.42902
G1 X116.445 Y58.558 E44.73594
G1 X119.000 Y58.943 E45.04286
G1 X121.533 Y59.455 E45.34980
G1 X124.037 Y60.093 E45.65672
G1 X126.507 Y60.855 E45.96365
G1 X128.935 Y61.739 E46.27058
G1 X131.317 Y62.744 E46.57752
G1 X133.645 Y63.865 E46.88446
G1 X135.915 Y65.102 E47.19141
G1 X138.120 Y66.449 E47.49835
G1 X140.255 Y67.906 E47.80530
G1 X142.315 Y69.466 E48.11226
G1 X144.295 Y71.128 E48.41922
G1 X146.189 Y72.886 E48.72618
G1 X147.993 Y74.737 E49.03315
G1 X149.703 Y76.675 E49.34012
G1 X151.315 Y78.696 E49.64709
G1 X152.823 Y80.795 E49.95407
G1 X154.225 Y82.967 E50.26106
G1 X155.517 Y85.205 E50.56805
G1 X156.696 Y87.506 E50.87504
G1 X157.759 Y89.862 E51.18203
G1 X158.703 Y92.268 E51.48903
G1 X159.526 Y94.719 E51.79603
G1 X160.226 Y97.207 E52.10303
G1 X160.801 Y99.727 E52.41004
G1 X161.250 Y102.273 E52.71705
G1 X161.571 Y104.838 E53.02405
G1 X161.764 Y107.416 E53.33106
G1 X161.829 Y110.000 E53.63807
G1 X161.764 Y112.584 E53.94508
G1 X161.571 Y115.162 E54.25209
G1 X161.250 Y117.727 E54.55909
G1 X160.801 Y120.273 E54.86610
G1 X160.226 Y122.793 E55.17311
G1 X159.526 Y125.281 E55.48011
G1 X158.703 Y127.732 E55.78711
G1 X157.759 Y130.138 E56.09411
G1 X156.696 Y132.494 E56.40110
G1 X155.517 Y134.795 E56.70809
G1 X154.225 Y137.033 E57.01508
G1 X152.823 Y139.205 E57.32207
G1 X151.315 Y141.304 E57.62905
G1 X149.703 Y143.325 E57.93602
G1 X147.993 Y145.263 E58.24299
G1 X146.189 Y147.114 E58.54996
G1 X144.295 Y148.872 E58.85692
G1 X142.315 Y150.534 E59.16388
G1 X140.255 Y152.094 E59.47084
G1 X138.120 Y153.551 E59.77779
G1 X135.915 Y154.898 E60.08473
G1 X133.645 Y156.135 E60.39168
G1 X131.317 Y157.256 E60.69862
G1 X128.935 Y158.261 E61.00556
G1 X126.507 Y159.145 E61.31249
G1 X124.037 Y159.907 E61.61942
G1 X121.533 Y160.545 E61.92635
G1 X119.000 Y161.057 E62.23328
G1 X116.445 Y161.442 E62.54020
G1 X113.873 Y161.700 E62.84712
G1 X111.292 Y161.828 E63.15405
G1 X108.708 Y161.828 E63.46097
G1 X106.127 Y161.700 E63.76789
G1 X103.555 Y161.442 E64.07482
G1 X101.000 Y161.057 E64.38174
G1 X98.467 Y160.545 E64.68867
G1 X95.963 Y159.907 E64.99560
G1 X93.493 Y159.145 E65.30253
G1 X91.065 Y158.261 E65.60946
G1 X88.683 Y157.256 E65.91640
G1 X86.355 Y156.135 E66.22334
G1 X84.085 Y154.898 E66.53029
G1 X81.880 Y153.551 E66.83723
G1 X79.745 Y152.094 E67.14418
G1 X77.685 Y150.534 E67.45114
G1 X75.705 Y148.872 E67.75810
G1 X73.811 Y147.114 E68.06506
G1 X72.007 Y145.263 E68.37203
G1 X70.297 Y143.325 E68.67900
G1 X68.685 Y141.304 E68.98597
G1 X67.177 Y139.205 E69.29295
G1 X65.775 Y137.033 E69.59994
G1 X64.483 Y134.795 E69.90692
G1 X63.304 Y132.494 E70.21391
G1 X62.241 Y130.138 E70.52091
G1 X61.297 Y127.732 E70.82791
G1 X60.474 Y125.281 E71.13491
G1 X59.774 Y122.793 E71.44191
G1 X59.199 Y120.273 E71.74892
G1 X58.750 Y117.727 E72.05593
G1 X58.429 Y115.162 E72.36293
G1 X58.236 Y112.584 E72.66994
G1 X58.171 Y110.000 E72.97695
G1 X58.236 Y107.416 E73.28396
G1 X58.429 Y104.838 E73.59097
G1 X58.750 Y102.273 E73.89797
G1 X59.199 Y99.727 E74.20498
G1 X59.774 Y97.207 E74.51198
G1 X60.474 Y94.719 E74.81899
G1 X61.297 Y92.268 E75.12599
G1 X62.241 Y89.862 E75.43299
G1 X63.304 Y87.506 E75.73998
G1 X64.483 Y85.205 E76.04697
G1 X65.775 Y82.967 E76.35396
G1 X67.177 Y80.795 E76.66094
G1 X68.685 Y78.696 E76.96792
G1 X70.297 Y76.675 E77.27490
G1 X72.007 Y74.737 E77.58187
G1 X73.811 Y72.886 E77.88884
G1 X75.705 Y71.128 E78.19580
G1 X77.685 Y69.466 E78.50276
G1 X79.745 Y67.906 E78.80972
G1 X81.880 Y66.449 E79.11667
G1 X84.085 Y65.102 E79.42361
G1 X86.355 Y63.865 E79.73055
G1 X87.445 Y63.340 E79.87429
G1 X87.809 Y63.957 F7800.000
G1 F900.000
G1 X88.977 Y63.395 E80.02826
G1 X91.326 Y62.404 E80.33096
G1 X93.721 Y61.532 E80.63366
G1 X96.156 Y60.781 E80.93636
G1 X98.626 Y60.152 E81.23906
G1 X101.124 Y59.647 E81.54176
G1 X103.644 Y59.267 E81.84445
G1 X106.180 Y59.013 E82.14714
G1 X108.726 Y58.886 E82.44983
G1 X111.274 Y58.886 E82.75252
G1 X113.820 Y59.013 E83.05522
G1 X116.356 Y59.267 E83.35791
G1 X118.876 Y59.647 E83.66060
G1 X121.374 Y60.152 E83.96330
G1 X123.844 Y60.781 E84.26599
G1 X126.279 Y61.532 E84.56869
G1 X128.674 Y62.404 E84.87139
G1 X131.023 Y63.395 E85.17410
G1 X133.319 Y64.501 E85.47681
G1 X135.557 Y65.720 E85.77952
G1 X137.732 Y67.049 E86.08223
G1 X139.838 Y68.486 E86.38496
G1 X141.870 Y70.025 E86.68768
G1 X143.822 Y71.664 E86.99041
G1 X145.690 Y73.398 E87.29314
G1 X147.470 Y75.223 E87.59588
G1 X149.156 Y77.134 E87.89862
G1 X150.745 Y79.128 E88.20136
G1 X152.233 Y81.198 E88.50412
G1 X153.616 Y83.339 E88.80687
G1 X154.890 Y85.547 E89.10963
G1 X156.053 Y87.816 E89.41239
G1 X157.101 Y90.139 E89.71515
G1 X158.032 Y92.513 E90.01792
G1 X158.844 Y94.929 E90.32070
G1 X159.534 Y97.383 E90.62347
G1 X160.101 Y99.869 E90.92624
G1 X160.544 Y102.380 E91.22902
G1 X160.861 Y104.909 E91.53180
G1 X161.051 Y107.451 E91.83458
G1 X161.115 Y110.000 E92.13736
G1 X161.051 Y112.549 E92.44014
G1 X160.861 Y115.091 E92.74292
G1 X160.544 Y117.620 E93.04569
G1 X160.101 Y120.131 E93.34847
G1 X159.534 Y122.617 E93.65125
G1 X158.844 Y125.071 E93.95402
G1 X158.032 Y127.487 E94.25679
G1 X157.101 Y129.861 E94.55956
G1 X156.053 Y132.184 E94.86233
G1 X154.890 Y134.453 E95.16509
G1 X153.616 Y136.661 E95.46785
G1 X152.233 Y138.802 E95.77060
G1 X150.745 Y140.872 E96.07335
G1 X149.156 Y142.866 E96.37610
G1 X147.470 Y144.777 E96.67884
G1 X145.690 Y146.602 E96.98158
G1 X143.822 Y148.336 E97.28430
G1 X141.870 Y149.975 E97.58704
G1 X139.838 Y151.514 E97.88976
G1 X137.732 Y152.951 E98.19248
G1 X135.557 Y154.280 E98.49519
G1 X133.319 Y155.499 E98.79791
G1 X131.023 Y156.605 E99.10062
G1 X128.674 Y157.596 E99.40332
G1 X126.279 Y158.468 E99.70602
G1 X123.844 Y159.219 E100.00872
G1 X121.374 Y159.848 E100.31142
G1 X118.876 Y160.353 E100.61412
G1 X116.356 Y160.733 E100.91681
G1 X113.820 Y160.987 E101.21950
G1 X111.274 Y161.114 E101.52219
G1 X108.726 Y161.114 E101.82488
G1 X106.180 Y160.987 E102.12758
G1 X103.644 Y160.733 E102.43027
G1 X101.124 Y160.353 E102.73296
G1 X98.626 Y159.848 E103.03566
G1 X96.156 Y159.219 E103.33835
G1 X93.721 Y158.468 E103.64106
G1 X91.326 Y157.596 E103.94376
G1 X88.977 Y156.605 E104.24646
G1 X86.681 Y155.499 E104.54917
G1 X84.443 Y154.280 E104.85188
G1 X82.268 Y152.951 E105.15460
G1 X80.162 Y151.514 E105.45732
G1 X78.130 Y149.975 E105.76004
G1 X76.178 Y148.336 E106.06277
G1 X74.310 Y146.602 E106.36550
G1 X72.530 Y144.777 E106.66824
G1 X70.844 Y142.866 E106.97098
G1 X69.255 Y140.872 E107.27373
G1 X67.767 Y138.802 E107.57648
G1 X66.384 Y136.661 E107.87923
G1 X65.110 Y134.453 E108.18199
G1 X63.947 Y132.184 E108.48475
G1 X62.899 Y129.861 E108.78751
G1 X61.968 Y127.487 E109.09029
G1 X61.156 Y125.071 E109.39306
G1 X60.466 Y122.617 E109.69583
G1 X59.899 Y120.131 E109.99860
