; generated by Slic3r 1.3.1-dev (Build 18ddd3a36dc69d81fb9b7440498bff9e1dde8b7e) on 2021-11-12 at 18:32:32

; external perimeters extrusion width = 0.44mm (3.38mm^3/s)
; perimeters extrusion width = 0.48mm (7.54mm^3/s)
; infill extrusion width = 0.48mm (10.05mm^3/s)
; solid infill extrusion width = 0.48mm (2.51mm^3/s)
; top infill extrusion width = 0.48mm (1.88mm^3/s)

M107
G92 E0
M190 S85 ; set bed temperature and wait for it to be reached
M104 S225 ; set temperature
G28 ; home all axes
G1 Z5 F5000 ; lift nozzle

; Filament gcode

M109 S225 ; set temperature and wait for it to be reached
G21 ; set units to millimeters
G90 ; use absolute coordinates
M82 ; use absolute distances for extrusion
G92 E0
G1 Z0.400 F7800.000
G1 E-2.00000 F2400.00000
G92 E0
G1 X3.004 Y28.905 F7800.000
G1 E2.00000 F2400.00000
G1 F1800.000
G1 X4.261 Y28.786 E2.14997
G1 X141.261 Y28.786 E18.42080
G1 X145.477 Y28.897 E18.92160
G1 X149.514 Y29.208 E19.40252
G1 X153.200 Y29.670 E19.84370
G1 X157.189 Y30.365 E20.32461
G1 X161.139 Y31.258 E20.80554
G1 X165.039 Y32.347 E21.28647
G1 X169.195 Y33.743 E21.80712
G1 X172.961 Y35.230 E22.28805
G1 X176.649 Y36.903 E22.76898
G1 X180.249 Y38.758 E23.24990
G1 X183.466 Y40.615 E23.69108
G1 X186.872 Y42.805 E24.17201
G1 X190.164 Y45.162 E24.65288
G1 X193.335 Y47.680 E25.13377
G1 X196.377 Y50.354 E25.61480
G1 X199.282 Y53.175 E26.09571
G1 X202.042 Y56.137 E26.57657
G1 X204.652 Y59.235 E27.05762
G1 X207.103 Y62.457 E27.53841
G1 X209.573 Y66.079 E28.05912
G1 X211.677 Y69.538 E28.53996
G1 X213.607 Y73.100 E29.02114
G1 X215.355 Y76.751 E29.50186
G1 X216.920 Y80.485 E29.98270
G1 X218.298 Y84.294 E30.46373
G1 X219.484 Y88.167 E30.94480
G1 X220.475 Y92.092 E31.42559
G1 X221.269 Y96.062 E31.90642
G1 X221.864 Y100.068 E32.38740
G1 X222.259 Y104.098 E32.86838
G1 X222.453 Y108.143 E33.34928
G1 X222.444 Y112.192 E33.83016
G1 X222.234 Y116.236 E34.31115
G1 X221.823 Y120.265 E34.79211
G1 X221.211 Y124.267 E35.27296
G1 X220.400 Y128.234 E35.75376
G1 X219.393 Y132.157 E36.23480
G1 X218.191 Y136.025 E36.71583
G1 X216.798 Y139.826 E37.19668
G1 X215.218 Y143.553 E37.67745
G1 X213.454 Y147.199 E38.15856
G1 X211.510 Y150.751 E38.63943
G1 X209.391 Y154.202 E39.12042
G1 X207.102 Y157.543 E39.60133
G1 X204.652 Y160.765 E40.08205
G1 X202.042 Y163.863 E40.56320
G1 X199.281 Y166.826 E41.04415
G1 X196.377 Y169.646 E41.52488
G1 X193.335 Y172.320 E42.00594
G1 X190.430 Y174.636 E42.44718
G1 X186.871 Y177.195 E42.96779
G1 X183.467 Y179.384 E43.44850
G1 X179.954 Y181.403 E43.92972
G1 X176.348 Y183.242 E44.41044
G1 X172.653 Y184.900 E44.89144
G1 X168.880 Y186.372 E45.37235
G1 X165.039 Y187.653 E45.85327
G1 X161.463 Y188.659 E46.29445
G1 X157.518 Y189.569 E46.77527
G1 X153.531 Y190.280 E47.25628
G1 X149.180 Y190.825 E47.77708
G1 X145.476 Y191.102 E48.21825
G1 X141.430 Y191.212 E48.69895
G1 X81.261 Y191.214 E55.84483
G1 X78.987 Y190.817 E56.11905
G1 X76.981 Y189.673 E56.39328
G1 X75.462 Y187.883 E56.67213
G1 X-1.538 Y55.883 E74.82145
G1 X-2.341 Y53.718 E75.09567
G1 X-2.453 Y52.500 E75.24097
G1 X-2.453 Y35.500 E77.25998
G1 X-2.056 Y33.225 E77.53420
G1 X-0.912 Y31.220 E77.80843
G1 X0.844 Y29.720 E78.08265
G1 X2.948 Y28.926 E78.34975
G1 E76.34975 F2400.00000
G92 E0
G1 X6.090 Y50.672 F7800.000
G1 E2.00000 F2400.00000
G1 F1800.000
G1 X6.090 Y37.328 E3.58473
G1 X141.239 Y37.328 E19.63571
G1 X144.884 Y37.419 E20.06876
G1 X148.497 Y37.690 E20.49910
G1 X152.093 Y38.141 E20.92945
G1 X155.661 Y38.770 E21.35979
G1 X159.194 Y39.576 E21.79013
G1 X162.682 Y40.557 E22.22048
G1 X166.116 Y41.711 E22.65082
G1 X169.490 Y43.035 E23.08117
G1 X172.792 Y44.526 E23.51152
G1 X176.017 Y46.179 E23.94186
G1 X179.155 Y47.990 E24.37220
G1 X182.198 Y49.956 E24.80250
G1 X185.140 Y52.072 E25.23285
G1 X187.974 Y54.331 E25.66326
G1 X190.690 Y56.728 E26.09357
G1 X193.284 Y59.258 E26.52391
G1 X195.749 Y61.914 E26.95427
G1 X198.078 Y64.690 E27.38455
G1 X200.266 Y67.579 E27.81493
G1 X202.307 Y70.573 E28.24530
G1 X204.197 Y73.665 E28.67565
G1 X205.930 Y76.847 E29.10600
G1 X207.501 Y80.111 E29.53629
G1 X208.909 Y83.450 E29.96668
G1 X210.149 Y86.855 E30.39703
G1 X211.217 Y90.318 E30.82735
G1 X212.110 Y93.829 E31.25768
G1 X212.828 Y97.381 E31.68804
G1 X213.369 Y100.964 E32.11840
G1 X213.730 Y104.569 E32.54873
G1 X213.910 Y108.188 E32.97907
G1 X213.910 Y111.812 E33.40942
G1 X213.730 Y115.431 E33.83976
G1 X213.369 Y119.036 E34.27009
G1 X212.828 Y122.619 E34.70045
G1 X212.110 Y126.171 E35.13082
G1 X211.217 Y129.682 E35.56114
G1 X210.149 Y133.145 E35.99146
G1 X208.909 Y136.550 E36.42181
G1 X207.501 Y139.889 E36.85220
G1 X205.930 Y143.153 E37.28250
G1 X204.197 Y146.335 E37.71284
G1 X202.307 Y149.427 E38.14319
G1 X200.266 Y152.421 E38.57357
G1 X198.078 Y155.310 E39.00394
G1 X195.749 Y158.086 E39.43426
G1 X193.284 Y160.742 E39.86460
G1 X190.691 Y163.271 E40.29488
G1 X187.974 Y165.669 E40.72520
G1 X185.140 Y167.928 E41.15562
G1 X182.198 Y170.044 E41.58601
G1 X179.155 Y172.009 E42.01629
G1 X176.017 Y173.822 E42.44666
G1 X172.792 Y175.474 E42.87695
G1 X169.489 Y176.965 E43.30733
G1 X166.117 Y178.288 E43.73766
G1 X162.682 Y179.442 E44.16799
G1 X159.194 Y180.424 E44.59836
G1 X155.661 Y181.230 E45.02871
G1 X152.093 Y181.860 E45.45904
G1 X148.497 Y182.310 E45.88937
G1 X144.884 Y182.580 E46.31972
G1 X141.239 Y182.672 E46.75279
G1 X83.090 Y182.672 E53.65884
G1 X83.090 Y169.328 E55.24357
G1 X141.284 Y169.328 E62.15503
G1 X144.219 Y169.256 E62.50368
G1 X147.169 Y169.034 E62.85503
G1 X150.104 Y168.666 E63.20632
G1 X153.017 Y168.153 E63.55768
G1 X155.901 Y167.494 E63.90902
G1 X158.749 Y166.693 E64.26037
G1 X161.553 Y165.751 E64.61167
G1 X164.307 Y164.670 E64.96298
G1 X167.003 Y163.454 E65.31432
G1 X169.636 Y162.104 E65.66568
G1 X172.198 Y160.625 E66.01702
G1 X174.683 Y159.020 E66.36832
G1 X177.084 Y157.293 E66.71967
G1 X179.397 Y155.449 E67.07097
G1 X181.615 Y153.491 E67.42236
G1 X183.733 Y151.426 E67.77366
G1 X185.745 Y149.257 E68.12497
G1 X187.646 Y146.991 E68.47632
G1 X189.432 Y144.633 E68.82765
G1 X191.099 Y142.189 E69.17898
G1 X192.641 Y139.665 E69.53028
G1 X194.057 Y137.067 E69.88166
G1 X195.341 Y134.401 E70.23305
G1 X196.489 Y131.675 E70.58434
G1 X197.501 Y128.896 E70.93566
G1 X198.373 Y126.069 E71.28702
G1 X199.103 Y123.202 E71.63835
G1 X199.689 Y120.303 E71.98964
G1 X200.130 Y117.377 E72.34099
G1 X200.424 Y114.434 E72.69235
G1 X200.572 Y111.479 E73.04366
G1 X200.572 Y108.521 E73.39501
G1 X200.424 Y105.567 E73.74631
G1 X200.130 Y102.623 E74.09767
G1 X199.689 Y99.698 E74.44903
G1 X199.103 Y96.798 E74.80032
G1 X198.373 Y93.932 E75.15164
G1 X197.501 Y91.105 E75.50300
G1 X196.489 Y88.325 E75.85433
G1 X195.341 Y85.599 E76.20563
G1 X194.057 Y82.933 E76.55701
G1 X192.641 Y80.336 E76.90835
G1 X191.100 Y77.811 E77.25963
G1 X189.432 Y75.367 E77.61105
G1 X187.646 Y73.009 E77.96235
G1 X185.745 Y70.743 E78.31370
G1 X183.733 Y68.574 E78.66501
G1 X181.616 Y66.509 E79.01631
G1 X179.397 Y64.551 E79.36766
G1 X177.085 Y62.707 E79.71899
G1 X174.683 Y60.980 E80.07032
G1 X172.198 Y59.375 E80.42166
G1 X169.636 Y57.896 E80.77299
G1 X167.003 Y56.547 E81.12432
G1 X164.307 Y55.330 E81.47565
G1 X161.553 Y54.249 E81.82700
G1 X158.749 Y53.307 E82.17832
G1 X155.901 Y52.506 E82.52966
G1 X153.017 Y51.847 E82.88099
G1 X150.104 Y51.334 E83.23233
G1 X147.169 Y50.966 E83.58366
G1 X144.219 Y50.745 E83.93499
G1 X141.284 Y50.672 E84.28361
G1 X6.150 Y50.672 E100.33290
G1 X5.376 Y51.386 F7800.000
G1 F1800.000
G1 X5.376 Y36.614 E102.08726
G1 X141.248 Y36.614 E118.22411
G1 X144.919 Y36.706 E118.66034
G1 X148.568 Y36.979 E119.09491
G1 X152.199 Y37.434 E119.52949
G1 X155.803 Y38.070 E119.96406
G1 X159.370 Y38.884 E120.39863
G1 X162.892 Y39.875 E120.83321
G1 X166.361 Y41.040 E121.26778
G1 X169.767 Y42.377 E121.70236
G1 X173.102 Y43.882 E122.13694
G1 X176.358 Y45.551 E122.57151
G1 X179.527 Y47.381 E123.00608
G1 X182.601 Y49.366 E123.44061
G1 X185.572 Y51.502 E123.87519
G1 X188.433 Y53.783 E124.30983
G1 X191.176 Y56.205 E124.74438
G1 X193.796 Y58.760 E125.17894
G1 X196.285 Y61.442 E125.61354
G1 X198.636 Y64.245 E126.04805
G1 X200.846 Y67.162 E126.48265
G1 X202.907 Y70.185 E126.91725
G1 X204.815 Y73.307 E127.35183
G1 X206.566 Y76.521 E127.78642
G1 X208.153 Y79.817 E128.22095
G1 X209.574 Y83.189 E128.65555
G1 X210.826 Y86.628 E129.09014
G1 X211.905 Y90.124 E129.52470
G1 X212.807 Y93.670 E129.95925
G1 X213.532 Y97.257 E130.39384
G1 X214.078 Y100.875 E130.82843
G1 X214.442 Y104.516 E131.26299
G1 X214.624 Y108.170 E131.69757
G1 X214.624 Y111.830 E132.13214
G1 X214.442 Y115.484 E132.56671
G1 X214.078 Y119.125 E133.00128
G1 X213.532 Y122.743 E133.43586
G1 X212.807 Y126.330 E133.87045
G1 X211.905 Y129.876 E134.30500
G1 X210.826 Y133.372 E134.73957
G1 X209.574 Y136.811 E135.17416
G1 X208.153 Y140.183 E135.60876
G1 X206.566 Y143.479 E136.04329
G1 X204.815 Y146.693 E136.47787
G1 X202.907 Y149.815 E136.91245
G1 X200.846 Y152.838 E137.34706
G1 X198.636 Y155.755 E137.78165
G1 X196.285 Y158.559 E138.21620
G1 X193.796 Y161.241 E138.65078
G1 X191.176 Y163.795 E139.08529
G1 X188.433 Y166.216 E139.51985
G1 X185.572 Y168.498 E139.95449
G1 X182.601 Y170.634 E140.38910
G1 X179.527 Y172.619 E140.82361
G1 X176.358 Y174.449 E141.25822
G1 X173.102 Y176.118 E141.69275
G1 X169.767 Y177.623 E142.12735
G1 X166.361 Y178.960 E142.56191
G1 X162.892 Y180.125 E142.99648
G1 X159.370 Y181.116 E143.43107
G1 X155.803 Y181.931 E143.86565
G1 X152.199 Y182.566 E144.30021
G1 X148.568 Y183.021 E144.73478
G1 X144.919 Y183.294 E145.16936
G1 X141.248 Y183.386 E145.60559
G1 X82.376 Y183.386 E152.59752
G1 X82.376 Y168.614 E154.35188
G1 X141.275 Y168.614 E161.34711
G1 X144.183 Y168.542 E161.69258
G1 X147.098 Y168.323 E162.03969
G1 X149.997 Y167.960 E162.38677
G1 X152.876 Y167.452 E162.73389
G1 X155.725 Y166.802 E163.08100
G1 X158.538 Y166.010 E163.42811
G1 X161.309 Y165.079 E163.77520
G1 X164.029 Y164.012 E164.12228
G1 X166.693 Y162.810 E164.46938
G1 X169.294 Y161.477 E164.81650
G1 X171.825 Y160.015 E165.16362
G1 X174.280 Y158.430 E165.51069
G1 X176.653 Y156.723 E165.85781
G1 X178.938 Y154.902 E166.20488
G1 X181.130 Y152.967 E166.55203
G1 X183.221 Y150.927 E166.89910
G1 X185.209 Y148.784 E167.24619
G1 X187.088 Y146.546 E167.59330
G1 X188.852 Y144.216 E167.94040
G1 X190.499 Y141.801 E168.28750
G1 X192.023 Y139.307 E168.63459
G1 X193.421 Y136.741 E168.98174
G1 X194.689 Y134.107 E169.32887
G1 X195.824 Y131.414 E169.67594
G1 X196.824 Y128.668 E170.02304
G1 X197.685 Y125.875 E170.37016
G1 X198.406 Y123.043 E170.71725
G1 X198.985 Y120.178 E171.06433
G1 X199.421 Y117.288 E171.41145
G1 X199.712 Y114.380 E171.75856
G1 X199.858 Y111.461 E172.10565
G1 X199.858 Y108.539 E172.45276
G1 X199.712 Y105.620 E172.79985
G1 X199.421 Y102.712 E173.14696
G1 X198.985 Y99.822 E173.49409
G1 X198.406 Y96.957 E173.84116
G1 X197.685 Y94.125 E174.18826
G1 X196.824 Y91.332 E174.53537
G1 X195.824 Y88.586 E174.88249
G1 X194.689 Y85.893 E175.22955
G1 X193.421 Y83.259 E175.57669
G1 X192.023 Y80.693 E175.92381
G1 X190.500 Y78.199 E176.27086
G1 X188.852 Y75.784 E176.61804
G1 X187.088 Y73.455 E176.96512
G1 X185.209 Y71.216 E177.31223
G1 X183.221 Y69.073 E177.65932
G1 X181.130 Y67.033 E178.00639
G1 X178.938 Y65.099 E178.35350
G1 X176.653 Y63.276 E178.70060
G1 X174.280 Y61.570 E179.04770
G1 X171.825 Y59.985 E179.39481
G1 X169.294 Y58.524 E179.74191
G1 X166.693 Y57.190 E180.08901
G1 X164.030 Y55.988 E180.43611
G1 X161.309 Y54.920 E180.78323
G1 X158.538 Y53.990 E181.13032
G1 X155.725 Y53.198 E181.47743
G1 X152.876 Y52.548 E181.82453
G1 X149.998 Y52.040 E182.17163
G1 X147.098 Y51.677 E182.51874
G1 X144.183 Y51.458 E182.86584
G1 X141.276 Y51.386 E183.21129
G1 X5.436 Y51.386 E199.34433
G1 X4.661 Y52.100 F7800.000
G1 F1800.000
G1 X4.661 Y35.900 E201.26833
G1 X141.257 Y35.900 E217.49106
G1 X144.955 Y35.992 E217.93045
G1 X148.639 Y36.268 E218.36926
G1 X152.306 Y36.728 E218.80807
G1 X155.944 Y37.369 E219.24687
G1 X159.546 Y38.191 E219.68567
G1 X163.103 Y39.192 E220.12448
G1 X166.605 Y40.369 E220.56328
G1 X170.044 Y41.719 E221.00209
G1 X173.412 Y43.238 E221.44090
G1 X176.700 Y44.924 E221.87970
G1 X179.900 Y46.771 E222.31851
G1 X183.003 Y48.776 E222.75727
G1 X186.003 Y50.933 E223.19607
G1 X188.892 Y53.236 E223.63494
G1 X191.662 Y55.681 E224.07373
G1 X194.307 Y58.261 E224.51251
G1 X196.820 Y60.969 E224.95135
G1 X199.195 Y63.799 E225.39009
G1 X201.426 Y66.745 E225.82891
G1 X203.507 Y69.797 E226.26774
G1 X205.434 Y72.950 E226.70655
G1 X207.201 Y76.195 E227.14537
G1 X208.804 Y79.524 E227.58414
G1 X210.239 Y82.928 E228.02296
G1 X211.503 Y86.400 E228.46178
G1 X212.592 Y89.931 E228.90058
G1 X213.503 Y93.511 E229.33937
G1 X214.235 Y97.133 E229.77817
G1 X214.786 Y100.786 E230.21699
G1 X215.154 Y104.462 E230.65579
G1 X215.339 Y108.153 E231.09460
G1 X215.339 Y111.847 E231.53339
G1 X215.154 Y115.537 E231.97220
G1 X214.786 Y119.214 E232.41100
G1 X214.235 Y122.867 E232.84982
G1 X213.503 Y126.489 E233.28863
G1 X212.592 Y130.069 E233.72741
G1 X211.503 Y133.600 E234.16622
G1 X210.239 Y137.072 E234.60503
G1 X208.804 Y140.476 E235.04385
G1 X207.201 Y143.805 E235.48262
G1 X205.434 Y147.050 E235.92144
G1 X203.507 Y150.203 E236.36025
G1 X201.426 Y153.255 E236.79909
G1 X199.195 Y156.201 E237.23790
G1 X196.820 Y159.031 E237.67668
G1 X194.307 Y161.740 E238.11551
G1 X191.662 Y164.319 E238.55423
G1 X188.892 Y166.763 E238.99303
G1 X186.003 Y169.067 E239.43190
G1 X183.003 Y171.224 E239.87074
G1 X179.900 Y173.229 E240.30947
G1 X176.700 Y175.077 E240.74832
G1 X173.412 Y176.762 E241.18708
G1 X170.044 Y178.281 E241.62591
G1 X166.605 Y179.631 E242.06471
G1 X163.103 Y180.808 E242.50350
G1 X159.546 Y181.808 E242.94231
G1 X155.944 Y182.631 E243.38112
G1 X152.306 Y183.272 E243.81992
G1 X148.639 Y183.732 E244.25873
G1 X144.955 Y184.007 E244.69753
G1 X141.256 Y184.100 E245.13693
G1 X81.661 Y184.100 E252.21474
G1 X81.661 Y167.900 E254.13874
G1 X141.266 Y167.900 E261.21773
G1 X144.148 Y167.829 E261.56001
G1 X147.027 Y167.612 E261.90290
G1 X149.891 Y167.254 E262.24575
G1 X152.734 Y166.752 E262.58864
G1 X155.549 Y166.110 E262.93151
G1 X158.328 Y165.327 E263.27440
G1 X161.065 Y164.408 E263.61726
G1 X163.752 Y163.354 E263.96011
G1 X166.383 Y162.167 E264.30298
G1 X168.952 Y160.849 E264.64586
G1 X171.453 Y159.405 E264.98876
G1 X173.878 Y157.840 E265.33160
G1 X176.222 Y156.154 E265.67449
G1 X178.479 Y154.355 E266.01733
G1 X180.644 Y152.444 E266.36024
G1 X182.710 Y150.428 E266.70308
G1 X184.673 Y148.312 E267.04594
G1 X186.529 Y146.100 E267.38883
G1 X188.272 Y143.799 E267.73169
G1 X189.899 Y141.413 E268.07456
G1 X191.404 Y138.950 E268.41743
G1 X192.786 Y136.415 E268.76035
G1 X194.038 Y133.814 E269.10324
G1 X195.159 Y131.153 E269.44608
G1 X196.147 Y128.440 E269.78896
G1 X196.998 Y125.682 E270.13183
G1 X197.710 Y122.884 E270.47469
G1 X198.282 Y120.054 E270.81755
G1 X198.713 Y117.200 E271.16044
G1 X199.000 Y114.327 E271.50332
G1 X199.143 Y111.444 E271.84618
G1 X199.143 Y108.557 E272.18906
G1 X199.000 Y105.673 E272.53192
G1 X198.713 Y102.801 E272.87480
G1 X198.282 Y99.946 E273.21768
G1 X197.710 Y97.116 E273.56055
G1 X196.998 Y94.318 E273.90341
G1 X196.147 Y91.560 E274.24628
G1 X195.159 Y88.847 E274.58917
G1 X194.038 Y86.186 E274.93201
G1 X192.786 Y83.585 E275.27490
G1 X191.404 Y81.050 E275.61780
G1 X189.900 Y78.587 E275.96062
G1 X188.272 Y76.201 E276.30356
G1 X186.529 Y73.900 E276.64642
G1 X184.674 Y71.688 E276.98930
G1 X182.710 Y69.572 E277.33217
G1 X180.644 Y67.556 E277.67500
G1 X178.479 Y65.646 E278.01788
G1 X176.222 Y63.846 E278.36076
G1 X173.878 Y62.161 E278.70362
G1 X171.453 Y60.594 E279.04650
G1 X168.953 Y59.151 E279.38937
G1 X166.384 Y57.834 E279.73224
G1 X163.752 Y56.646 E280.07511
G1 X161.065 Y55.592 E280.41799
G1 X158.328 Y54.672 E280.76086
G1 X155.549 Y53.890 E281.10374
