; generated by Slic3r 1.3.1-dev (Build 18ddd3a36dc69d81fb9b7440498bff9e1dde8b7e) on 2021-11-12 at 10:07:12

; external perimeters extrusion width = 0.44mm (3.38mm^3/s)
; perimeters extrusion width = 0.48mm (7.54mm^3/s)
; infill extrusion width = 0.48mm (10.05mm^3/s)
; solid infill extrusion width = 0.48mm (2.51mm^3/s)
; top infill extrusion width = 0.48mm (1.88mm^3/s)

M107
G92 E0
M190 S85 ; set bed temperature and wait for it to be reached
M104 S225 ; set temperature
G28 ; home all axes
G1 Z5 F5000 ; lift nozzle

; Filament gcode

M109 S225 ; set temperature and wait for it to be reached
G21 ; set units to millimeters
G90 ; use absolute coordinates
M82 ; use absolute distances for extrusion
G92 E0
G1 Z0.400 F7800.000
G1 E-2.00000 F2400.00000
G92 E0
G1 X3.004 Y28.906 F7800.000
G1 E2.00000 F2400.00000
G1 F1800.000
G1 X4.261 Y28.787 E2.14997
G1 X141.261 Y28.787 E18.42080
G1 X145.472 Y28.897 E18.92105
G1 X149.518 Y29.207 E19.40297
G1 X153.204 Y29.671 E19.84419
G1 X157.188 Y30.365 E20.32441
G1 X161.138 Y31.257 E20.80544
G1 X165.039 Y32.346 E21.28638
G1 X169.193 Y33.742 E21.80685
G1 X172.964 Y35.230 E22.28839
G1 X176.350 Y36.760 E22.72968
G1 X179.953 Y38.598 E23.21000
G1 X183.462 Y40.613 E23.69056
G1 X186.871 Y42.806 E24.17200
G1 X190.162 Y45.161 E24.65267
G1 X193.334 Y47.678 E25.13357
G1 X196.379 Y50.358 E25.61529
G1 X199.279 Y53.174 E26.09539
G1 X202.041 Y56.138 E26.57651
G1 X204.651 Y59.235 E27.05758
G1 X207.102 Y62.457 E27.53834
G1 X209.390 Y65.798 E28.01925
G1 X211.508 Y69.251 E28.50033
G1 X213.452 Y72.801 E28.98106
G1 X215.216 Y76.445 E29.46188
G1 X216.798 Y80.174 E29.94296
G1 X218.191 Y83.977 E30.42398
G1 X219.392 Y87.843 E30.90471
G1 X220.400 Y91.765 E31.38567
G1 X221.209 Y95.736 E31.86698
G1 X221.821 Y99.733 E32.34728
G1 X222.232 Y103.765 E32.82854
G1 X222.443 Y107.807 E33.30926
G1 X222.443 Y112.193 E33.83022
G1 X222.232 Y116.236 E34.31099
G1 X221.821 Y120.264 E34.79190
G1 X221.209 Y124.264 E35.27249
G1 X220.400 Y128.235 E35.75380
G1 X219.392 Y132.157 E36.23476
G1 X218.191 Y136.023 E36.71550
G1 X216.798 Y139.827 E37.19668
G1 X215.217 Y143.552 E37.67719
G1 X213.451 Y147.200 E38.15861
G1 X211.509 Y150.746 E38.63871
G1 X209.390 Y154.202 E39.12022
G1 X207.296 Y157.272 E39.56156
G1 X204.860 Y160.503 E40.04214
G1 X202.264 Y163.611 E40.52303
G1 X199.511 Y166.588 E41.00463
G1 X196.621 Y169.418 E41.48502
G1 X193.595 Y172.102 E41.96541
G1 X190.428 Y174.638 E42.44723
G1 X187.146 Y177.007 E42.92794
G1 X183.749 Y179.210 E43.40889
G1 X180.247 Y181.242 E43.88973
G1 X176.649 Y183.096 E44.37043
G1 X172.651 Y184.902 E44.89148
G1 X168.881 Y186.371 E45.37199
G1 X165.039 Y187.654 E45.85308
G1 X161.138 Y188.743 E46.33403
G1 X157.516 Y189.569 E46.77524
G1 X153.533 Y190.281 E47.25580
G1 X149.182 Y190.824 E47.77661
G1 X145.476 Y191.102 E48.21799
G1 X141.428 Y191.211 E48.69891
G1 X81.259 Y191.213 E55.84482
G1 X78.985 Y190.816 E56.11904
G1 X76.979 Y189.672 E56.39326
G1 X75.460 Y187.882 E56.67212
G1 X-1.538 Y55.882 E74.82132
G1 X-2.341 Y53.717 E75.09555
G1 X-2.453 Y52.499 E75.24083
G1 X-2.453 Y35.501 E77.25960
G1 X-2.056 Y33.226 E77.53383
G1 X-0.912 Y31.221 E77.80805
G1 X0.844 Y29.721 E78.08228
G1 X2.948 Y28.927 E78.34938
G1 E76.34938 F2400.00000
G92 E0
G1 X89.166 Y172.087 F7800.000
G1 E2.00000 F2400.00000
G1 F1800.000
G1 X89.783 Y171.732 E2.08450
G1 X90.460 Y171.501 E2.16952
G1 X91.176 Y171.414 E2.25517
G1 X91.857 Y171.466 E2.33633
G1 X92.423 Y171.608 E2.40556
G1 X93.055 Y171.894 E2.48797
G1 X93.615 Y172.297 E2.56990
G1 X94.022 Y172.712 E2.63894
G1 X94.397 Y173.264 E2.71825
G1 X94.618 Y173.750 E2.78164
G1 X94.745 Y174.160 E2.83254
G1 X94.845 Y174.823 E2.91216
G1 X94.808 Y175.538 E2.99719
G1 X94.632 Y176.226 E3.08158
G1 X94.322 Y176.870 E3.16641
G1 X93.890 Y177.442 E3.25158
G1 X93.392 Y177.879 E3.33025
G1 X93.039 Y178.111 E3.38041
G1 X92.544 Y178.350 E3.44573
G1 X91.899 Y178.527 E3.52516
G1 X91.329 Y178.584 E3.59316
G1 X90.645 Y178.533 E3.67464
G1 X89.977 Y178.350 E3.75690
G1 X89.444 Y178.093 E3.82724
G1 X88.881 Y177.684 E3.90985
G1 X88.398 Y177.160 E3.99444
G1 X88.034 Y176.561 E4.07770
G1 X87.784 Y175.895 E4.16222
G1 X87.676 Y175.180 E4.24815
G1 X87.713 Y174.464 E4.33325
G1 X87.889 Y173.771 E4.41818
G1 X88.202 Y173.126 E4.50333
G1 X88.631 Y172.561 E4.58757
G1 X89.121 Y172.127 E4.66532
G1 X89.585 Y172.670 F7800.000
G1 F1800.000
G1 X90.079 Y172.386 E4.73298
G1 X90.620 Y172.201 E4.80088
G1 X91.192 Y172.132 E4.86933
G1 X91.743 Y172.173 E4.93488
G1 X92.186 Y172.285 E4.98922
G1 X92.696 Y172.516 E5.05564
G1 X93.148 Y172.841 E5.12179
G1 X93.467 Y173.166 E5.17593
G1 X93.772 Y173.615 E5.24042
G1 X93.949 Y174.005 E5.29118
G1 X94.047 Y174.320 E5.33036
G1 X94.128 Y174.858 E5.39502
G1 X94.098 Y175.430 E5.46299
G1 X93.957 Y175.980 E5.53051
G1 X93.709 Y176.496 E5.59847
G1 X93.364 Y176.953 E5.66654
G1 X92.958 Y177.309 E5.73065
G1 X92.686 Y177.488 E5.76932
G1 X92.292 Y177.679 E5.82129
G1 X91.768 Y177.822 E5.88585
G1 X91.320 Y177.867 E5.93932
G1 X90.767 Y177.826 E6.00516
G1 X90.229 Y177.679 E6.07145
G1 X89.812 Y177.477 E6.12648
G1 X89.357 Y177.148 E6.19310
G1 X88.971 Y176.729 E6.26080
G1 X88.679 Y176.248 E6.32760
G1 X88.479 Y175.715 E6.39526
G1 X88.393 Y175.144 E6.46376
G1 X88.422 Y174.571 E6.53188
G1 X88.563 Y174.017 E6.59982
G1 X88.813 Y173.501 E6.66789
G1 X89.157 Y173.049 E6.73531
G1 X89.540 Y172.710 E6.79614
G1 X90.005 Y173.253 F7800.000
G1 F1800.000
G1 X90.375 Y173.039 E6.84697
G1 X90.780 Y172.901 E6.89773
G1 X91.208 Y172.849 E6.94899
G1 X91.628 Y172.881 E6.99894
G1 X91.950 Y172.962 E7.03839
G1 X92.337 Y173.137 E7.08880
G1 X92.681 Y173.384 E7.13917
G1 X92.912 Y173.621 E7.17842
G1 X93.147 Y173.966 E7.22810
G1 X93.280 Y174.259 E7.26621
G1 X93.348 Y174.479 E7.29367
G1 X93.411 Y174.893 E7.34337
G1 X93.389 Y175.322 E7.39430
G1 X93.283 Y175.735 E7.44494
G1 X93.097 Y176.122 E7.49604
G1 X92.838 Y176.465 E7.54699
G1 X92.524 Y176.740 E7.59655
G1 X92.333 Y176.866 E7.62374
G1 X92.040 Y177.007 E7.66235
G1 X91.637 Y177.118 E7.71205
G1 X91.311 Y177.151 E7.75098
G1 X90.889 Y177.119 E7.80119
G1 X90.480 Y177.007 E7.85151
G1 X90.179 Y176.862 E7.89121
G1 X89.834 Y176.611 E7.94184
G1 X89.544 Y176.297 E7.99265
G1 X89.324 Y175.935 E8.04301
G1 X89.174 Y175.534 E8.09379
G1 X89.110 Y175.109 E8.14487
G1 X89.132 Y174.679 E8.19601
G1 X89.238 Y174.263 E8.24695
G1 X89.425 Y173.877 E8.29794
G1 X89.683 Y173.538 E8.34855
G1 X89.960 Y173.292 E8.39247
G1 X90.005 Y173.253 F7800.000
G1 E6.39247 F2400.00000
G92 E0
G1 X107.713 Y174.464 F7800.000
G1 E2.00000 F2400.00000
G1 F1800.000
G1 X107.889 Y173.771 E2.08493
G1 X108.202 Y173.126 E2.17008
G1 X108.631 Y172.561 E2.25431
G1 X109.166 Y172.087 E2.33919
G1 X109.784 Y171.731 E2.42389
G1 X110.463 Y171.501 E2.50907
G1 X111.175 Y171.414 E2.59423
G1 X111.861 Y171.466 E2.67591
G1 X112.424 Y171.609 E2.74495
G1 X113.055 Y171.894 E2.82716
G1 X113.634 Y172.311 E2.91192
G1 X114.119 Y172.832 E2.99642
G1 X114.495 Y173.446 E3.08194
G1 X114.738 Y174.117 E3.16671
G1 X114.845 Y174.823 E3.25149
G1 X114.808 Y175.538 E3.33651
G1 X114.632 Y176.226 E3.42091
G1 X114.322 Y176.870 E3.50574
G1 X113.890 Y177.442 E3.59091
G1 X113.392 Y177.879 E3.66958
G1 X113.039 Y178.111 E3.71974
G1 X112.545 Y178.350 E3.78489
G1 X111.901 Y178.527 E3.86425
G1 X111.325 Y178.584 E3.93294
G1 X110.645 Y178.533 E4.01402
G1 X109.977 Y178.350 E4.09623
G1 X109.444 Y178.093 E4.16657
G1 X108.881 Y177.684 E4.24919
G1 X108.398 Y177.160 E4.33378
G1 X108.034 Y176.561 E4.41704
G1 X107.784 Y175.895 E4.50155
G1 X107.676 Y175.180 E4.58748
G1 X107.710 Y174.524 E4.66546
G1 X108.422 Y174.571 F7800.000
G1 F1800.000
G1 X108.563 Y174.017 E4.73340
G1 X108.813 Y173.501 E4.80147
G1 X109.157 Y173.049 E4.86889
G1 X109.585 Y172.670 E4.93685
G1 X110.080 Y172.385 E5.00463
G1 X110.623 Y172.201 E5.07271
G1 X111.192 Y172.132 E5.14077
G1 X111.745 Y172.173 E5.20673
G1 X112.187 Y172.285 E5.26087
G1 X112.696 Y172.516 E5.32716
G1 X113.160 Y172.849 E5.39503
G1 X113.547 Y173.266 E5.46261
G1 X113.848 Y173.757 E5.53106
G1 X114.043 Y174.293 E5.59880
G1 X114.128 Y174.858 E5.66660
G1 X114.098 Y175.430 E5.73458
G1 X113.957 Y175.980 E5.80210
G1 X113.709 Y176.496 E5.87006
G1 X113.364 Y176.953 E5.93812
G1 X112.958 Y177.309 E6.00223
G1 X112.686 Y177.488 E6.04091
G1 X112.293 Y177.678 E6.09277
G1 X111.770 Y177.822 E6.15720
G1 X111.317 Y177.867 E6.21128
G1 X110.767 Y177.826 E6.27679
G1 X110.229 Y177.679 E6.34304
G1 X109.812 Y177.477 E6.39807
G1 X109.357 Y177.148 E6.46469
G1 X108.971 Y176.729 E6.53239
G1 X108.679 Y176.248 E6.59920
G1 X108.479 Y175.715 E6.66685
G1 X108.393 Y175.144 E6.73535
G1 X108.419 Y174.631 E6.79635
G1 X109.132 Y174.679 F7800.000
G1 F1800.000
G1 X109.238 Y174.263 E6.84729
G1 X109.425 Y173.877 E6.89828
G1 X109.683 Y173.538 E6.94889
G1 X110.005 Y173.253 E6.99993
G1 X110.376 Y173.039 E7.05080
G1 X110.782 Y172.901 E7.10176
G1 X111.208 Y172.849 E7.15273
G1 X111.630 Y172.881 E7.20298
G1 X111.950 Y172.962 E7.24221
G1 X112.337 Y173.137 E7.29258
G1 X112.685 Y173.387 E7.34357
G1 X112.976 Y173.700 E7.39423
G1 X113.202 Y174.069 E7.44559
G1 X113.347 Y174.470 E7.49630
G1 X113.411 Y174.893 E7.54713
G1 X113.389 Y175.322 E7.59806
G1 X113.283 Y175.735 E7.64871
G1 X113.097 Y176.122 E7.69980
G1 X112.838 Y176.465 E7.75076
G1 X112.524 Y176.740 E7.80032
G1 X112.333 Y176.866 E7.82750
G1 X112.041 Y177.007 E7.86608
G1 X111.639 Y177.118 E7.91558
G1 X111.308 Y177.150 E7.95504
G1 X110.889 Y177.119 E8.00497
G1 X110.480 Y177.007 E8.05528
G1 X110.179 Y176.862 E8.09498
G1 X109.834 Y176.611 E8.14561
G1 X109.544 Y176.297 E8.19642
G1 X109.324 Y175.935 E8.24678
G1 X109.174 Y175.534 E8.29757
G1 X109.110 Y175.109 E8.34864
G1 X109.129 Y174.739 E8.39266
G1 X109.132 Y174.679 F7800.000
G1 E6.39266 F2400.00000
G92 E0
G1 X160.679 Y170.972 F7800.000
G1 E2.00000 F2400.00000
G1 F1800.000
G1 X160.712 Y170.254 E2.08537
G1 X160.880 Y169.609 E2.16444
G1 X161.038 Y169.226 E2.21365
G1 X161.299 Y168.767 E2.27644
G1 X161.651 Y168.335 E2.34260
G1 X162.163 Y167.877 E2.42417
G1 X162.787 Y167.520 E2.50949
G1 X163.458 Y167.293 E2.59364
G1 X164.148 Y167.204 E2.67628
G1 X164.731 Y167.236 E2.74570
G1 X165.410 Y167.390 E2.82837
G1 X166.050 Y167.684 E2.91195
G1 X166.636 Y168.098 E2.99714
G1 X167.119 Y168.626 E3.08221
G1 X167.491 Y169.228 E3.16626
G1 X167.738 Y169.904 E3.25166
G1 X167.845 Y170.613 E3.33684
G1 X167.808 Y171.323 E3.42132
G1 X167.632 Y172.020 E3.50670
G1 X167.321 Y172.658 E3.59102
G1 X166.892 Y173.230 E3.67584
G1 X166.351 Y173.705 E3.76132
G1 X165.738 Y174.058 E3.84534
G1 X165.066 Y174.287 E3.92975
G1 X164.350 Y174.378 E4.01542
G1 X163.657 Y174.326 E4.09801
G1 X163.097 Y174.180 E4.16673
G1 X162.467 Y173.899 E4.24860
G1 X161.887 Y173.479 E4.33372
G1 X161.401 Y172.957 E4.41839
G1 X161.027 Y172.345 E4.50362
G1 X160.784 Y171.674 E4.58827
G1 X160.688 Y171.031 E4.66554
G1 X161.395 Y170.935 F7800.000
G1 F1800.000
G1 X161.422 Y170.361 E4.73372
G1 X161.558 Y169.837 E4.79811
G1 X161.680 Y169.541 E4.83612
G1 X161.891 Y169.172 E4.88657
G1 X162.169 Y168.829 E4.93895
G1 X162.583 Y168.460 E5.00482
G1 X163.081 Y168.175 E5.07307
G1 X163.619 Y167.992 E5.14052
G1 X164.174 Y167.921 E5.20696
G1 X164.632 Y167.946 E5.26144
G1 X165.179 Y168.070 E5.32809
G1 X165.692 Y168.305 E5.39505
G1 X166.161 Y168.636 E5.46321
G1 X166.546 Y169.059 E5.53114
G1 X166.845 Y169.542 E5.59860
G1 X167.042 Y170.082 E5.66684
G1 X167.128 Y170.648 E5.73490
G1 X167.098 Y171.216 E5.80245
G1 X166.957 Y171.774 E5.87075
G1 X166.709 Y172.284 E5.93823
G1 X166.365 Y172.742 E6.00616
G1 X165.933 Y173.121 E6.07442
G1 X165.442 Y173.404 E6.14179
G1 X164.904 Y173.588 E6.20931
G1 X164.332 Y173.660 E6.27779
G1 X163.774 Y173.619 E6.34422
G1 X163.334 Y173.504 E6.39827
G1 X162.826 Y173.277 E6.46432
G1 X162.362 Y172.942 E6.53233
G1 X161.973 Y172.523 E6.60015
G1 X161.674 Y172.034 E6.66828
G1 X161.480 Y171.498 E6.73595
G1 X161.404 Y170.994 E6.79648
G1 X162.112 Y170.898 F7800.000
G1 F1800.000
G1 X162.132 Y170.469 E6.84748
G1 X162.237 Y170.064 E6.89719
G1 X162.323 Y169.855 E6.92401
G1 X162.482 Y169.576 E6.96210
G1 X162.687 Y169.324 E7.00071
G1 X163.002 Y169.043 E7.05089
G1 X163.376 Y168.829 E7.10206
G1 X163.781 Y168.691 E7.15280
G1 X164.201 Y168.638 E7.20306
G1 X164.533 Y168.655 E7.24259
G1 X164.949 Y168.750 E7.29322
G1 X165.334 Y168.927 E7.34356
G1 X165.686 Y169.175 E7.39468
G1 X165.974 Y169.491 E7.44547
G1 X166.199 Y169.855 E7.49636
G1 X166.347 Y170.259 E7.54744
G1 X166.411 Y170.683 E7.59836
G1 X166.389 Y171.109 E7.64899
G1 X166.283 Y171.527 E7.70021
G1 X166.096 Y171.910 E7.75086
G1 X165.839 Y172.254 E7.80189
G1 X165.516 Y172.538 E7.85293
G1 X165.145 Y172.751 E7.90365
G1 X164.742 Y172.889 E7.95428
G1 X164.314 Y172.943 E8.00557
G1 X163.892 Y172.911 E8.05583
G1 X163.571 Y172.828 E8.09521
G1 X163.185 Y172.655 E8.14544
G1 X162.837 Y172.404 E8.19635
G1 X162.545 Y172.090 E8.24731
G1 X162.321 Y171.723 E8.29835
G1 X162.176 Y171.322 E8.34904
G1 X162.121 Y170.957 E8.39284
G1 X162.112 Y170.898 F7800.000
G1 E6.39284 F2400.00000
G92 E0
G1 X197.765 Y138.642 F7800.000
G1 E2.00000 F2400.00000
G1 F1800.000
G1 X197.386 Y138.026 E2.08588
G1 X197.144 Y137.350 E2.17121
G1 X197.038 Y136.647 E2.25556
G1 X197.075 Y135.932 E2.34059
G1 X197.251 Y135.244 E2.42499
G1 X197.561 Y134.600 E2.50981
G1 X197.993 Y134.028 E2.59498
G1 X198.486 Y133.595 E2.67294
G1 X198.839 Y133.360 E2.72327
G1 X199.341 Y133.120 E2.78935
G1 X199.982 Y132.943 E2.86835
G1 X200.558 Y132.886 E2.93703
G1 X201.238 Y132.937 E3.01811
G1 X201.934 Y133.128 E3.10377
G1 X202.572 Y133.461 E3.18932
G1 X203.124 Y133.899 E3.27290
G1 X203.589 Y134.451 E3.35865
G1 X203.927 Y135.077 E3.44311
G1 X204.132 Y135.736 E3.52508
G1 X204.203 Y136.310 E3.59379
G1 X204.171 Y137.002 E3.67612
G1 X203.994 Y137.696 E3.76118
G1 X203.683 Y138.343 E3.84638
G1 X203.252 Y138.909 E3.93089
G1 X202.717 Y139.383 E4.01578
G1 X202.099 Y139.739 E4.10047
G1 X201.420 Y139.969 E4.18565
G1 X200.708 Y140.056 E4.27081
G1 X200.024 Y140.004 E4.35228
G1 X199.458 Y139.862 E4.42156
G1 X198.823 Y139.574 E4.50434
G1 X198.250 Y139.159 E4.58845
G1 X197.806 Y138.686 E4.66550
G1 X198.335 Y138.207 F7800.000
G1 F1800.000
G1 X198.034 Y137.716 E4.73395
G1 X197.840 Y137.174 E4.80221
G1 X197.755 Y136.612 E4.86976
G1 X197.785 Y136.040 E4.93773
G1 X197.926 Y135.490 E5.00526
G1 X198.174 Y134.974 E5.07321
G1 X198.519 Y134.517 E5.14128
G1 X198.922 Y134.163 E5.20496
G1 X199.193 Y133.982 E5.24366
G1 X199.592 Y133.791 E5.29617
G1 X200.113 Y133.648 E5.36038
G1 X200.566 Y133.603 E5.41445
G1 X201.116 Y133.644 E5.47995
G1 X201.671 Y133.796 E5.54832
G1 X202.181 Y134.063 E5.61668
G1 X202.624 Y134.414 E5.68372
G1 X202.995 Y134.855 E5.75224
G1 X203.265 Y135.355 E5.81973
G1 X203.431 Y135.887 E5.88592
G1 X203.487 Y136.338 E5.93984
G1 X203.461 Y136.896 E6.00627
G1 X203.319 Y137.450 E6.07420
G1 X203.071 Y137.968 E6.14238
G1 X202.726 Y138.421 E6.20997
G1 X202.298 Y138.800 E6.27794
G1 X201.803 Y139.085 E6.34572
G1 X201.260 Y139.269 E6.41379
G1 X200.691 Y139.338 E6.48185
G1 X200.139 Y139.297 E6.54769
G1 X199.695 Y139.185 E6.60206
G1 X199.184 Y138.954 E6.66870
G1 X198.724 Y138.621 E6.73610
G1 X198.376 Y138.250 E6.79642
G1 X198.906 Y137.771 F7800.000
G1 F1800.000
G1 X198.681 Y137.405 E6.84745
G1 X198.536 Y136.999 E6.89863
G1 X198.472 Y136.577 E6.94937
G1 X198.494 Y136.148 E7.00030
G1 X198.600 Y135.735 E7.05094
G1 X198.786 Y135.348 E7.10204
G1 X199.045 Y135.005 E7.15300
G1 X199.358 Y134.731 E7.20240
G1 X199.547 Y134.604 E7.22947
G1 X199.843 Y134.463 E7.26841
G1 X200.244 Y134.352 E7.31783
G1 X200.575 Y134.320 E7.35729
G1 X200.994 Y134.351 E7.40722
G1 X201.409 Y134.465 E7.45828
G1 X201.791 Y134.664 E7.50945
G1 X202.124 Y134.929 E7.55996
G1 X202.402 Y135.259 E7.61125
G1 X202.604 Y135.633 E7.66178
G1 X202.730 Y136.038 E7.71217
