; generated by Slic3r 1.3.1-dev (Build 18ddd3a36dc69d81fb9b7440498bff9e1dde8b7e) on 2021-11-12 at 17:22:45

; external perimeters extrusion width = 0.44mm (3.38mm^3/s)
; perimeters extrusion width = 0.48mm (7.54mm^3/s)
; infill extrusion width = 0.48mm (10.05mm^3/s)
; solid infill extrusion width = 0.48mm (2.51mm^3/s)
; top infill extrusion width = 0.48mm (1.88mm^3/s)

M107
G92 E0
M190 S85 ; set bed temperature and wait for it to be reached
M104 S225 ; set temperature
G28 ; home all axes
G1 Z5 F5000 ; lift nozzle

; Filament gcode

M109 S225 ; set temperature and wait for it to be reached
G21 ; set units to millimeters
G90 ; use absolute coordinates
M82 ; use absolute distances for extrusion
G92 E0
G1 Z0.400 F7800.000
G1 E-2.00000 F2400.00000
G92 E0
G1 X3.004 Y28.905 F7800.000
G1 E2.00000 F2400.00000
G1 F1800.000
G1 X4.261 Y28.786 E2.14997
G1 X141.261 Y28.786 E18.42080
G1 X145.477 Y28.897 E18.92160
G1 X149.514 Y29.208 E19.40252
G1 X153.200 Y29.670 E19.84370
G1 X157.189 Y30.365 E20.32461
G1 X161.139 Y31.258 E20.80554
G1 X165.039 Y32.347 E21.28647
G1 X169.195 Y33.743 E21.80712
G1 X172.961 Y35.230 E22.28805
G1 X176.649 Y36.903 E22.76898
G1 X180.249 Y38.758 E23.24990
G1 X183.466 Y40.615 E23.69108
G1 X186.872 Y42.805 E24.17201
G1 X190.164 Y45.162 E24.65288
G1 X193.335 Y47.680 E25.13377
G1 X196.377 Y50.354 E25.61480
G1 X199.282 Y53.175 E26.09571
G1 X202.042 Y56.137 E26.57657
G1 X204.652 Y59.235 E27.05762
G1 X207.103 Y62.457 E27.53841
G1 X209.573 Y66.079 E28.05912
G1 X211.677 Y69.538 E28.53996
G1 X213.607 Y73.100 E29.02114
G1 X215.355 Y76.751 E29.50186
G1 X216.920 Y80.485 E29.98270
G1 X218.298 Y84.294 E30.46373
G1 X219.484 Y88.167 E30.94480
G1 X220.475 Y92.092 E31.42559
G1 X221.269 Y96.062 E31.90642
G1 X221.864 Y100.068 E32.38740
G1 X222.259 Y104.098 E32.86838
G1 X222.453 Y108.143 E33.34928
G1 X222.444 Y112.192 E33.83016
G1 X222.234 Y116.236 E34.31115
G1 X221.823 Y120.265 E34.79211
G1 X221.211 Y124.267 E35.27296
G1 X220.400 Y128.234 E35.75376
G1 X219.393 Y132.157 E36.23480
G1 X218.191 Y136.025 E36.71583
G1 X216.798 Y139.826 E37.19668
G1 X215.218 Y143.553 E37.67745
G1 X213.454 Y147.199 E38.15856
G1 X211.510 Y150.751 E38.63943
G1 X209.391 Y154.202 E39.12042
G1 X207.102 Y157.543 E39.60133
G1 X204.652 Y160.765 E40.08205
G1 X202.042 Y163.863 E40.56320
G1 X199.281 Y166.826 E41.04415
G1 X196.377 Y169.646 E41.52488
G1 X193.335 Y172.320 E42.00594
G1 X190.430 Y174.636 E42.44718
G1 X186.871 Y177.195 E42.96779
G1 X183.467 Y179.384 E43.44850
G1 X179.954 Y181.403 E43.92972
G1 X176.348 Y183.242 E44.41044
G1 X172.653 Y184.900 E44.89144
G1 X168.880 Y186.372 E45.37235
G1 X165.039 Y187.653 E45.85327
G1 X161.463 Y188.659 E46.29445
G1 X157.518 Y189.569 E46.77527
G1 X153.531 Y190.280 E47.25628
G1 X149.180 Y190.825 E47.77708
G1 X145.476 Y191.102 E48.21825
G1 X141.430 Y191.212 E48.69895
G1 X81.261 Y191.214 E55.84483
G1 X78.987 Y190.817 E56.11905
G1 X76.981 Y189.673 E56.39328
G1 X75.462 Y187.883 E56.67213
G1 X-1.538 Y55.883 E74.82145
G1 X-2.341 Y53.718 E75.09567
G1 X-2.453 Y52.500 E75.24097
G1 X-2.453 Y35.500 E77.25998
G1 X-2.056 Y33.225 E77.53420
G1 X-0.912 Y31.220 E77.80843
G1 X0.844 Y29.720 E78.08265
G1 X2.948 Y28.926 E78.34975
G1 E76.34975 F2400.00000
G92 E0
G1 X39.590 Y50.672 F7800.000
G1 E2.00000 F2400.00000
G1 F1800.000
G1 X6.090 Y50.672 E5.97865
G1 X6.090 Y37.328 E7.56337
G1 X141.239 Y37.328 E23.61435
G1 X144.884 Y37.419 E24.04740
G1 X148.497 Y37.690 E24.47775
G1 X152.093 Y38.141 E24.90810
G1 X155.661 Y38.770 E25.33844
G1 X159.194 Y39.576 E25.76878
G1 X162.682 Y40.557 E26.19913
G1 X166.116 Y41.711 E26.62947
G1 X169.490 Y43.035 E27.05981
G1 X172.792 Y44.526 E27.49016
G1 X176.017 Y46.179 E27.92051
G1 X179.155 Y47.990 E28.35084
G1 X182.198 Y49.956 E28.78114
G1 X185.140 Y52.072 E29.21150
G1 X187.974 Y54.331 E29.64191
G1 X190.690 Y56.728 E30.07222
G1 X193.284 Y59.258 E30.50255
G1 X195.749 Y61.914 E30.93292
G1 X198.078 Y64.690 E31.36320
G1 X200.266 Y67.579 E31.79357
G1 X202.307 Y70.573 E32.22395
G1 X204.197 Y73.665 E32.65429
G1 X205.930 Y76.847 E33.08464
G1 X207.501 Y80.111 E33.51494
G1 X208.909 Y83.450 E33.94532
G1 X210.149 Y86.855 E34.37568
G1 X211.217 Y90.318 E34.80600
G1 X212.110 Y93.829 E35.23632
G1 X212.828 Y97.381 E35.66669
G1 X213.369 Y100.964 E36.09705
G1 X213.730 Y104.569 E36.52737
G1 X213.910 Y108.188 E36.95772
G1 X213.910 Y111.812 E37.38806
G1 X213.730 Y115.431 E37.81841
G1 X213.369 Y119.036 E38.24874
G1 X212.828 Y122.619 E38.67909
G1 X212.110 Y126.171 E39.10946
G1 X211.217 Y129.682 E39.53978
G1 X210.149 Y133.145 E39.97010
G1 X208.909 Y136.550 E40.40046
G1 X207.501 Y139.889 E40.83084
G1 X205.930 Y143.153 E41.26114
G1 X204.197 Y146.335 E41.69149
G1 X202.307 Y149.427 E42.12184
G1 X200.266 Y152.421 E42.55222
G1 X198.078 Y155.310 E42.98259
G1 X195.749 Y158.086 E43.41291
G1 X193.284 Y160.742 E43.84324
G1 X190.691 Y163.271 E44.27352
G1 X187.974 Y165.669 E44.70385
G1 X185.140 Y167.928 E45.13427
G1 X182.198 Y170.044 E45.56466
G1 X179.155 Y172.009 E45.99493
G1 X176.017 Y173.822 E46.42530
G1 X172.792 Y175.474 E46.85560
G1 X169.489 Y176.965 E47.28597
G1 X166.117 Y178.288 E47.71631
G1 X162.682 Y179.442 E48.14664
G1 X159.194 Y180.424 E48.57700
G1 X155.661 Y181.230 E49.00735
G1 X152.093 Y181.860 E49.43768
G1 X148.497 Y182.310 E49.86802
G1 X144.884 Y182.580 E50.29837
G1 X141.239 Y182.672 E50.73144
G1 X83.090 Y182.672 E57.63749
G1 X83.090 Y169.328 E59.22221
G1 X141.284 Y169.328 E66.13367
G1 X144.219 Y169.256 E66.48232
G1 X147.169 Y169.034 E66.83367
G1 X150.104 Y168.666 E67.18497
G1 X153.017 Y168.153 E67.53632
G1 X155.901 Y167.494 E67.88767
G1 X158.749 Y166.693 E68.23901
G1 X161.553 Y165.751 E68.59031
G1 X164.307 Y164.670 E68.94162
G1 X167.003 Y163.454 E69.29296
G1 X169.636 Y162.104 E69.64432
G1 X172.198 Y160.625 E69.99567
G1 X174.683 Y159.020 E70.34696
G1 X177.084 Y157.293 E70.69832
G1 X179.397 Y155.449 E71.04962
G1 X181.615 Y153.491 E71.40101
G1 X183.733 Y151.426 E71.75230
G1 X185.745 Y149.257 E72.10361
G1 X187.646 Y146.991 E72.45496
G1 X189.432 Y144.633 E72.80629
G1 X191.099 Y142.189 E73.15762
G1 X192.641 Y139.665 E73.50893
G1 X194.057 Y137.067 E73.86031
G1 X195.341 Y134.401 E74.21169
G1 X196.489 Y131.675 E74.56298
G1 X197.501 Y128.896 E74.91431
G1 X198.373 Y126.069 E75.26567
G1 X199.103 Y123.202 E75.61699
G1 X199.689 Y120.303 E75.96828
G1 X200.130 Y117.377 E76.31964
G1 X200.424 Y114.434 E76.67099
G1 X200.572 Y111.479 E77.02230
G1 X200.572 Y108.521 E77.37365
G1 X200.424 Y105.567 E77.72496
G1 X200.130 Y102.623 E78.07631
G1 X199.689 Y99.698 E78.42767
G1 X199.103 Y96.798 E78.77896
G1 X198.373 Y93.932 E79.13029
G1 X197.501 Y91.105 E79.48164
G1 X196.489 Y88.325 E79.83298
G1 X195.341 Y85.599 E80.18427
G1 X194.057 Y82.933 E80.53566
G1 X192.641 Y80.336 E80.88699
G1 X191.100 Y77.811 E81.23828
G1 X189.432 Y75.367 E81.58970
G1 X187.646 Y73.009 E81.94100
G1 X185.745 Y70.743 E82.29234
G1 X183.733 Y68.574 E82.64366
G1 X181.616 Y66.509 E82.99496
G1 X179.397 Y64.551 E83.34630
G1 X177.085 Y62.707 E83.69764
G1 X174.683 Y60.980 E84.04896
G1 X172.198 Y59.375 E84.40030
G1 X169.636 Y57.896 E84.75163
G1 X167.003 Y56.547 E85.10297
G1 X164.307 Y55.330 E85.45430
G1 X161.553 Y54.249 E85.80564
G1 X158.749 Y53.307 E86.15697
G1 X155.901 Y52.506 E86.50831
G1 X153.017 Y51.847 E86.85963
G1 X150.104 Y51.334 E87.21097
G1 X147.169 Y50.966 E87.56231
G1 X144.219 Y50.745 E87.91364
G1 X141.284 Y50.672 E88.26226
G1 X45.933 Y50.672 E99.58665
G1 X45.933 Y70.672 E101.96195
G1 X39.590 Y70.672 E102.71533
G1 X39.590 Y50.732 E105.08350
G1 X38.876 Y51.386 F7800.000
G1 F1800.000
G1 X5.376 Y51.386 E109.06215
G1 X5.376 Y36.614 E110.81651
G1 X141.248 Y36.614 E126.95337
G1 X144.919 Y36.706 E127.38959
G1 X148.568 Y36.979 E127.82416
G1 X152.199 Y37.434 E128.25874
G1 X155.803 Y38.070 E128.69331
G1 X159.370 Y38.884 E129.12788
G1 X162.892 Y39.875 E129.56247
G1 X166.361 Y41.040 E129.99703
G1 X169.767 Y42.377 E130.43161
G1 X173.102 Y43.882 E130.86619
G1 X176.358 Y45.551 E131.30076
G1 X179.527 Y47.381 E131.73533
G1 X182.601 Y49.366 E132.16986
G1 X185.572 Y51.502 E132.60444
G1 X188.433 Y53.783 E133.03909
G1 X191.176 Y56.205 E133.47363
G1 X193.796 Y58.760 E133.90819
G1 X196.285 Y61.442 E134.34279
G1 X198.636 Y64.245 E134.77731
G1 X200.846 Y67.162 E135.21190
G1 X202.907 Y70.185 E135.64651
G1 X204.815 Y73.307 E136.08108
G1 X206.566 Y76.521 E136.51567
G1 X208.153 Y79.817 E136.95020
G1 X209.574 Y83.189 E137.38480
G1 X210.826 Y86.628 E137.81939
G1 X211.905 Y90.124 E138.25395
G1 X212.807 Y93.670 E138.68850
G1 X213.532 Y97.257 E139.12309
G1 X214.078 Y100.875 E139.55768
G1 X214.442 Y104.516 E139.99224
G1 X214.624 Y108.170 E140.42682
G1 X214.624 Y111.830 E140.86139
G1 X214.442 Y115.484 E141.29597
G1 X214.078 Y119.125 E141.73053
G1 X213.532 Y122.743 E142.16512
G1 X212.807 Y126.330 E142.59970
G1 X211.905 Y129.876 E143.03426
G1 X210.826 Y133.372 E143.46882
G1 X209.574 Y136.811 E143.90341
G1 X208.153 Y140.183 E144.33801
G1 X206.566 Y143.479 E144.77254
G1 X204.815 Y146.693 E145.20713
G1 X202.907 Y149.815 E145.64170
G1 X200.846 Y152.838 E146.07632
G1 X198.636 Y155.755 E146.51091
G1 X196.285 Y158.559 E146.94546
G1 X193.796 Y161.241 E147.38003
G1 X191.176 Y163.795 E147.81454
G1 X188.433 Y166.216 E148.24910
G1 X185.572 Y168.498 E148.68374
G1 X182.601 Y170.634 E149.11836
G1 X179.527 Y172.619 E149.55286
G1 X176.358 Y174.449 E149.98747
G1 X173.102 Y176.118 E150.42200
G1 X169.767 Y177.623 E150.85660
G1 X166.361 Y178.960 E151.29117
G1 X162.892 Y180.125 E151.72573
G1 X159.370 Y181.116 E152.16032
G1 X155.803 Y181.931 E152.59490
G1 X152.199 Y182.566 E153.02946
G1 X148.568 Y183.021 E153.46403
G1 X144.919 Y183.294 E153.89861
G1 X141.248 Y183.386 E154.33484
G1 X82.376 Y183.386 E161.32678
G1 X82.376 Y168.614 E163.08114
G1 X141.275 Y168.614 E170.07636
G1 X144.183 Y168.542 E170.42183
G1 X147.098 Y168.323 E170.76895
G1 X149.997 Y167.960 E171.11602
G1 X152.876 Y167.452 E171.46314
G1 X155.725 Y166.802 E171.81025
G1 X158.538 Y166.010 E172.15737
G1 X161.309 Y165.079 E172.50444
G1 X164.029 Y164.012 E172.85153
G1 X166.693 Y162.810 E173.19863
G1 X169.294 Y161.477 E173.54575
G1 X171.825 Y160.015 E173.89287
G1 X174.280 Y158.430 E174.23994
G1 X176.653 Y156.723 E174.58707
G1 X178.938 Y154.902 E174.93413
G1 X181.130 Y152.967 E175.28128
G1 X183.221 Y150.927 E175.62835
G1 X185.209 Y148.784 E175.97544
G1 X187.088 Y146.546 E176.32255
G1 X188.852 Y144.216 E176.66965
G1 X190.499 Y141.801 E177.01675
G1 X192.023 Y139.307 E177.36384
G1 X193.421 Y136.741 E177.71099
G1 X194.689 Y134.107 E178.05813
G1 X195.824 Y131.414 E178.40519
G1 X196.824 Y128.668 E178.75229
G1 X197.685 Y125.875 E179.09941
G1 X198.406 Y123.043 E179.44650
G1 X198.985 Y120.178 E179.79358
G1 X199.421 Y117.288 E180.14070
G1 X199.712 Y114.380 E180.48782
G1 X199.858 Y111.461 E180.83490
G1 X199.858 Y108.539 E181.18202
G1 X199.712 Y105.620 E181.52910
G1 X199.421 Y102.712 E181.87622
G1 X198.985 Y99.822 E182.22334
G1 X198.406 Y96.957 E182.57041
G1 X197.685 Y94.125 E182.91751
G1 X196.824 Y91.332 E183.26462
G1 X195.824 Y88.586 E183.61174
G1 X194.689 Y85.893 E183.95880
G1 X193.421 Y83.259 E184.30594
G1 X192.023 Y80.693 E184.65306
G1 X190.500 Y78.199 E185.00011
G1 X188.852 Y75.784 E185.34729
G1 X187.088 Y73.455 E185.69437
G1 X185.209 Y71.216 E186.04148
G1 X183.221 Y69.073 E186.38857
G1 X181.130 Y67.033 E186.73564
G1 X178.938 Y65.099 E187.08275
G1 X176.653 Y63.276 E187.42986
G1 X174.280 Y61.570 E187.77695
G1 X171.825 Y59.985 E188.12406
G1 X169.294 Y58.524 E188.47116
G1 X166.693 Y57.190 E188.81827
G1 X164.030 Y55.988 E189.16537
G1 X161.309 Y54.920 E189.51248
G1 X158.538 Y53.990 E189.85958
G1 X155.725 Y53.198 E190.20668
G1 X152.876 Y52.548 E190.55378
G1 X149.998 Y52.040 E190.90089
G1 X147.098 Y51.677 E191.24799
G1 X144.183 Y51.458 E191.59509
G1 X141.276 Y51.386 E191.94054
G1 X46.647 Y51.386 E203.17906
G1 X46.647 Y71.386 E205.55436
G1 X38.876 Y71.386 E206.47737
G1 X38.876 Y51.446 E208.84555
G1 X38.162 Y52.100 F7800.000
G1 F1800.000
G1 X4.661 Y52.100 E212.82419
G1 X4.661 Y35.900 E214.74819
G1 X141.257 Y35.900 E230.97092
G1 X144.955 Y35.992 E231.41031
G1 X148.639 Y36.268 E231.84912
G1 X152.306 Y36.728 E232.28793
G1 X155.944 Y37.369 E232.72673
G1 X159.546 Y38.191 E233.16553
G1 X163.103 Y39.192 E233.60434
G1 X166.605 Y40.369 E234.04314
G1 X170.044 Y41.719 E234.48195
G1 X173.412 Y43.238 E234.92076
G1 X176.700 Y44.924 E235.35956
G1 X179.900 Y46.771 E235.79836
G1 X183.003 Y48.776 E236.23713
G1 X186.003 Y50.933 E236.67593
G1 X188.892 Y53.236 E237.11480
G1 X191.662 Y55.681 E237.55358
G1 X194.307 Y58.261 E237.99237
G1 X196.820 Y60.969 E238.43120
G1 X199.195 Y63.799 E238.86995
G1 X201.426 Y66.745 E239.30877
G1 X203.507 Y69.797 E239.74760
G1 X205.434 Y72.950 E240.18641
G1 X207.201 Y76.195 E240.62523
G1 X208.804 Y79.524 E241.06400
G1 X210.239 Y82.928 E241.50282
G1 X211.503 Y86.400 E241.94163
G1 X212.592 Y89.931 E242.38044
G1 X213.503 Y93.511 E242.81923
G1 X214.235 Y97.133 E243.25803
G1 X214.786 Y100.786 E243.69685
G1 X215.154 Y104.462 E244.13565
G1 X215.339 Y108.153 E244.57446
G1 X215.339 Y111.847 E245.01325
G1 X215.154 Y115.537 E245.45206
G1 X214.786 Y119.214 E245.89086
G1 X214.235 Y122.867 E246.32968
G1 X213.503 Y126.489 E246.76848
G1 X212.592 Y130.069 E247.20727
G1 X211.503 Y133.600 E247.64608
G1 X210.239 Y137.072 E248.08489
G1 X208.804 Y140.476 E248.52371
G1 X207.201 Y143.805 E248.96248
G1 X205.434 Y147.050 E249.40130
G1 X203.507 Y150.203 E249.84011
G1 X201.426 Y153.255 E250.27895
G1 X199.195 Y156.201 E250.71776
G1 X196.820 Y159.031 E251.15654
G1 X194.307 Y161.740 E251.59536
G1 X191.662 Y164.319 E252.03409
G1 X188.892 Y166.763 E252.47289
G1 X186.003 Y169.067 E252.91176
G1 X183.003 Y171.224 E253.35060
G1 X179.900 Y173.229 E253.78933
G1 X176.700 Y175.077 E254.22818
G1 X173.412 Y176.762 E254.66694
G1 X170.044 Y178.281 E255.10576
G1 X166.605 Y179.631 E255.54456
G1 X163.103 Y180.808 E255.98336
G1 X159.546 Y181.808 E256.42217
G1 X155.944 Y182.631 E256.86098
G1 X152.306 Y183.272 E257.29978
G1 X148.639 Y183.732 E257.73859
G1 X144.955 Y184.007 E258.17739
G1 X141.256 Y184.100 E258.61679
G1 X81.661 Y184.100 E265.69460
G1 X81.661 Y167.900 E267.61860
G1 X141.266 Y167.900 E274.69759
G1 X144.148 Y167.829 E275.03987
G1 X147.027 Y167.612 E275.38276
G1 X149.891 Y167.254 E275.72561
G1 X152.734 Y166.752 E276.06850
G1 X155.549 Y166.110 E276.41137
G1 X158.328 Y165.327 E276.75426
G1 X161.064 Y164.408 E277.09711
G1 X163.752 Y163.354 E277.43997
G1 X166.383 Y162.167 E277.78284
G1 X168.952 Y160.849 E278.12572
G1 X171.453 Y159.405 E278.46862
G1 X173.878 Y157.840 E278.81146
G1 X176.222 Y156.154 E279.15435
G1 X178.479 Y154.355 E279.49719
G1 X180.644 Y152.444 E279.84010
G1 X182.710 Y150.428 E280.18294
G1 X184.673 Y148.312 E280.52580
G1 X186.529 Y146.100 E280.86868
G1 X188.272 Y143.799 E281.21155
G1 X189.899 Y141.413 E281.55442
G1 X191.404 Y138.950 E281.89729
G1 X192.786 Y136.415 E282.24021
G1 X194.038 Y133.814 E282.58310
G1 X195.159 Y131.153 E282.92594
G1 X196.147 Y128.440 E283.26882
G1 X196.998 Y125.682 E283.61169
G1 X197.710 Y122.884 E283.95455
G1 X198.282 Y120.054 E284.29741
G1 X198.713 Y117.200 E284.64030
G1 X199.000 Y114.327 E284.98318
G1 X199.143 Y111.444 E285.32604
G1 X199.143 Y108.557 E285.66892
G1 X199.000 Y105.673 E286.01178
G1 X198.713 Y102.801 E286.35466
G1 X198.282 Y99.946 E286.69754
G1 X197.710 Y97.116 E287.04041
G1 X196.998 Y94.318 E287.38327
G1 X196.147 Y91.560 E287.72614
G1 X195.159 Y88.847 E288.06903
G1 X194.038 Y86.186 E288.41187
G1 X192.786 Y83.585 E288.75476
G1 X191.404 Y81.050 E289.09766
G1 X189.900 Y78.587 E289.44048
G1 X188.272 Y76.201 E289.78342
G1 X186.529 Y73.900 E290.12628
G1 X184.674 Y71.688 E290.46916
G1 X182.710 Y69.572 E290.81203
G1 X180.644 Y67.556 E291.15486
G1 X178.479 Y65.646 E291.49774
