; generated by Slic3r 1.3.1-dev (Build 18ddd3a36dc69d81fb9b7440498bff9e1dde8b7e) on 2021-07-11 at 22:17:24

; external perimeters extrusion width = 0.44mm (3.38mm^3/s)
; perimeters extrusion width = 0.48mm (7.54mm^3/s)
; infill extrusion width = 0.48mm (10.05mm^3/s)
; solid infill extrusion width = 0.48mm (2.51mm^3/s)
; top infill extrusion width = 0.48mm (1.88mm^3/s)

M107
G92 E0
M190 S85 ; set bed temperature and wait for it to be reached
M104 S225 ; set temperature
G28 ; home all axes
G1 Z5 F5000 ; lift nozzle

; Filament gcode

M109 S225 ; set temperature and wait for it to be reached
G21 ; set units to millimeters
G90 ; use absolute coordinates
M82 ; use absolute distances for extrusion
G92 E0
G1 Z0.400 F7800.000
G1 E-2.00000 F2400.00000
G92 E0
G1 X58.063 Y56.991 F7800.000
G1 E2.00000 F2400.00000
G1 F900.000
G1 X60.770 Y54.468 E2.43949
G1 X63.599 Y52.083 E2.87892
G1 X66.543 Y49.842 E3.31837
G1 X69.596 Y47.751 E3.75789
G1 X72.750 Y45.814 E4.19743
G1 X75.994 Y44.037 E4.63676
G1 X79.325 Y42.424 E5.07634
G1 X82.731 Y40.979 E5.51573
G1 X86.206 Y39.706 E5.95525
G1 X89.739 Y38.607 E6.39470
G1 X93.323 Y37.686 E6.83417
G1 X96.948 Y36.945 E7.27361
G1 X100.606 Y36.385 E7.71314
G1 X104.286 Y36.008 E8.15249
G1 X108.317 Y35.807 E8.63180
G1 X112.017 Y35.815 E9.07120
G1 X115.714 Y36.008 E9.51083
G1 X119.394 Y36.385 E9.95018
G1 X123.052 Y36.945 E10.38970
G1 X126.677 Y37.686 E10.82915
G1 X130.261 Y38.607 E11.26861
G1 X133.794 Y39.706 E11.70806
G1 X137.269 Y40.979 E12.14758
G1 X140.675 Y42.424 E12.58697
G1 X144.006 Y44.037 E13.02656
G1 X147.250 Y45.814 E13.46589
G1 X150.404 Y47.751 E13.90542
G1 X153.457 Y49.842 E14.34495
G1 X156.401 Y52.083 E14.78440
G1 X159.230 Y54.468 E15.22382
G1 X161.937 Y56.991 E15.66332
G1 X164.515 Y59.646 E16.10278
G1 X166.957 Y62.426 E16.54224
G1 X169.258 Y65.324 E16.98176
G1 X171.411 Y68.333 E17.42118
G1 X173.411 Y71.446 E17.86062
G1 X175.255 Y74.655 E18.30012
G1 X176.936 Y77.952 E18.73966
G1 X178.449 Y81.327 E19.17898
G1 X179.794 Y84.776 E19.61864
G1 X180.964 Y88.286 E20.05802
G1 X181.958 Y91.850 E20.49746
G1 X182.774 Y95.459 E20.93693
G1 X183.408 Y99.105 E21.37642
G1 X183.860 Y102.777 E21.81589
G1 X184.128 Y106.468 E22.25533
G1 X184.212 Y110.168 E22.69485
G1 X184.111 Y113.866 E23.13429
G1 X183.827 Y117.556 E23.57377
G1 X183.358 Y121.226 E24.01325
G1 X182.774 Y124.541 E24.41297
G1 X181.958 Y128.150 E24.85244
G1 X180.964 Y131.714 E25.29189
G1 X179.794 Y135.224 E25.73126
G1 X178.449 Y138.673 E26.17093
G1 X176.936 Y142.048 E26.61025
G1 X175.255 Y145.345 E27.04978
G1 X173.411 Y148.554 E27.48929
G1 X171.411 Y151.667 E27.92872
G1 X169.258 Y154.676 E28.36814
G1 X166.957 Y157.574 E28.80766
G1 X164.515 Y160.354 E29.24712
G1 X161.937 Y163.009 E29.68659
G1 X159.230 Y165.532 E30.12608
G1 X156.401 Y167.917 E30.56551
G1 X153.457 Y170.158 E31.00495
G1 X150.404 Y172.249 E31.44448
G1 X147.250 Y174.186 E31.88402
G1 X144.006 Y175.963 E32.32334
G1 X140.675 Y177.576 E32.76293
G1 X137.269 Y179.021 E33.20232
G1 X133.794 Y180.294 E33.64184
G1 X130.261 Y181.393 E34.08129
G1 X126.677 Y182.314 E34.52076
G1 X123.052 Y183.055 E34.96020
G1 X119.394 Y183.615 E35.39972
G1 X115.714 Y183.992 E35.83907
G1 X112.017 Y184.185 E36.27870
G1 X108.317 Y184.193 E36.71811
G1 X104.286 Y183.992 E37.19742
G1 X100.606 Y183.615 E37.63677
G1 X96.948 Y183.055 E38.07629
G1 X93.323 Y182.314 E38.51573
G1 X89.739 Y181.393 E38.95520
G1 X86.206 Y180.294 E39.39465
G1 X82.731 Y179.021 E39.83417
G1 X79.325 Y177.576 E40.27356
G1 X75.994 Y175.963 E40.71314
G1 X72.750 Y174.186 E41.15247
G1 X69.596 Y172.249 E41.59201
G1 X66.543 Y170.158 E42.03154
G1 X63.599 Y167.917 E42.47098
G1 X60.770 Y165.532 E42.91041
G1 X58.063 Y163.009 E43.34990
G1 X55.485 Y160.354 E43.78937
G1 X53.043 Y157.574 E44.22883
G1 X50.742 Y154.676 E44.66835
G1 X48.589 Y151.667 E45.10777
G1 X46.589 Y148.554 E45.54720
G1 X44.745 Y145.345 E45.98671
G1 X43.064 Y142.048 E46.42624
G1 X41.551 Y138.673 E46.86557
G1 X40.206 Y135.224 E47.30523
G1 X39.036 Y131.714 E47.74460
G1 X38.042 Y128.150 E48.18405
G1 X37.226 Y124.541 E48.62352
G1 X36.642 Y121.226 E49.02324
G1 X36.173 Y117.556 E49.46272
G1 X35.889 Y113.866 E49.90220
G1 X35.788 Y110.168 E50.34164
G1 X35.872 Y106.468 E50.78115
G1 X36.140 Y102.777 E51.22060
G1 X36.592 Y99.105 E51.66007
G1 X37.226 Y95.459 E52.09956
G1 X38.042 Y91.850 E52.53903
G1 X39.036 Y88.286 E52.97847
G1 X40.206 Y84.776 E53.41785
G1 X41.551 Y81.327 E53.85751
G1 X43.064 Y77.952 E54.29683
G1 X44.745 Y74.655 E54.73637
G1 X46.589 Y71.446 E55.17587
G1 X48.589 Y68.333 E55.61531
G1 X50.742 Y65.324 E56.05473
G1 X53.043 Y62.426 E56.49425
G1 X55.485 Y59.646 E56.93371
G1 X58.021 Y57.034 E57.36605
G1 E55.36605 F2400.00000
G92 E0
G1 X69.381 Y65.882 F7800.000
G1 E2.00000 F2400.00000
G1 F900.000
G1 X70.385 Y64.952 E2.16257
G1 X72.612 Y63.082 E2.50791
G1 X75.044 Y61.246 E2.86979
G1 X77.444 Y59.609 E3.21485
G1 X80.045 Y58.022 E3.57675
G1 X82.597 Y56.632 E3.92180
G1 X85.342 Y55.309 E4.28369
G1 X88.019 Y54.181 E4.62873
G1 X90.882 Y53.135 E4.99070
G1 X93.795 Y52.238 E5.35277
G1 X96.611 Y51.521 E5.69784
G1 X99.597 Y50.916 E6.05972
G1 X102.470 Y50.483 E6.40480
G1 X105.503 Y50.177 E6.76675
G1 X108.547 Y50.026 E7.12879
G1 X111.453 Y50.026 E7.47386
G1 X114.497 Y50.177 E7.83590
G1 X117.530 Y50.483 E8.19785
G1 X120.403 Y50.916 E8.54293
G1 X123.389 Y51.521 E8.90481
G1 X126.205 Y52.238 E9.24988
G1 X129.118 Y53.135 E9.61195
G1 X131.981 Y54.181 E9.97392
G1 X134.658 Y55.309 E10.31896
G1 X137.403 Y56.632 E10.68085
G1 X139.955 Y58.022 E11.02590
G1 X142.557 Y59.610 E11.38795
G1 X145.073 Y61.329 E11.74992
G1 X147.389 Y63.084 E12.09498
G1 X149.723 Y65.043 E12.45688
G1 X151.853 Y67.019 E12.80193
G1 X153.983 Y69.200 E13.16397
G1 X155.997 Y71.487 E13.52595
G1 X157.808 Y73.759 E13.87101
G1 X159.587 Y76.233 E14.23290
G1 X161.163 Y78.674 E14.57797
G1 X162.689 Y81.313 E14.93998
G1 X164.077 Y84.026 E15.30195
G1 X165.272 Y86.674 E15.64702
G1 X166.385 Y89.511 E16.00894
G1 X167.310 Y92.265 E16.35400
G1 X168.138 Y95.199 E16.71601
G1 X168.814 Y98.171 E17.07800
G1 X169.318 Y101.032 E17.42306
G1 X169.697 Y104.056 E17.78497
G1 X169.914 Y106.953 E18.13003
G1 X169.993 Y110.000 E18.49203
G1 X169.914 Y113.047 E18.85402
G1 X169.697 Y115.944 E19.19908
G1 X169.318 Y118.968 E19.56099
G1 X168.814 Y121.829 E19.90606
G1 X168.138 Y124.801 E20.26805
G1 X167.310 Y127.735 E20.63006
G1 X166.385 Y130.489 E20.97512
G1 X165.272 Y133.326 E21.33703
G1 X164.077 Y135.974 E21.68211
G1 X162.689 Y138.687 E22.04407
G1 X161.163 Y141.326 E22.40608
G1 X159.587 Y143.767 E22.75115
G1 X157.808 Y146.241 E23.11305
G1 X155.997 Y148.513 E23.45810
G1 X153.983 Y150.799 E23.81999
G1 X151.952 Y152.881 E24.16538
G1 X149.615 Y155.048 E24.54394
G1 X147.388 Y156.918 E24.88928
G1 X144.956 Y158.754 E25.25117
G1 X142.556 Y160.391 E25.59623
G1 X139.955 Y161.978 E25.95812
G1 X137.403 Y163.368 E26.30318
G1 X134.658 Y164.691 E26.66507
G1 X131.981 Y165.819 E27.01011
G1 X129.118 Y166.865 E27.37207
G1 X126.205 Y167.762 E27.73415
G1 X123.389 Y168.479 E28.07921
G1 X120.403 Y169.084 E28.44109
G1 X117.530 Y169.517 E28.78617
G1 X114.497 Y169.823 E29.14812
G1 X111.453 Y169.974 E29.51016
G1 X108.547 Y169.974 E29.85524
G1 X105.503 Y169.823 E30.21728
G1 X102.470 Y169.517 E30.57922
G1 X99.597 Y169.084 E30.92431
G1 X96.611 Y168.479 E31.28619
G1 X93.795 Y167.762 E31.63125
G1 X90.882 Y166.865 E31.99333
G1 X88.019 Y165.819 E32.35529
G1 X85.342 Y164.691 E32.70033
G1 X82.597 Y163.368 E33.06222
G1 X80.045 Y161.978 E33.40728
G1 X77.443 Y160.390 E33.76933
G1 X74.927 Y158.671 E34.13130
G1 X72.611 Y156.916 E34.47636
G1 X70.277 Y154.957 E34.83825
G1 X68.147 Y152.981 E35.18331
G1 X66.017 Y150.800 E35.54535
G1 X64.003 Y148.513 E35.90733
G1 X62.192 Y146.241 E36.25238
G1 X60.413 Y143.767 E36.61428
G1 X58.837 Y141.326 E36.95935
G1 X57.311 Y138.687 E37.32136
G1 X55.923 Y135.974 E37.68332
G1 X54.728 Y133.326 E38.02840
G1 X53.615 Y130.489 E38.39031
G1 X52.690 Y127.735 E38.73537
G1 X51.862 Y124.801 E39.09738
G1 X51.186 Y121.829 E39.45937
G1 X50.682 Y118.968 E39.80444
G1 X50.303 Y115.944 E40.16635
G1 X50.086 Y113.047 E40.51141
G1 X50.007 Y110.000 E40.87340
G1 X50.086 Y106.953 E41.23540
G1 X50.303 Y104.056 E41.58046
G1 X50.682 Y101.032 E41.94237
G1 X51.186 Y98.171 E42.28743
G1 X51.862 Y95.199 E42.64942
G1 X52.690 Y92.265 E43.01143
G1 X53.615 Y89.511 E43.35649
G1 X54.728 Y86.674 E43.71841
G1 X55.923 Y84.026 E44.06348
G1 X57.311 Y81.313 E44.42545
G1 X58.837 Y78.674 E44.78746
G1 X60.413 Y76.233 E45.13253
G1 X62.192 Y73.759 E45.49442
G1 X64.003 Y71.487 E45.83948
G1 X66.017 Y69.201 E46.20137
G1 X68.048 Y67.119 E46.54676
G1 X69.337 Y65.923 E46.75563
G1 X69.867 Y66.406 F7800.000
G1 F900.000
G1 X70.858 Y65.487 E46.91609
G1 X73.057 Y63.641 E47.25716
G1 X75.460 Y61.826 E47.61481
G1 X77.832 Y60.209 E47.95568
G1 X80.402 Y58.641 E48.31334
G1 X82.923 Y57.268 E48.65420
G1 X85.636 Y55.961 E49.01186
G1 X88.280 Y54.846 E49.35271
G1 X91.109 Y53.812 E49.71043
G1 X93.989 Y52.926 E50.06822
G1 X96.770 Y52.217 E50.40909
G1 X99.722 Y51.620 E50.76674
G1 X102.560 Y51.192 E51.10762
G1 X105.556 Y50.889 E51.46532
G1 X108.565 Y50.740 E51.82309
G1 X111.435 Y50.740 E52.16396
G1 X114.444 Y50.889 E52.52173
G1 X117.440 Y51.192 E52.87943
G1 X120.278 Y51.620 E53.22031
G1 X123.230 Y52.217 E53.57796
G1 X126.011 Y52.926 E53.91883
G1 X128.891 Y53.812 E54.27662
G1 X131.720 Y54.846 E54.63434
G1 X134.364 Y55.961 E54.97519
G1 X137.077 Y57.268 E55.33285
G1 X139.598 Y58.641 E55.67371
G1 X142.169 Y60.210 E56.03148
G1 X144.656 Y61.909 E56.38920
G1 X146.944 Y63.642 E56.73006
G1 X149.250 Y65.578 E57.08772
G1 X151.354 Y67.531 E57.42859
G1 X153.459 Y69.686 E57.78635
G1 X155.450 Y71.946 E58.14407
G1 X157.239 Y74.190 E58.48494
G1 X158.997 Y76.635 E58.84260
G1 X160.554 Y79.046 E59.18348
G1 X162.061 Y81.654 E59.54122
G1 X163.433 Y84.336 E59.89893
G1 X164.614 Y86.952 E60.23981
G1 X165.714 Y89.755 E60.59749
G1 X166.628 Y92.476 E60.93835
G1 X167.446 Y95.375 E61.29610
G1 X168.113 Y98.312 E61.65383
G1 X168.612 Y101.139 E61.99469
G1 X168.986 Y104.127 E62.35237
G1 X169.201 Y106.989 E62.69323
G1 X169.278 Y110.000 E63.05097
G1 X169.201 Y113.011 E63.40870
G1 X168.986 Y115.873 E63.74957
G1 X168.612 Y118.861 E64.10724
G1 X168.113 Y121.688 E64.44811
G1 X167.446 Y124.625 E64.80584
G1 X166.628 Y127.524 E65.16359
G1 X165.714 Y130.245 E65.50445
G1 X164.614 Y133.048 E65.86213
G1 X163.433 Y135.664 E66.20301
G1 X162.061 Y138.346 E66.56072
G1 X160.554 Y140.954 E66.91846
G1 X158.997 Y143.365 E67.25933
G1 X157.239 Y145.810 E67.61700
G1 X155.450 Y148.054 E67.95786
G1 X153.459 Y150.314 E68.31552
G1 X151.454 Y152.370 E68.65662
G1 X149.142 Y154.513 E69.03095
G1 X146.943 Y156.359 E69.37202
G1 X144.540 Y158.174 E69.72967
G1 X142.168 Y159.791 E70.07054
G1 X139.598 Y161.359 E70.42820
G1 X137.077 Y162.732 E70.76906
G1 X134.364 Y164.039 E71.12672
G1 X131.720 Y165.154 E71.46757
G1 X128.891 Y166.188 E71.82529
G1 X126.011 Y167.074 E72.18307
G1 X123.230 Y167.783 E72.52395
G1 X120.278 Y168.380 E72.88160
G1 X117.440 Y168.808 E73.22248
G1 X114.444 Y169.111 E73.58018
G1 X111.435 Y169.260 E73.93795
G1 X108.565 Y169.260 E74.27882
G1 X105.556 Y169.111 E74.63659
G1 X102.560 Y168.808 E74.99429
G1 X99.722 Y168.380 E75.33517
G1 X96.770 Y167.783 E75.69282
G1 X93.989 Y167.074 E76.03369
G1 X91.109 Y166.188 E76.39148
G1 X88.280 Y165.154 E76.74920
G1 X85.636 Y164.039 E77.09005
G1 X82.923 Y162.732 E77.44771
G1 X80.402 Y161.359 E77.78857
G1 X77.831 Y159.790 E78.14634
G1 X75.344 Y158.091 E78.50406
G1 X73.056 Y156.358 E78.84492
G1 X70.750 Y154.422 E79.20258
G1 X68.646 Y152.469 E79.54344
G1 X66.541 Y150.314 E79.90121
G1 X64.550 Y148.054 E80.25893
G1 X62.761 Y145.810 E80.59980
G1 X61.003 Y143.365 E80.95746
G1 X59.446 Y140.954 E81.29833
G1 X57.939 Y138.346 E81.65608
G1 X56.567 Y135.664 E82.01379
G1 X55.386 Y133.048 E82.35467
G1 X54.286 Y130.245 E82.71235
G1 X53.372 Y127.524 E83.05321
G1 X52.554 Y124.625 E83.41095
G1 X51.887 Y121.688 E83.76869
G1 X51.388 Y118.861 E84.10955
G1 X51.014 Y115.873 E84.46723
G1 X50.799 Y113.011 E84.80809
G1 X50.722 Y110.000 E85.16583
G1 X50.799 Y106.989 E85.52356
G1 X51.014 Y104.127 E85.86442
G1 X51.388 Y101.139 E86.22210
G1 X51.887 Y98.312 E86.56297
G1 X52.554 Y95.375 E86.92070
G1 X53.372 Y92.476 E87.27844
G1 X54.286 Y89.755 E87.61931
G1 X55.386 Y86.952 E87.97699
G1 X56.567 Y84.336 E88.31787
G1 X57.939 Y81.654 E88.67558
G1 X59.446 Y79.046 E89.03332
G1 X61.003 Y76.635 E89.37419
G1 X62.761 Y74.190 E89.73186
G1 X64.550 Y71.946 E90.07272
G1 X66.541 Y69.686 E90.43038
G1 X68.546 Y67.630 E90.77148
G1 X69.823 Y66.447 E90.97822
G1 X70.352 Y66.930 F7800.000
G1 F900.000
G1 X71.330 Y66.023 E91.13659
G1 X73.503 Y64.200 E91.47338
G1 X75.877 Y62.407 E91.82680
G1 X78.219 Y60.810 E92.16347
G1 X80.759 Y59.259 E92.51690
G1 X83.249 Y57.904 E92.85357
G1 X85.930 Y56.612 E93.20700
G1 X88.542 Y55.511 E93.54365
G1 X91.337 Y54.489 E93.89712
G1 X94.182 Y53.613 E94.25063
G1 X96.929 Y52.914 E94.58730
G1 X99.846 Y52.323 E94.94073
G1 X102.649 Y51.901 E95.27741
G1 X105.610 Y51.601 E95.63086
G1 X108.583 Y51.454 E95.98435
G1 X111.417 Y51.454 E96.32103
G1 X114.390 Y51.601 E96.67452
G1 X117.351 Y51.901 E97.02797
G1 X120.154 Y52.323 E97.36465
G1 X123.071 Y52.914 E97.71808
G1 X125.818 Y53.613 E98.05475
G1 X128.663 Y54.489 E98.40826
G1 X131.458 Y55.511 E98.76173
G1 X134.070 Y56.612 E99.09838
G1 X136.751 Y57.904 E99.45182
G1 X139.241 Y59.259 E99.78848
G1 X141.781 Y60.810 E100.14198
G1 X144.238 Y62.489 E100.49544
G1 X146.498 Y64.201 E100.83211
G1 X148.777 Y66.114 E101.18554
G1 X150.855 Y68.042 E101.52221
G1 X152.935 Y70.172 E101.87570
G1 X154.902 Y72.405 E102.22917
G1 X156.669 Y74.621 E102.56584
G1 X158.406 Y77.038 E102.91927
G1 X159.944 Y79.419 E103.25594
G1 X161.434 Y81.996 E103.60942
G1 X162.789 Y84.645 E103.96288
G1 X163.955 Y87.229 E104.29956
G1 X165.042 Y90.000 E104.65300
G1 X165.945 Y92.687 E104.98967
G1 X166.753 Y95.551 E105.34315
G1 X167.413 Y98.453 E105.69662
G1 X167.906 Y101.245 E106.03329
G1 X168.276 Y104.198 E106.38674
G1 X168.487 Y107.025 E106.72340
G1 X168.564 Y110.000 E107.07688
G1 X168.487 Y112.975 E107.43035
G1 X168.276 Y115.802 E107.76702
G1 X167.906 Y118.755 E108.12046
G1 X167.413 Y121.547 E108.45713
G1 X166.753 Y124.449 E108.81060
G1 X165.945 Y127.313 E109.16408
G1 X165.042 Y130.000 E109.50075
G1 X163.955 Y132.771 E109.85419
G1 X162.789 Y135.355 E110.19088
G1 X161.434 Y138.004 E110.54434
G1 X159.944 Y140.581 E110.89781
G1 X158.406 Y142.962 E111.23448
G1 X156.669 Y145.379 E111.58792
G1 X154.902 Y147.595 E111.92459
G1 X152.935 Y149.828 E112.27801
G1 X150.955 Y151.858 E112.61483
G1 X148.670 Y153.977 E112.98493
G1 X146.497 Y155.800 E113.32172
G1 X144.123 Y157.593 E113.67515
G1 X141.781 Y159.190 E114.01182
G1 X139.241 Y160.741 E114.36525
G1 X136.751 Y162.096 E114.70191
G1 X134.070 Y163.388 E115.05534
G1 X131.458 Y164.489 E115.39200
G1 X128.663 Y165.511 E115.74546
G1 X125.818 Y166.387 E116.09897
G1 X123.071 Y167.086 E116.43565
G1 X120.154 Y167.677 E116.78907
G1 X117.351 Y168.099 E117.12575
G1 X114.390 Y168.399 E117.47920
G1 X111.417 Y168.546 E117.83270
G1 X108.583 Y168.546 E118.16937
G1 X105.610 Y168.399 E118.52287
G1 X102.649 Y168.099 E118.87631
G1 X99.846 Y167.677 E119.21300
G1 X96.929 Y167.086 E119.56642
G1 X94.182 Y166.387 E119.90309
G1 X91.337 Y165.511 E120.25660
G1 X88.542 Y164.489 E120.61007
G1 X85.930 Y163.388 E120.94673
G1 X83.249 Y162.096 E121.30016
G1 X80.759 Y160.741 E121.63682
G1 X78.219 Y159.190 E121.99032
G1 X75.761 Y157.511 E122.34378
G1 X73.502 Y155.799 E122.68045
G1 X71.223 Y153.886 E123.03388
G1 X69.145 Y151.958 E123.37055
G1 X67.065 Y149.828 E123.72404
G1 X65.098 Y147.595 E124.07751
G1 X63.331 Y145.379 E124.41418
G1 X61.594 Y142.962 E124.76761
G1 X60.056 Y140.581 E125.10429
