; generated by Slic3r 1.3.1-dev (Build 18ddd3a36dc69d81fb9b7440498bff9e1dde8b7e) on 2021-11-12 at 18:39:28

; external perimeters extrusion width = 0.44mm (3.38mm^3/s)
; perimeters extrusion width = 0.48mm (7.54mm^3/s)
; infill extrusion width = 0.48mm (10.05mm^3/s)
; solid infill extrusion width = 0.48mm (2.51mm^3/s)
; top infill extrusion width = 0.48mm (1.88mm^3/s)

M107
G92 E0
M190 S85 ; set bed temperature and wait for it to be reached
M104 S225 ; set temperature
G28 ; home all axes
G1 Z5 F5000 ; lift nozzle

; Filament gcode

M109 S225 ; set temperature and wait for it to be reached
G21 ; set units to millimeters
G90 ; use absolute coordinates
M82 ; use absolute distances for extrusion
G92 E0
G1 Z0.400 F7800.000
G1 E-2.00000 F2400.00000
G92 E0
G1 X3.004 Y28.905 F7800.000
G1 E2.00000 F2400.00000
G1 F1800.000
G1 X4.261 Y28.786 E2.14997
G1 X141.261 Y28.786 E18.42080
G1 X145.477 Y28.897 E18.92160
G1 X149.514 Y29.208 E19.40252
G1 X153.200 Y29.670 E19.84370
G1 X157.189 Y30.365 E20.32461
G1 X161.139 Y31.258 E20.80554
G1 X165.039 Y32.347 E21.28647
G1 X169.195 Y33.743 E21.80712
G1 X172.961 Y35.230 E22.28805
G1 X176.649 Y36.903 E22.76898
G1 X180.249 Y38.758 E23.24990
G1 X183.466 Y40.615 E23.69108
G1 X186.872 Y42.805 E24.17201
G1 X190.164 Y45.162 E24.65288
G1 X193.335 Y47.680 E25.13377
G1 X196.377 Y50.354 E25.61480
G1 X199.282 Y53.175 E26.09571
G1 X202.042 Y56.137 E26.57657
G1 X204.652 Y59.235 E27.05762
G1 X207.103 Y62.457 E27.53841
G1 X209.573 Y66.079 E28.05912
G1 X211.677 Y69.538 E28.53996
G1 X213.607 Y73.100 E29.02114
G1 X215.355 Y76.751 E29.50186
G1 X216.920 Y80.485 E29.98270
G1 X218.298 Y84.294 E30.46373
G1 X219.484 Y88.167 E30.94480
G1 X220.475 Y92.092 E31.42559
G1 X221.269 Y96.062 E31.90642
G1 X221.864 Y100.068 E32.38740
G1 X222.259 Y104.098 E32.86838
G1 X222.453 Y108.143 E33.34928
G1 X222.444 Y112.192 E33.83016
G1 X222.234 Y116.236 E34.31115
G1 X221.823 Y120.265 E34.79211
G1 X221.211 Y124.267 E35.27296
G1 X220.400 Y128.234 E35.75376
G1 X219.393 Y132.157 E36.23480
G1 X218.191 Y136.025 E36.71583
G1 X216.798 Y139.826 E37.19668
G1 X215.218 Y143.553 E37.67745
G1 X213.454 Y147.199 E38.15856
G1 X211.510 Y150.751 E38.63943
G1 X209.391 Y154.202 E39.12042
G1 X207.102 Y157.543 E39.60133
G1 X204.652 Y160.765 E40.08205
G1 X202.042 Y163.863 E40.56320
G1 X199.281 Y166.826 E41.04415
G1 X196.377 Y169.646 E41.52488
G1 X193.335 Y172.320 E42.00594
G1 X190.430 Y174.636 E42.44718
G1 X186.871 Y177.195 E42.96779
G1 X183.467 Y179.384 E43.44850
G1 X179.954 Y181.403 E43.92972
G1 X176.348 Y183.242 E44.41044
G1 X172.653 Y184.900 E44.89144
G1 X168.880 Y186.372 E45.37235
G1 X165.039 Y187.653 E45.85327
G1 X161.463 Y188.659 E46.29445
G1 X157.518 Y189.569 E46.77527
G1 X153.531 Y190.280 E47.25628
G1 X149.180 Y190.825 E47.77708
G1 X145.476 Y191.102 E48.21825
G1 X141.430 Y191.212 E48.69895
G1 X81.261 Y191.214 E55.84483
G1 X78.987 Y190.817 E56.11905
G1 X76.981 Y189.673 E56.39328
G1 X75.462 Y187.883 E56.67213
G1 X-1.538 Y55.883 E74.82145
G1 X-2.341 Y53.718 E75.09567
G1 X-2.453 Y52.500 E75.24097
G1 X-2.453 Y35.500 E77.25998
G1 X-2.056 Y33.225 E77.53420
G1 X-0.912 Y31.220 E77.80843
G1 X0.844 Y29.720 E78.08265
G1 X2.948 Y28.926 E78.34975
G1 E76.34975 F2400.00000
G92 E0
G1 X89.316 Y171.986 F7800.000
G1 E2.00000 F2400.00000
G1 F1800.000
G1 X89.931 Y171.671 E2.08208
G1 X90.487 Y171.499 E2.15125
G1 X91.173 Y171.414 E2.23331
G1 X91.883 Y171.467 E2.31794
G1 X92.571 Y171.660 E2.40276
G1 X93.207 Y171.986 E2.48767
G1 X93.766 Y172.431 E2.57251
G1 X94.226 Y172.979 E2.65740
G1 X94.567 Y173.606 E2.74223
G1 X94.778 Y174.289 E2.82710
G1 X94.849 Y175.000 E2.91197
G1 X94.778 Y175.711 E2.99683
G1 X94.567 Y176.394 E3.08170
G1 X94.226 Y177.021 E3.16653
G1 X93.766 Y177.569 E3.25142
G1 X93.207 Y178.014 E3.33626
G1 X92.592 Y178.329 E3.41835
G1 X92.036 Y178.501 E3.48750
G1 X91.350 Y178.586 E3.56957
G1 X90.640 Y178.533 E3.65419
G1 X89.952 Y178.340 E3.73903
G1 X89.316 Y178.014 E3.82393
G1 X88.757 Y177.569 E3.90876
G1 X88.297 Y177.021 E3.99367
G1 X87.956 Y176.394 E4.07849
G1 X87.745 Y175.711 E4.16335
G1 X87.674 Y175.000 E4.24822
G1 X87.745 Y174.289 E4.33309
G1 X87.956 Y173.606 E4.41795
G1 X88.297 Y172.979 E4.50278
G1 X88.757 Y172.431 E4.58769
G1 X89.269 Y172.024 E4.66539
G1 X89.705 Y172.589 F7800.000
G1 F1800.000
G1 X90.201 Y172.335 E4.73158
G1 X90.638 Y172.200 E4.78586
G1 X91.190 Y172.132 E4.85203
G1 X91.759 Y172.174 E4.91977
G1 X92.309 Y172.328 E4.98762
G1 X92.818 Y172.589 E5.05553
G1 X93.265 Y172.945 E5.12339
G1 X93.633 Y173.383 E5.19129
G1 X93.906 Y173.885 E5.25915
G1 X94.074 Y174.431 E5.32703
G1 X94.131 Y175.000 E5.39493
G1 X94.074 Y175.569 E5.46282
G1 X93.906 Y176.115 E5.53070
G1 X93.633 Y176.617 E5.59857
G1 X93.265 Y177.055 E5.66646
G1 X92.818 Y177.411 E5.73432
G1 X92.322 Y177.665 E5.80052
G1 X91.885 Y177.800 E5.85479
G1 X91.333 Y177.868 E5.92096
G1 X90.764 Y177.826 E5.98869
G1 X90.214 Y177.672 E6.05656
G1 X89.705 Y177.411 E6.12446
G1 X89.258 Y177.055 E6.19232
G1 X88.890 Y176.617 E6.26023
G1 X88.617 Y176.115 E6.32808
G1 X88.449 Y175.569 E6.39596
G1 X88.392 Y175.000 E6.46386
G1 X88.449 Y174.431 E6.53176
G1 X88.617 Y173.885 E6.59963
G1 X88.890 Y173.383 E6.66749
G1 X89.258 Y172.945 E6.73540
G1 X89.658 Y172.627 E6.79613
G1 X90.094 Y173.192 F7800.000
G1 F1800.000
G1 X90.471 Y172.999 E6.84642
G1 X90.788 Y172.901 E6.88582
G1 X91.208 Y172.849 E6.93610
G1 X91.635 Y172.881 E6.98695
G1 X92.047 Y172.997 E7.03782
G1 X92.429 Y173.192 E7.08874
G1 X92.764 Y173.459 E7.13962
G1 X93.040 Y173.788 E7.19052
G1 X93.245 Y174.164 E7.24141
G1 X93.371 Y174.573 E7.29231
G1 X93.413 Y175.000 E7.34324
G1 X93.371 Y175.427 E7.39416
G1 X93.245 Y175.836 E7.44506
G1 X93.040 Y176.212 E7.49595
G1 X92.764 Y176.541 E7.54686
G1 X92.429 Y176.808 E7.59773
G1 X92.052 Y177.001 E7.64803
G1 X91.735 Y177.099 E7.68742
G1 X91.315 Y177.151 E7.73771
G1 X90.888 Y177.119 E7.78855
G1 X90.475 Y177.003 E7.83944
G1 X90.094 Y176.808 E7.89035
G1 X89.759 Y176.541 E7.94122
G1 X89.483 Y176.212 E7.99213
G1 X89.278 Y175.836 E8.04302
G1 X89.152 Y175.427 E8.09392
G1 X89.110 Y175.000 E8.14484
G1 X89.152 Y174.573 E8.19577
G1 X89.278 Y174.164 E8.24667
G1 X89.483 Y173.788 E8.29755
G1 X89.759 Y173.459 E8.34847
G1 X90.047 Y173.230 E8.39222
G1 X90.094 Y173.192 F7800.000
G1 E6.39222 F2400.00000
G92 E0
G1 X107.679 Y174.950 F7800.000
G1 E2.00000 F2400.00000
G1 F1800.000
G1 X107.745 Y174.289 E2.07896
G1 X107.956 Y173.606 E2.16382
G1 X108.297 Y172.979 E2.24865
G1 X108.757 Y172.431 E2.33354
G1 X109.316 Y171.986 E2.41838
G1 X109.931 Y171.671 E2.50048
G1 X110.487 Y171.499 E2.56963
G1 X111.173 Y171.414 E2.65170
G1 X111.883 Y171.467 E2.73632
G1 X112.571 Y171.660 E2.82115
G1 X113.207 Y171.986 E2.90606
G1 X113.766 Y172.431 E2.99090
G1 X114.226 Y172.979 E3.07578
G1 X114.567 Y173.606 E3.16062
G1 X114.778 Y174.289 E3.24549
G1 X114.849 Y175.000 E3.33035
G1 X114.778 Y175.711 E3.41521
G1 X114.567 Y176.394 E3.50008
G1 X114.226 Y177.021 E3.58491
G1 X113.766 Y177.569 E3.66980
G1 X113.207 Y178.014 E3.75464
G1 X112.592 Y178.329 E3.83674
G1 X112.036 Y178.501 E3.90588
G1 X111.350 Y178.586 E3.98795
G1 X110.640 Y178.533 E4.07258
G1 X109.952 Y178.340 E4.15740
G1 X109.316 Y178.014 E4.24231
G1 X108.757 Y177.569 E4.32716
G1 X108.297 Y177.021 E4.41204
G1 X107.956 Y176.394 E4.49687
G1 X107.745 Y175.711 E4.58174
G1 X107.675 Y175.010 E4.66539
G1 X108.392 Y175.000 F7800.000
G1 F1800.000
G1 X108.449 Y174.431 E4.73328
G1 X108.617 Y173.885 E4.80117
G1 X108.890 Y173.383 E4.86903
G1 X109.258 Y172.945 E4.93692
G1 X109.705 Y172.589 E5.00478
G1 X110.201 Y172.335 E5.07098
G1 X110.638 Y172.200 E5.12525
G1 X111.190 Y172.132 E5.19143
G1 X111.759 Y172.174 E5.25916
G1 X112.309 Y172.328 E5.32701
G1 X112.818 Y172.589 E5.39493
G1 X113.265 Y172.945 E5.46279
G1 X113.633 Y173.383 E5.53068
G1 X113.906 Y173.885 E5.59854
G1 X114.074 Y174.431 E5.66643
G1 X114.131 Y175.000 E5.73432
G1 X114.074 Y175.569 E5.80221
G1 X113.906 Y176.115 E5.87010
G1 X113.633 Y176.617 E5.93796
G1 X113.265 Y177.055 E6.00586
G1 X112.818 Y177.411 E6.07371
G1 X112.322 Y177.665 E6.13991
G1 X111.885 Y177.800 E6.19418
G1 X111.333 Y177.868 E6.26036
G1 X110.764 Y177.826 E6.32810
G1 X110.214 Y177.672 E6.39595
G1 X109.705 Y177.411 E6.46386
G1 X109.258 Y177.055 E6.53172
G1 X108.890 Y176.617 E6.59962
G1 X108.617 Y176.115 E6.66748
G1 X108.449 Y175.569 E6.73536
G1 X108.398 Y175.060 E6.79613
G1 X109.110 Y175.000 F7800.000
G1 F1800.000
G1 X109.152 Y174.573 E6.84705
G1 X109.278 Y174.164 E6.89795
G1 X109.483 Y173.788 E6.94884
G1 X109.759 Y173.459 E6.99975
G1 X110.094 Y173.192 E7.05062
G1 X110.471 Y172.999 E7.10093
G1 X110.788 Y172.901 E7.14031
G1 X111.208 Y172.849 E7.19060
G1 X111.635 Y172.881 E7.24145
G1 X112.047 Y172.997 E7.29232
G1 X112.429 Y173.192 E7.34324
G1 X112.764 Y173.459 E7.39412
G1 X113.040 Y173.788 E7.44502
G1 X113.245 Y174.164 E7.49591
G1 X113.371 Y174.573 E7.54681
G1 X113.413 Y175.000 E7.59774
G1 X113.371 Y175.427 E7.64866
G1 X113.245 Y175.836 E7.69956
G1 X113.040 Y176.212 E7.75045
G1 X112.764 Y176.541 E7.80135
G1 X112.429 Y176.808 E7.85223
G1 X112.052 Y177.001 E7.90253
G1 X111.735 Y177.099 E7.94192
G1 X111.315 Y177.151 E7.99221
G1 X110.888 Y177.119 E8.04305
G1 X110.476 Y177.003 E8.09393
G1 X110.094 Y176.808 E8.14485
G1 X109.759 Y176.541 E8.19572
G1 X109.483 Y176.212 E8.24663
G1 X109.278 Y175.836 E8.29752
G1 X109.152 Y175.427 E8.34842
G1 X109.115 Y175.060 E8.39222
G1 X109.110 Y175.000 F7800.000
G1 E6.39222 F2400.00000
G92 E0
G1 X160.674 Y170.790 F7800.000
G1 E2.00000 F2400.00000
G1 F1800.000
G1 X160.745 Y170.079 E2.08487
G1 X160.956 Y169.396 E2.16974
G1 X161.297 Y168.769 E2.25457
G1 X161.757 Y168.221 E2.33946
G1 X162.316 Y167.776 E2.42429
G1 X162.931 Y167.461 E2.50639
G1 X163.487 Y167.289 E2.57554
G1 X164.173 Y167.204 E2.65761
G1 X164.883 Y167.257 E2.74223
G1 X165.571 Y167.450 E2.82706
G1 X166.207 Y167.776 E2.91197
G1 X166.766 Y168.221 E2.99680
G1 X167.226 Y168.769 E3.08169
G1 X167.567 Y169.396 E3.16653
G1 X167.778 Y170.079 E3.25140
G1 X167.849 Y170.790 E3.33626
G1 X167.778 Y171.501 E3.42112
G1 X167.567 Y172.184 E3.50599
G1 X167.226 Y172.811 E3.59083
G1 X166.766 Y173.359 E3.67572
G1 X166.207 Y173.804 E3.76055
G1 X165.592 Y174.119 E3.84265
G1 X165.036 Y174.291 E3.91180
G1 X164.350 Y174.376 E3.99386
G1 X163.640 Y174.323 E4.07849
G1 X162.952 Y174.130 E4.16332
G1 X162.316 Y173.804 E4.24823
G1 X161.757 Y173.359 E4.33306
G1 X161.298 Y172.811 E4.41795
G1 X160.956 Y172.184 E4.50279
G1 X160.745 Y171.501 E4.58765
G1 X160.680 Y170.850 E4.66539
G1 X161.392 Y170.790 F7800.000
G1 F1800.000
G1 X161.449 Y170.221 E4.73328
G1 X161.617 Y169.675 E4.80117
G1 X161.890 Y169.173 E4.86903
G1 X162.258 Y168.735 E4.93693
G1 X162.705 Y168.379 E5.00478
G1 X163.201 Y168.125 E5.07098
G1 X163.638 Y167.990 E5.12525
G1 X164.190 Y167.922 E5.19143
G1 X164.759 Y167.964 E5.25916
G1 X165.309 Y168.118 E5.32702
G1 X165.818 Y168.379 E5.39493
G1 X166.265 Y168.735 E5.46278
G1 X166.633 Y169.173 E5.53068
G1 X166.906 Y169.675 E5.59855
G1 X167.074 Y170.221 E5.66643
G1 X167.131 Y170.790 E5.73433
G1 X167.074 Y171.359 E5.80221
G1 X166.906 Y171.905 E5.87010
G1 X166.633 Y172.407 E5.93796
G1 X166.265 Y172.845 E6.00586
G1 X165.818 Y173.201 E6.07371
G1 X165.322 Y173.455 E6.13992
G1 X164.885 Y173.590 E6.19418
G1 X164.333 Y173.658 E6.26036
G1 X163.764 Y173.616 E6.32809
G1 X163.214 Y173.462 E6.39595
G1 X162.705 Y173.201 E6.46387
G1 X162.258 Y172.845 E6.53172
G1 X161.890 Y172.407 E6.59961
G1 X161.617 Y171.905 E6.66748
G1 X161.449 Y171.359 E6.73536
G1 X161.398 Y170.850 E6.79613
G1 X162.110 Y170.790 F7800.000
G1 F1800.000
G1 X162.152 Y170.363 E6.84705
G1 X162.278 Y169.954 E6.89795
G1 X162.483 Y169.578 E6.94884
G1 X162.759 Y169.249 E6.99975
G1 X163.094 Y168.982 E7.05062
G1 X163.471 Y168.789 E7.10092
G1 X163.788 Y168.691 E7.14031
G1 X164.208 Y168.639 E7.19060
G1 X164.635 Y168.671 E7.24144
G1 X165.047 Y168.787 E7.29232
G1 X165.429 Y168.982 E7.34324
G1 X165.764 Y169.249 E7.39411
G1 X166.040 Y169.578 E7.44502
G1 X166.245 Y169.954 E7.49591
G1 X166.371 Y170.363 E7.54681
G1 X166.413 Y170.790 E7.59774
G1 X166.371 Y171.217 E7.64866
G1 X166.245 Y171.626 E7.69956
G1 X166.040 Y172.002 E7.75045
G1 X165.764 Y172.331 E7.80136
G1 X165.429 Y172.598 E7.85223
G1 X165.052 Y172.791 E7.90253
G1 X164.735 Y172.889 E7.94192
G1 X164.315 Y172.941 E7.99221
G1 X163.888 Y172.909 E8.04305
G1 X163.476 Y172.793 E8.09393
G1 X163.094 Y172.598 E8.14485
G1 X162.759 Y172.331 E8.19572
G1 X162.483 Y172.002 E8.24663
G1 X162.278 Y171.626 E8.29752
G1 X162.152 Y171.217 E8.34842
G1 X162.115 Y170.850 E8.39221
G1 X162.110 Y170.790 F7800.000
G1 E6.39221 F2400.00000
G92 E0
G1 X198.118 Y139.039 F7800.000
G1 E2.00000 F2400.00000
G1 F1800.000
G1 X197.657 Y138.490 E2.08515
G1 X197.329 Y137.884 E2.16694
G1 X197.143 Y137.335 E2.23584
G1 X197.039 Y136.647 E2.31842
G1 X197.076 Y135.934 E2.40329
G1 X197.252 Y135.243 E2.48787
G1 X197.561 Y134.601 E2.57260
G1 X197.993 Y134.030 E2.65762
G1 X198.529 Y133.557 E2.74252
G1 X199.146 Y133.200 E2.82720
G1 X199.825 Y132.972 E2.91222
G1 X200.534 Y132.884 E2.99706
G1 X201.245 Y132.937 E3.08181
G1 X201.934 Y133.130 E3.16671
G1 X202.570 Y133.457 E3.25166
G1 X203.128 Y133.902 E3.33644
G1 X203.586 Y134.449 E3.42112
G1 X203.928 Y135.075 E3.50588
G1 X204.133 Y135.738 E3.58833
G1 X204.204 Y136.315 E3.65735
G1 X204.171 Y137.004 E3.73924
G1 X203.994 Y137.699 E3.82442
G1 X203.683 Y138.341 E3.90920
G1 X203.253 Y138.909 E3.99373
G1 X202.717 Y139.383 E4.07870
G1 X202.098 Y139.740 E4.16359
G1 X201.422 Y139.967 E4.24834
G1 X200.712 Y140.056 E4.33326
G1 X199.999 Y140.003 E4.41822
G1 X199.312 Y139.809 E4.50302
G1 X198.677 Y139.484 E4.58768
G1 X198.165 Y139.076 E4.66544
G1 X198.619 Y138.525 F7800.000
G1 F1800.000
G1 X198.251 Y138.086 E4.73350
G1 X197.986 Y137.597 E4.79949
G1 X197.840 Y137.166 E4.85362
G1 X197.756 Y136.612 E4.92011
G1 X197.786 Y136.041 E4.98800
G1 X197.926 Y135.489 E5.05571
G1 X198.174 Y134.974 E5.12350
G1 X198.519 Y134.518 E5.19147
G1 X198.948 Y134.140 E5.25940
G1 X199.442 Y133.854 E5.32713
G1 X199.985 Y133.672 E5.39514
G1 X200.552 Y133.601 E5.46302
G1 X201.121 Y133.644 E5.53081
G1 X201.671 Y133.799 E5.59873
G1 X202.180 Y134.060 E5.66666
G1 X202.627 Y134.416 E5.73448
G1 X202.993 Y134.853 E5.80225
G1 X203.267 Y135.354 E5.87007
G1 X203.432 Y135.889 E5.93649
G1 X203.488 Y136.342 E5.99068
G1 X203.461 Y136.897 E6.05675
G1 X203.319 Y137.453 E6.12482
G1 X203.070 Y137.967 E6.19267
G1 X202.727 Y138.421 E6.26034
G1 X202.298 Y138.800 E6.32828
G1 X201.803 Y139.086 E6.39618
G1 X201.262 Y139.268 E6.46398
G1 X200.694 Y139.339 E6.53190
G1 X200.124 Y139.296 E6.59986
G1 X199.574 Y139.141 E6.66769
G1 X199.066 Y138.881 E6.73544
G1 X198.666 Y138.562 E6.79623
G1 X199.120 Y138.011 F7800.000
G1 F1800.000
G1 X198.844 Y137.682 E6.84719
G1 X198.643 Y137.310 E6.89739
G1 X198.536 Y136.997 E6.93675
G1 X198.473 Y136.577 E6.98716
G1 X198.495 Y136.149 E7.03805
G1 X198.601 Y135.734 E7.08889
G1 X198.786 Y135.348 E7.13976
G1 X199.045 Y135.006 E7.19067
G1 X199.367 Y134.723 E7.24162
G1 X199.737 Y134.508 E7.29242
G1 X200.144 Y134.372 E7.34341
G1 X200.570 Y134.319 E7.39432
G1 X200.996 Y134.351 E7.44515
G1 X201.409 Y134.467 E7.49611
G1 X201.791 Y134.662 E7.54702
G1 X202.125 Y134.930 E7.59786
G1 X202.401 Y135.258 E7.64872
G1 X202.606 Y135.634 E7.69961
G1 X202.731 Y136.039 E7.74999
G1 X202.772 Y136.368 E7.78936
G1 X202.751 Y136.791 E7.83960
G1 X202.645 Y137.206 E7.89057
G1 X202.458 Y137.592 E7.94149
G1 X202.200 Y137.934 E7.99229
G1 X201.879 Y138.217 E8.04320
G1 X201.508 Y138.432 E8.09411
G1 X201.102 Y138.568 E8.14496
G1 X200.677 Y138.621 E8.19589
G1 X200.249 Y138.589 E8.24686
G1 X199.837 Y138.473 E8.29770
G1 X199.456 Y138.278 E8.34855
G1 X199.167 Y138.048 E8.39236
G1 X199.120 Y138.011 F7800.000
