; generated by Slic3r 1.3.1-dev (Build 18ddd3a36dc69d81fb9b7440498bff9e1dde8b7e) on 2021-11-07 at 18:14:21

; external perimeters extrusion width = 0.44mm (3.38mm^3/s)
; perimeters extrusion width = 0.48mm (7.54mm^3/s)
; infill extrusion width = 0.48mm (10.05mm^3/s)
; solid infill extrusion width = 0.48mm (2.51mm^3/s)
; top infill extrusion width = 0.48mm (1.88mm^3/s)

M107
G92 E0
M190 S85 ; set bed temperature and wait for it to be reached
M104 S225 ; set temperature
G28 ; home all axes
G1 Z5 F5000 ; lift nozzle

; Filament gcode

M109 S225 ; set temperature and wait for it to be reached
G21 ; set units to millimeters
G90 ; use absolute coordinates
M82 ; use absolute distances for extrusion
G92 E0
G1 Z0.400 F7800.000
G1 E-2.00000 F2400.00000
G92 E0
G1 X2.990 Y28.905 F7800.000
G1 E2.00000 F2400.00000
G1 F1800.000
G1 X4.248 Y28.786 E2.14997
G1 X141.248 Y28.786 E18.42080
G1 X145.462 Y28.896 E18.92146
G1 X149.500 Y29.205 E19.40248
G1 X153.518 Y29.716 E19.88353
G1 X157.505 Y30.426 E20.36450
G1 X161.128 Y31.252 E20.80581
G1 X165.030 Y32.339 E21.28687
G1 X168.872 Y33.620 E21.76789
G1 X172.954 Y35.221 E22.28865
G1 X176.643 Y36.894 E22.76964
G1 X179.950 Y38.588 E23.21094
G1 X183.462 Y40.605 E23.69200
G1 X186.869 Y42.794 E24.17300
G1 X190.164 Y45.151 E24.65407
G1 X193.336 Y47.669 E25.13506
G1 X196.379 Y50.343 E25.61619
G1 X199.285 Y53.164 E26.09720
G1 X202.046 Y56.127 E26.57816
G1 X204.657 Y59.224 E27.05922
G1 X207.110 Y62.447 E27.54028
G1 X209.399 Y65.789 E28.02138
G1 X211.518 Y69.240 E28.50232
G1 X213.463 Y72.793 E28.98342
G1 X215.228 Y76.437 E29.46431
G1 X216.809 Y80.168 E29.94555
G1 X218.203 Y83.969 E30.42631
G1 X219.496 Y88.160 E30.94729
G1 X220.488 Y92.088 E31.42839
G1 X221.282 Y96.059 E31.90931
G1 X221.877 Y100.065 E32.39038
G1 X222.272 Y104.095 E32.87124
G1 X222.467 Y108.142 E33.35244
G1 X222.458 Y112.192 E33.83343
G1 X222.248 Y116.237 E34.31450
G1 X221.836 Y120.267 E34.79557
G1 X221.224 Y124.271 E35.27671
G1 X220.413 Y128.238 E35.75762
G1 X219.405 Y132.161 E36.23858
G1 X218.204 Y136.029 E36.71967
G1 X216.810 Y139.833 E37.20081
G1 X215.229 Y143.560 E37.68167
G1 X213.463 Y147.207 E38.16292
G1 X211.519 Y150.758 E38.64370
G1 X209.399 Y154.211 E39.12493
G1 X207.110 Y157.552 E39.60594
G1 X204.658 Y160.775 E40.08682
G1 X202.047 Y163.873 E40.56797
G1 X199.519 Y166.596 E41.00928
G1 X196.626 Y169.429 E41.49019
G1 X193.592 Y172.116 E41.97145
G1 X190.432 Y174.646 E42.45230
G1 X186.870 Y177.205 E42.97317
G1 X183.463 Y179.394 E43.45414
G1 X179.950 Y181.412 E43.93524
G1 X176.343 Y183.250 E44.41607
G1 X172.646 Y184.909 E44.89736
G1 X168.874 Y186.379 E45.37819
G1 X165.030 Y187.661 E45.85946
G1 X161.453 Y188.666 E46.30073
G1 X157.506 Y189.573 E46.78173
G1 X153.187 Y190.335 E47.30257
G1 X149.169 Y190.827 E47.78332
G1 X145.463 Y191.104 E48.22469
G1 X141.413 Y191.212 E48.70585
G1 X81.248 Y191.214 E55.85130
G1 X78.974 Y190.817 E56.12553
G1 X76.968 Y189.673 E56.39975
G1 X75.449 Y187.883 E56.67859
G1 X-1.552 Y55.883 E74.82796
G1 X-2.355 Y53.718 E75.10219
G1 X-2.467 Y52.500 E75.24749
G1 X-2.467 Y35.500 E77.26650
G1 X-2.070 Y33.225 E77.54072
G1 X-0.925 Y31.220 E77.81495
G1 X0.830 Y29.720 E78.08917
G1 X2.934 Y28.926 E78.35627
G1 E76.35627 F2400.00000
G92 E0
G1 X6.076 Y50.672 F7800.000
G1 E2.00000 F2400.00000
G1 F1800.000
G1 X6.076 Y37.328 E3.58473
G1 X141.225 Y37.328 E19.63575
G1 X144.872 Y37.418 E20.06899
G1 X148.486 Y37.687 E20.49940
G1 X152.082 Y38.137 E20.92986
G1 X155.652 Y38.765 E21.36027
G1 X159.186 Y39.570 E21.79076
G1 X162.675 Y40.551 E22.22120
G1 X166.110 Y41.704 E22.65159
G1 X169.484 Y43.027 E23.08203
G1 X172.788 Y44.517 E23.51246
G1 X176.014 Y46.170 E23.94292
G1 X179.153 Y47.981 E24.37335
G1 X182.199 Y49.947 E24.80383
G1 X185.141 Y52.062 E25.23425
G1 X187.976 Y54.321 E25.66474
G1 X190.694 Y56.718 E26.09514
G1 X193.288 Y59.249 E26.52557
G1 X195.754 Y61.905 E26.95605
G1 X198.085 Y64.681 E27.38651
G1 X200.274 Y67.570 E27.81694
G1 X202.315 Y70.564 E28.24735
G1 X204.206 Y73.656 E28.67781
G1 X205.939 Y76.839 E29.10824
G1 X207.512 Y80.104 E29.53870
G1 X208.920 Y83.444 E29.96914
G1 X210.161 Y86.850 E30.39962
G1 X211.229 Y90.313 E30.83002
G1 X212.123 Y93.825 E31.26046
G1 X212.841 Y97.377 E31.69090
G1 X213.382 Y100.961 E32.12136
G1 X213.743 Y104.568 E32.55182
G1 X213.924 Y108.188 E32.98227
G1 X213.924 Y111.812 E33.41270
G1 X213.744 Y115.432 E33.84314
G1 X213.383 Y119.038 E34.27358
G1 X212.842 Y122.622 E34.70400
G1 X212.123 Y126.174 E35.13446
G1 X211.229 Y129.686 E35.56494
G1 X210.161 Y133.150 E35.99537
G1 X208.921 Y136.555 E36.42579
G1 X207.512 Y139.895 E36.85626
G1 X205.940 Y143.160 E37.28668
G1 X204.206 Y146.343 E37.71716
G1 X202.316 Y149.435 E38.14756
G1 X200.274 Y152.429 E38.57803
G1 X198.085 Y155.318 E39.00850
G1 X195.755 Y158.094 E39.43889
G1 X193.289 Y160.751 E39.86935
G1 X190.695 Y163.281 E40.29978
G1 X187.976 Y165.679 E40.73028
G1 X185.142 Y167.938 E41.16070
G1 X182.200 Y170.053 E41.59108
G1 X179.154 Y172.018 E42.02156
G1 X176.015 Y173.830 E42.45199
G1 X172.789 Y175.482 E42.88246
G1 X169.485 Y176.973 E43.31292
G1 X166.111 Y178.295 E43.74333
G1 X162.675 Y179.449 E44.17387
G1 X159.186 Y180.429 E44.60428
G1 X155.652 Y181.234 E45.03467
G1 X152.083 Y181.863 E45.46509
G1 X148.487 Y182.312 E45.89553
G1 X144.872 Y182.582 E46.32608
G1 X141.226 Y182.672 E46.75920
G1 X83.077 Y182.672 E53.66531
G1 X83.077 Y169.327 E55.25016
G1 X141.271 Y169.327 E62.16166
G1 X144.202 Y169.254 E62.50986
G1 X147.148 Y169.034 E62.86069
G1 X150.079 Y168.666 E63.21157
G1 X152.990 Y168.154 E63.56248
G1 X155.267 Y167.635 E63.83991
G1 X155.871 Y167.497 E63.91346
G1 X158.714 Y166.698 E64.26422
G1 X161.515 Y165.759 E64.61507
G1 X163.690 Y164.907 E64.89255
G1 X164.267 Y164.681 E64.96611
G1 X166.960 Y163.467 E65.31698
G1 X169.590 Y162.121 E65.66783
G1 X171.614 Y160.954 E65.94527
G1 X172.150 Y160.645 E66.01880
G1 X174.632 Y159.044 E66.36961
G1 X177.033 Y157.321 E66.72048
G1 X178.861 Y155.866 E66.99798
G1 X179.345 Y155.480 E67.07151
G1 X181.561 Y153.528 E67.42227
G1 X183.678 Y151.467 E67.77317
G1 X185.690 Y149.303 E68.12414
G1 X187.591 Y147.042 E68.47491
G1 X189.378 Y144.689 E68.82581
G1 X191.045 Y142.250 E69.17669
G1 X192.589 Y139.731 E69.52757
G1 X194.006 Y137.137 E69.87860
G1 X195.292 Y134.478 E70.22942
G1 X196.443 Y131.757 E70.58026
G1 X197.458 Y128.983 E70.93115
G1 X198.333 Y126.161 E71.28203
G1 X199.067 Y123.297 E71.63315
G1 X199.657 Y120.404 E71.98383
G1 X200.103 Y117.483 E72.33471
G1 X200.403 Y114.544 E72.68562
G1 X200.555 Y111.594 E73.03643
G1 X200.562 Y108.637 E73.38759
G1 X200.422 Y105.718 E73.73468
G1 X200.135 Y102.769 E74.08658
G1 X199.700 Y99.838 E74.43848
G1 X199.120 Y96.932 E74.79041
G1 X198.396 Y94.059 E75.14237
G1 X197.528 Y91.225 E75.49437
G1 X196.520 Y88.438 E75.84629
G1 X195.375 Y85.706 E76.19820
G1 X194.094 Y83.033 E76.55015
G1 X192.682 Y80.428 E76.90210
G1 X191.141 Y77.897 E77.25403
G1 X189.476 Y75.446 E77.60597
G1 X187.691 Y73.081 E77.95788
G1 X185.789 Y70.808 E78.30986
G1 X183.776 Y68.632 E78.66183
G1 X181.658 Y66.561 E79.01374
G1 X179.439 Y64.597 E79.36568
G1 X177.124 Y62.747 E79.71760
G1 X174.719 Y61.014 E80.06964
G1 X172.232 Y59.404 E80.42154
G1 X169.668 Y57.920 E80.77340
G1 X167.031 Y56.566 E81.12539
G1 X164.331 Y55.345 E81.47733
G1 X161.573 Y54.261 E81.82930
G1 X158.764 Y53.316 E82.18124
G1 X155.912 Y52.512 E82.53315
G1 X153.023 Y51.851 E82.88512
G1 X150.105 Y51.336 E83.23704
G1 X147.165 Y50.967 E83.58903
G1 X144.210 Y50.745 E83.94097
G1 X141.270 Y50.672 E84.29016
G1 X6.136 Y50.672 E100.33944
G1 X5.362 Y51.386 F7800.000
G1 F1800.000
G1 X5.362 Y36.614 E102.09380
G1 X141.234 Y36.614 E118.23068
G1 X144.907 Y36.704 E118.66708
G1 X148.557 Y36.977 E119.10172
G1 X152.189 Y37.431 E119.53641
G1 X155.793 Y38.065 E119.97106
G1 X159.362 Y38.878 E120.40577
G1 X162.885 Y39.868 E120.84045
G1 X166.354 Y41.033 E121.27507
G1 X169.762 Y42.369 E121.70974
G1 X173.098 Y43.873 E122.14440
G1 X176.356 Y45.542 E122.57910
G1 X179.525 Y47.372 E123.01375
G1 X182.601 Y49.356 E123.44847
G1 X185.573 Y51.492 E123.88311
G1 X188.435 Y53.774 E124.31784
G1 X191.179 Y56.195 E124.75248
G1 X193.800 Y58.750 E125.18713
G1 X196.290 Y61.432 E125.62184
G1 X198.643 Y64.236 E126.05653
G1 X200.854 Y67.153 E126.49120
G1 X202.915 Y70.176 E126.92584
G1 X204.824 Y73.299 E127.36053
G1 X206.575 Y76.513 E127.79519
G1 X208.164 Y79.810 E128.22988
G1 X209.585 Y83.183 E128.66455
G1 X210.838 Y86.622 E129.09925
G1 X211.917 Y90.119 E129.53390
G1 X212.820 Y93.666 E129.96857
G1 X213.545 Y97.253 E130.40324
G1 X214.091 Y100.873 E130.83793
G1 X214.455 Y104.514 E131.27261
G1 X214.638 Y108.170 E131.70729
G1 X214.638 Y111.830 E132.14196
G1 X214.456 Y115.485 E132.57663
G1 X214.092 Y119.127 E133.01131
G1 X213.546 Y122.746 E133.44597
G1 X212.820 Y126.333 E133.88066
G1 X211.917 Y129.880 E134.31535
G1 X210.838 Y133.377 E134.75001
G1 X209.586 Y136.816 E135.18468
G1 X208.164 Y140.189 E135.61937
G1 X206.576 Y143.486 E136.05403
G1 X204.824 Y146.700 E136.48874
G1 X202.916 Y149.823 E136.92337
G1 X200.854 Y152.847 E137.35807
G1 X198.643 Y155.764 E137.79277
G1 X196.291 Y158.567 E138.22739
G1 X193.801 Y161.250 E138.66209
G1 X191.181 Y163.805 E139.09675
G1 X188.435 Y166.226 E139.53148
G1 X185.574 Y168.507 E139.96613
G1 X182.602 Y170.643 E140.40075
G1 X179.527 Y172.628 E140.83545
G1 X176.357 Y174.457 E141.27011
G1 X173.099 Y176.126 E141.70481
G1 X169.763 Y177.631 E142.13950
G1 X166.356 Y178.967 E142.57414
G1 X162.885 Y180.132 E143.00891
G1 X159.362 Y181.122 E143.44357
G1 X155.794 Y181.935 E143.87817
G1 X152.190 Y182.570 E144.31283
G1 X148.558 Y183.023 E144.74750
G1 X144.907 Y183.296 E145.18228
G1 X141.235 Y183.386 E145.61857
G1 X82.363 Y183.386 E152.61054
G1 X82.363 Y168.613 E154.36502
G1 X141.262 Y168.613 E161.36027
G1 X144.167 Y168.540 E161.70531
G1 X147.077 Y168.323 E162.05192
G1 X149.973 Y167.960 E162.39856
G1 X152.848 Y167.454 E162.74527
G1 X155.108 Y166.939 E163.02057
G1 X155.695 Y166.805 E163.09200
G1 X158.504 Y166.016 E163.43854
G1 X161.271 Y165.087 E163.78519
G1 X163.430 Y164.242 E164.06054
G1 X163.990 Y164.022 E164.13197
G1 X166.651 Y162.823 E164.47863
G1 X169.249 Y161.493 E164.82526
G1 X171.257 Y160.336 E165.10056
G1 X171.778 Y160.035 E165.17197
G1 X174.231 Y158.453 E165.51858
G1 X176.602 Y156.751 E165.86525
G1 X178.416 Y155.308 E166.14059
G1 X178.886 Y154.933 E166.21199
G1 X181.076 Y153.004 E166.55857
G1 X183.167 Y150.968 E166.90525
G1 X185.155 Y148.830 E167.25194
G1 X187.033 Y146.596 E167.59853
G1 X188.799 Y144.272 E167.94521
G1 X190.446 Y141.862 E168.29187
G1 X191.971 Y139.373 E168.63853
G1 X193.371 Y136.811 E168.98529
G1 X194.641 Y134.183 E169.33191
G1 X195.778 Y131.495 E169.67853
G1 X196.781 Y128.754 E170.02521
G1 X197.646 Y125.966 E170.37187
G1 X198.371 Y123.138 E170.71867
G1 X198.954 Y120.279 E171.06520
G1 X199.394 Y117.393 E171.41186
G1 X199.691 Y114.489 E171.75854
G1 X199.841 Y111.575 E172.10516
G1 X199.848 Y108.655 E172.45198
G1 X199.710 Y105.770 E172.79495
G1 X199.426 Y102.856 E173.14263
G1 X198.996 Y99.961 E173.49031
G1 X198.424 Y97.090 E173.83800
G1 X197.708 Y94.251 E174.18571
G1 X196.851 Y91.451 E174.53345
G1 X195.855 Y88.698 E174.88115
G1 X194.723 Y85.998 E175.22883
G1 X193.458 Y83.358 E175.57654
G1 X192.063 Y80.784 E175.92425
G1 X190.541 Y78.283 E176.27194
G1 X188.895 Y75.862 E176.61965
G1 X187.132 Y73.525 E176.96732
G1 X185.253 Y71.279 E177.31505
G1 X183.264 Y69.131 E177.66279
G1 X181.172 Y67.084 E178.01046
G1 X178.979 Y65.144 E178.35817
G1 X176.692 Y63.316 E178.70585
G1 X174.316 Y61.604 E179.05364
G1 X171.859 Y60.013 E179.40132
G1 X169.325 Y58.547 E179.74893
G1 X166.721 Y57.210 E180.09669
G1 X164.053 Y56.004 E180.44439
G1 X161.328 Y54.932 E180.79212
G1 X158.553 Y53.998 E181.13983
G1 X155.736 Y53.204 E181.48750
G1 X152.882 Y52.552 E181.83523
G1 X149.999 Y52.042 E182.18291
G1 X147.094 Y51.678 E182.53066
G1 X144.174 Y51.459 E182.87837
G1 X141.262 Y51.386 E183.22438
G1 X5.422 Y51.386 E199.35741
G1 X4.648 Y52.100 F7800.000
G1 F1800.000
G1 X4.648 Y35.900 E201.28141
G1 X141.243 Y35.900 E217.50415
G1 X144.943 Y35.991 E217.94370
G1 X148.628 Y36.266 E218.38258
G1 X152.295 Y36.724 E218.82150
G1 X155.934 Y37.365 E219.26038
G1 X159.538 Y38.186 E219.69932
G1 X163.096 Y39.186 E220.13823
G1 X166.599 Y40.362 E220.57709
G1 X170.039 Y41.711 E221.01599
G1 X173.408 Y43.230 E221.45488
G1 X176.697 Y44.915 E221.89381
G1 X179.898 Y46.762 E222.33269
G1 X183.003 Y48.766 E222.77164
G1 X186.004 Y50.923 E223.21052
G1 X188.894 Y53.226 E223.64948
G1 X191.665 Y55.671 E224.08835
G1 X194.311 Y58.251 E224.52723
G1 X196.825 Y60.960 E224.96616
G1 X199.202 Y63.790 E225.40509
G1 X201.434 Y66.736 E225.84400
G1 X203.515 Y69.789 E226.28287
G1 X205.443 Y72.942 E226.72179
G1 X207.210 Y76.187 E227.16067
G1 X208.815 Y79.517 E227.59960
G1 X210.250 Y82.922 E228.03849
G1 X211.515 Y86.394 E228.47743
G1 X212.604 Y89.926 E228.91632
G1 X213.516 Y93.507 E229.35522
G1 X214.248 Y97.129 E229.79412
G1 X214.799 Y100.784 E230.23304
G1 X215.167 Y104.461 E230.67194
G1 X215.352 Y108.152 E231.11085
G1 X215.352 Y111.847 E231.54976
G1 X215.168 Y115.538 E231.98866
G1 X214.800 Y119.216 E232.42757
G1 X214.249 Y122.870 E232.86647
G1 X213.516 Y126.492 E233.30539
G1 X212.604 Y130.073 E233.74430
G1 X211.515 Y133.605 E234.18320
G1 X210.251 Y137.077 E234.62210
G1 X208.815 Y140.483 E235.06102
G1 X207.211 Y143.812 E235.49992
G1 X205.443 Y147.057 E235.93885
G1 X203.516 Y150.211 E236.37771
G1 X201.434 Y153.264 E236.81666
G1 X199.202 Y156.209 E237.25557
G1 X196.826 Y159.040 E237.69442
G1 X194.312 Y161.749 E238.13336
G1 X191.666 Y164.329 E238.57225
G1 X188.894 Y166.773 E239.01122
G1 X186.005 Y169.077 E239.45009
G1 X183.004 Y171.233 E239.88895
G1 X179.899 Y173.238 E240.32789
G1 X176.698 Y175.085 E240.76677
G1 X173.409 Y176.769 E241.20569
G1 X170.040 Y178.289 E241.64462
G1 X166.600 Y179.638 E242.08350
G1 X163.096 Y180.815 E242.52250
G1 X159.538 Y181.814 E242.96139
G1 X155.935 Y182.635 E243.40022
G1 X152.296 Y183.276 E243.83911
G1 X148.629 Y183.734 E244.27802
G1 X144.943 Y184.009 E244.71702
G1 X141.244 Y184.100 E245.15647
G1 X81.648 Y184.100 E252.23430
G1 X81.648 Y167.899 E254.15841
G1 X141.253 Y167.899 E261.23742
G1 X144.131 Y167.827 E261.57930
G1 X147.006 Y167.612 E261.92168
G1 X149.867 Y167.253 E262.26410
G1 X152.707 Y166.754 E262.60659
G1 X154.950 Y166.243 E262.87976
G1 X155.518 Y166.113 E262.94907
G1 X158.293 Y165.333 E263.29140
G1 X161.027 Y164.416 E263.63384
G1 X163.169 Y163.577 E263.90706
G1 X163.712 Y163.364 E263.97636
G1 X166.341 Y162.179 E264.31881
G1 X168.908 Y160.865 E264.66123
G1 X170.900 Y159.717 E264.93439
G1 X171.406 Y159.425 E265.00367
G1 X173.829 Y157.863 E265.34609
G1 X176.171 Y156.181 E265.68855
G1 X177.971 Y154.749 E265.96173
G1 X178.427 Y154.385 E266.03101
G1 X180.590 Y152.480 E266.37341
G1 X182.657 Y150.468 E266.71586
G1 X184.619 Y148.357 E267.05828
G1 X186.475 Y146.150 E267.40070
G1 X188.219 Y143.854 E267.74315
G1 X189.846 Y141.473 E268.08558
G1 X191.353 Y139.015 E268.42803
G1 X192.735 Y136.485 E268.77051
G1 X193.990 Y133.889 E269.11294
G1 X195.114 Y131.233 E269.45535
G1 X196.105 Y128.526 E269.79780
G1 X196.959 Y125.772 E270.14024
G1 X197.675 Y122.978 E270.48273
G1 X198.251 Y120.154 E270.82511
G1 X198.686 Y117.303 E271.16756
G1 X198.978 Y114.435 E271.51000
G1 X199.127 Y111.555 E271.85242
G1 X199.134 Y108.672 E272.19491
G1 X198.997 Y105.822 E272.53375
G1 X198.717 Y102.944 E272.87721
G1 X198.293 Y100.083 E273.22067
G1 X197.727 Y97.247 E273.56412
G1 X197.020 Y94.443 E273.90759
G1 X196.173 Y91.677 E274.25108
G1 X195.189 Y88.958 E274.59455
G1 X194.071 Y86.291 E274.93800
G1 X192.822 Y83.683 E275.28147
G1 X191.443 Y81.140 E275.62494
G1 X189.940 Y78.670 E275.96840
G1 X188.315 Y76.278 E276.31186
G1 X186.573 Y73.970 E276.65530
