; generated by Slic3r 1.3.1-dev (Build 18ddd3a36dc69d81fb9b7440498bff9e1dde8b7e) on 2021-07-11 at 18:59:50

; external perimeters extrusion width = 0.44mm (3.38mm^3/s)
; perimeters extrusion width = 0.48mm (7.54mm^3/s)
; infill extrusion width = 0.48mm (10.05mm^3/s)
; solid infill extrusion width = 0.48mm (2.51mm^3/s)
; top infill extrusion width = 0.48mm (1.88mm^3/s)

M107
G92 E0
M190 S85 ; set bed temperature and wait for it to be reached
M104 S225 ; set temperature
G28 ; home all axes
G1 Z5 F5000 ; lift nozzle

; Filament gcode

M109 S225 ; set temperature and wait for it to be reached
G21 ; set units to millimeters
G90 ; use absolute coordinates
M82 ; use absolute distances for extrusion
G92 E0
G1 Z0.400 F7800.000
G1 E-2.00000 F2400.00000
G92 E0
G1 X61.063 Y59.743 F7800.000
G1 E2.00000 F2400.00000
G1 F1800.000
G1 X63.617 Y57.379 E2.41331
G1 X66.290 Y55.143 E2.82714
G1 X69.071 Y53.043 E3.24101
G1 X71.945 Y51.086 E3.65404
G1 X74.919 Y49.271 E4.06779
G1 X77.978 Y47.606 E4.48137
G1 X81.114 Y46.095 E4.89484
G1 X84.326 Y44.742 E5.30886
G1 X87.594 Y43.550 E5.72197
G1 X90.923 Y42.521 E6.13578
G1 X94.296 Y41.658 E6.54924
G1 X97.707 Y40.964 E6.96265
G1 X101.148 Y40.438 E7.37612
G1 X104.617 Y40.086 E7.79019
G1 X108.091 Y39.905 E8.20337
G1 X111.574 Y39.897 E8.61700
G1 X115.053 Y40.061 E9.03058
G1 X118.517 Y40.397 E9.44397
G1 X121.965 Y40.906 E9.85794
G1 X125.379 Y41.585 E10.27134
G1 X128.757 Y42.431 E10.68490
G1 X132.088 Y43.444 E11.09836
G1 X135.367 Y44.622 E11.51215
G1 X138.579 Y45.958 E11.92528
G1 X141.726 Y47.455 E12.33925
G1 X144.793 Y49.107 E12.75298
G1 X147.772 Y50.906 E13.16626
G1 X150.660 Y52.851 E13.57976
G1 X153.447 Y54.937 E13.99327
G1 X156.128 Y57.157 E14.40670
G1 X158.699 Y59.513 E14.82081
G1 X161.144 Y61.986 E15.23380
G1 X163.469 Y64.585 E15.64800
G1 X165.657 Y67.289 E16.06111
G1 X167.712 Y70.105 E16.47509
G1 X168.093 Y70.692 E16.55824
G1 X173.168 Y79.479 E17.76338
G1 X173.488 Y80.106 E17.84695
G1 X174.888 Y83.271 E18.25795
G1 X176.130 Y86.499 E18.66873
G1 X177.212 Y89.787 E19.07987
G1 X178.130 Y93.121 E19.49063
G1 X178.885 Y96.502 E19.90204
G1 X179.469 Y99.910 E20.31267
G1 X179.887 Y103.344 E20.72353
G1 X180.135 Y106.798 E21.13475
G1 X180.212 Y110.259 E21.54592
G1 X180.116 Y113.749 E21.96060
G1 X179.848 Y117.223 E22.37441
G1 X179.408 Y120.687 E22.78908
G1 X178.796 Y124.117 E23.20287
G1 X178.015 Y127.520 E23.61756
G1 X177.065 Y130.876 E24.03185
G1 X175.950 Y134.182 E24.44612
G1 X174.672 Y137.428 E24.86040
G1 X173.234 Y140.609 E25.27512
G1 X171.641 Y143.709 E25.68902
G1 X169.893 Y146.733 E26.10381
G1 X168.000 Y149.660 E26.51786
G1 X165.962 Y152.493 E26.93232
G1 X163.788 Y155.220 E27.34654
G1 X161.477 Y157.839 E27.76130
G1 X159.044 Y160.334 E28.17518
G1 X156.488 Y162.708 E28.58952
G1 X153.815 Y164.955 E29.00430
G1 X151.037 Y167.062 E29.41837
G1 X148.436 Y168.848 E29.79310
G1 X145.471 Y170.684 E30.20725
G1 X142.418 Y172.372 E30.62150
G1 X139.282 Y173.906 E31.03618
G1 X136.077 Y175.281 E31.45043
G1 X132.806 Y176.496 E31.86479
G1 X129.479 Y177.547 E32.27923
G1 X126.104 Y178.432 E32.69357
G1 X122.365 Y179.206 E33.14698
G1 X118.912 Y179.737 E33.56196
G1 X115.773 Y180.066 E33.93681
G1 X115.073 Y180.102 E34.02004
G1 X104.925 Y180.102 E35.22527
G1 X104.223 Y180.065 E35.30872
G1 X100.762 Y179.693 E35.72215
G1 X97.322 Y179.150 E36.13581
G1 X93.914 Y178.437 E36.54932
G1 X90.865 Y177.647 E36.92339
G1 X87.538 Y176.613 E37.33718
G1 X84.269 Y175.419 E37.75050
G1 X81.063 Y174.065 E38.16379
G1 X77.924 Y172.549 E38.57783
G1 X74.866 Y170.881 E38.99148
G1 X71.897 Y169.066 E39.40478
G1 X69.020 Y167.104 E39.81844
G1 X66.243 Y165.001 E40.23207
G1 X63.577 Y162.768 E40.64505
G1 X60.784 Y160.167 E41.09837
G1 X58.360 Y157.664 E41.51214
G1 X56.065 Y155.045 E41.92576
G1 X53.902 Y152.315 E42.33936
G1 X51.879 Y149.484 E42.75270
G1 X49.995 Y146.551 E43.16665
G1 X48.262 Y143.532 E43.58015
G1 X46.681 Y140.431 E43.99353
G1 X45.254 Y137.255 E44.40707
G1 X43.987 Y134.011 E44.82067
G1 X42.883 Y130.711 E45.23397
G1 X41.941 Y127.354 E45.64799
G1 X41.170 Y123.959 E46.06155
G1 X40.568 Y120.531 E46.47482
G1 X40.135 Y117.074 E46.88861
G1 X39.874 Y113.600 E47.30235
G1 X39.787 Y110.120 E47.71585
G1 X39.873 Y106.640 E48.12922
G1 X40.130 Y103.167 E48.54289
G1 X40.559 Y99.714 E48.95606
G1 X41.158 Y96.282 E49.36987
G1 X41.928 Y92.883 E49.78372
G1 X42.865 Y89.533 E50.19694
G1 X43.967 Y86.227 E50.61076
G1 X45.231 Y82.983 E51.02429
G1 X46.512 Y80.106 E51.39832
G1 X46.831 Y79.480 E51.48175
G1 X51.904 Y70.693 E52.68678
G1 X52.288 Y70.102 E52.77047
G1 X54.141 Y67.553 E53.14474
G1 X56.318 Y64.837 E53.55811
G1 X58.625 Y62.232 E53.97138
G1 X61.021 Y59.786 E54.37807
G1 E52.37807 F2400.00000
G92 E0
G1 X54.349 Y83.687 F7800.000
G1 E2.00000 F2400.00000
G1 F1800.000
G1 X53.837 Y84.750 E2.14013
G1 X52.645 Y87.582 E2.50510
G1 X51.594 Y90.467 E2.86978
G1 X50.688 Y93.404 E3.23480
G1 X49.929 Y96.381 E3.59966
G1 X49.321 Y99.393 E3.96454
G1 X48.863 Y102.430 E4.32942
G1 X48.558 Y105.488 E4.69432
G1 X48.404 Y108.556 E5.05920
G1 X48.404 Y111.629 E5.42414
G1 X48.558 Y114.695 E5.78879
G1 X48.863 Y117.753 E6.15369
G1 X49.321 Y120.790 E6.51856
G1 X49.929 Y123.802 E6.88345
G1 X50.688 Y126.779 E7.24831
G1 X51.594 Y129.715 E7.61320
G1 X52.644 Y132.602 E7.97810
G1 X53.837 Y135.433 E8.34298
G1 X55.171 Y138.202 E8.70793
G1 X56.640 Y140.899 E9.07271
G1 X58.242 Y143.521 E9.43761
G1 X59.973 Y146.058 E9.80245
G1 X61.826 Y148.508 E10.16722
G1 X63.801 Y150.862 E10.53216
G1 X65.892 Y153.113 E10.89711
G1 X68.092 Y155.258 E11.26198
G1 X70.394 Y157.290 E11.62665
G1 X72.796 Y159.206 E11.99156
G1 X75.291 Y161.000 E12.35651
G1 X77.871 Y162.667 E12.72133
G1 X80.533 Y164.202 E13.08630
G1 X83.266 Y165.603 E13.45105
G1 X86.067 Y166.868 E13.81602
G1 X88.927 Y167.990 E14.18088
G1 X91.837 Y168.969 E14.54560
G1 X94.796 Y169.801 E14.91062
G1 X97.792 Y170.484 E15.27556
G1 X100.816 Y171.019 E15.64026
G1 X103.865 Y171.400 E16.00524
G1 X105.043 Y171.488 E16.14546
G1 X104.600 Y171.958 E16.22216
G1 X104.393 Y172.212 E16.26100
G1 X101.938 Y171.954 E16.55423
G1 X98.881 Y171.478 E16.92170
G1 X95.851 Y170.852 E17.28916
G1 X92.855 Y170.075 E17.65665
G1 X89.903 Y169.151 E18.02407
G1 X86.999 Y168.082 E18.39165
G1 X84.152 Y166.872 E18.75906
G1 X81.369 Y165.520 E19.12649
G1 X78.656 Y164.031 E19.49397
G1 X76.021 Y162.411 E19.86134
G1 X73.468 Y160.662 E20.22897
G1 X71.005 Y158.788 E20.59643
G1 X68.639 Y156.797 E20.96377
G1 X66.375 Y154.688 E21.33112
G1 X64.217 Y152.470 E21.69874
G1 X62.172 Y150.148 E22.06612
G1 X60.245 Y147.727 E22.43372
G1 X58.440 Y145.213 E22.80121
G1 X56.761 Y142.614 E23.16874
G1 X55.215 Y139.935 E23.53610
G1 X53.803 Y137.182 E23.90353
G1 X52.529 Y134.362 E24.27103
G1 X51.396 Y131.484 E24.63842
G1 X50.408 Y128.552 E25.00586
G1 X49.565 Y125.574 E25.37340
G1 X48.872 Y122.560 E25.74079
G1 X48.330 Y119.513 E26.10833
G1 X47.938 Y116.442 E26.47594
G1 X47.699 Y113.359 E26.84326
G1 X47.614 Y110.266 E27.21069
G1 X47.683 Y107.172 E27.57824
G1 X47.904 Y104.086 E27.94568
G1 X48.279 Y101.015 E28.31314
G1 X48.803 Y97.966 E28.68052
G1 X49.480 Y94.946 E29.04819
G1 X50.305 Y91.965 E29.41552
G1 X51.277 Y89.027 E29.78298
G1 X52.394 Y86.142 E30.15044
G1 X53.398 Y83.887 E30.44363
G1 X53.723 Y83.833 E30.48270
G1 X54.291 Y83.700 E30.55200
G1 E28.55200 F2400.00000
G92 E0
G1 X55.797 Y82.328 F7800.000
G1 E2.00000 F2400.00000
G1 F1800.000
G1 X54.488 Y85.043 E2.35802
G1 X53.310 Y87.843 E2.71876
G1 X52.271 Y90.695 E3.07922
G1 X51.376 Y93.598 E3.44001
G1 X50.626 Y96.540 E3.80063
G1 X50.025 Y99.517 E4.16128
G1 X49.572 Y102.519 E4.52193
G1 X49.270 Y105.541 E4.88260
G1 X49.118 Y108.574 E5.24326
G1 X49.118 Y111.611 E5.60395
G1 X49.270 Y114.642 E5.96437
G1 X49.572 Y117.664 E6.32505
G1 X50.025 Y120.666 E6.68570
G1 X50.626 Y123.643 E7.04635
G1 X51.376 Y126.585 E7.40697
G1 X52.271 Y129.487 E7.76764
G1 X53.310 Y132.341 E8.12832
G1 X54.488 Y135.140 E8.48896
G1 X55.807 Y137.876 E8.84967
G1 X57.258 Y140.542 E9.21024
G1 X58.842 Y143.133 E9.57088
G1 X60.553 Y145.642 E9.93151
G1 X62.385 Y148.062 E10.29207
G1 X64.337 Y150.389 E10.65274
G1 X66.404 Y152.614 E11.01345
G1 X68.578 Y154.734 E11.37410
G1 X70.854 Y156.742 E11.73457
G1 X73.227 Y158.637 E12.09525
G1 X75.694 Y160.410 E12.45596
G1 X78.243 Y162.057 E12.81653
G1 X80.875 Y163.574 E13.17726
G1 X83.576 Y164.959 E13.53782
G1 X86.345 Y166.210 E13.89856
G1 X89.171 Y167.319 E14.25918
G1 X92.048 Y168.286 E14.61966
G1 X94.972 Y169.109 E14.98044
G1 X97.934 Y169.784 E15.34117
G1 X100.922 Y170.313 E15.70163
G1 X103.936 Y170.689 E16.06236
G1 X106.945 Y170.914 E16.42067
G1 X106.018 Y171.580 E16.55616
G1 X105.555 Y171.986 E16.62931
G1 X105.138 Y172.430 E16.70166
G1 X104.733 Y172.966 E16.78142
G1 X101.846 Y172.662 E17.12622
G1 X98.753 Y172.181 E17.49790
G1 X95.689 Y171.547 E17.86957
G1 X92.659 Y170.762 E18.24128
G1 X89.673 Y169.827 E18.61290
G1 X86.735 Y168.746 E18.98466
G1 X83.856 Y167.522 E19.35629
G1 X81.041 Y166.155 E19.72796
G1 X78.297 Y164.649 E20.09964
G1 X75.632 Y163.010 E20.47121
G1 X73.049 Y161.241 E20.84304
G1 X70.559 Y159.346 E21.21470
G1 X68.165 Y157.331 E21.58625
G1 X65.876 Y155.199 E21.95783
G1 X63.693 Y152.955 E22.32964
G1 X61.625 Y150.607 E22.70124
G1 X59.675 Y148.158 E23.07305
G1 X57.850 Y145.616 E23.44473
G1 X56.151 Y142.986 E23.81647
G1 X54.587 Y140.277 E24.18805
G1 X53.159 Y137.492 E24.55969
G1 X51.871 Y134.640 E24.93139
G1 X50.725 Y131.729 E25.30298
G1 X49.725 Y128.764 E25.67462
G1 X48.873 Y125.752 E26.04638
G1 X48.172 Y122.702 E26.41800
G1 X47.624 Y119.621 E26.78973
G1 X47.227 Y116.515 E27.16154
G1 X46.986 Y113.396 E27.53309
G1 X46.900 Y110.268 E27.90474
G1 X46.970 Y107.139 E28.27647
G1 X47.193 Y104.018 E28.64812
G1 X47.572 Y100.911 E29.01977
G1 X48.103 Y97.828 E29.39136
G1 X48.787 Y94.772 E29.76325
G1 X49.622 Y91.757 E30.13479
G1 X50.605 Y88.786 E30.50646
G1 X51.734 Y85.868 E30.87814
G1 X52.916 Y83.215 E31.22300
G1 X53.271 Y83.184 E31.26534
G1 X53.583 Y83.132 E31.30295
G1 X54.164 Y82.997 E31.37379
G1 X54.758 Y82.796 E31.44823
G1 X55.742 Y82.353 E31.57648
G1 X55.541 Y82.635 F7800.000
G1 X55.938 Y81.760 F7800.000
G1 F1800.000
G1 X56.274 Y81.562 E31.58170
G1 F1800.000
G1 X56.488 Y81.425 E31.58837
G1 F1800.000
G1 X56.596 Y81.354 E31.59326
G1 X56.746 Y81.160 E31.60251
G1 F1800.000
G1 X56.944 Y80.885 E31.61172
G1 F1800.000
G1 X57.062 Y80.715 E31.61463
G1 E29.61463 F2400.00000
G92 E0
G1 X58.091 Y78.932 F7800.000
G1 E2.00000 F2400.00000
G1 F1800.000
G1 X58.177 Y78.751 E2.00278
G1 F1800.000
G1 X58.323 Y78.428 E2.01240
G1 F1800.000
G1 X58.425 Y78.178 E2.02365
G1 F1800.000
G1 X58.509 Y77.961 E2.03651
G1 F1800.000
G1 X58.997 Y76.644 E2.13517
G1 X58.949 Y76.632 F7800.000
G1 F1800.000
G1 X58.268 Y78.757 E2.35866
G1 E0.35866 F2400.00000
G92 E0
G1 X59.317 Y75.086 F7800.000
G1 E2.00000 F2400.00000
G1 F1800.000
G1 X59.005 Y74.176 E2.11432
G1 X60.457 Y72.178 E2.40757
G1 X62.398 Y69.769 E2.77498
G1 X64.455 Y67.458 E3.14250
G1 X66.624 Y65.253 E3.50982
G1 X68.900 Y63.156 E3.87737
G1 X71.278 Y61.177 E4.24475
G1 X73.751 Y59.318 E4.61227
G1 X76.313 Y57.583 E4.97970
G1 X78.958 Y55.978 E5.34714
G1 X81.680 Y54.504 E5.71481
G1 X84.470 Y53.168 E6.08219
G1 X87.324 Y51.973 E6.44964
G1 X90.233 Y50.920 E6.81709
G1 X93.191 Y50.013 E7.18454
G1 X96.191 Y49.254 E7.55202
G1 X99.224 Y48.644 E7.91945
G1 X102.284 Y48.184 E8.28697
G1 X105.363 Y47.878 E8.65442
G1 X108.452 Y47.725 E9.02173
G1 X111.546 Y47.725 E9.38928
G1 X114.637 Y47.878 E9.75683
G1 X117.716 Y48.184 E10.12427
G1 X120.774 Y48.644 E10.49156
G1 X123.809 Y49.254 E10.85923
G1 X126.809 Y50.013 E11.22671
G1 X129.767 Y50.920 E11.59416
G1 X132.676 Y51.973 E11.96161
G1 X135.530 Y53.168 E12.32906
G1 X138.320 Y54.504 E12.69642
G1 X141.041 Y55.978 E13.06398
G1 X143.685 Y57.583 E13.43135
G1 X146.249 Y59.318 E13.79896
G1 X148.720 Y61.177 E14.16628
G1 X151.099 Y63.156 E14.53378
G1 X153.375 Y65.253 E14.90133
G1 X155.545 Y67.458 E15.26874
G1 X157.602 Y69.769 E15.63625
G1 X159.543 Y72.178 E16.00361
G1 X160.994 Y74.177 E16.29694
G1 X160.675 Y75.076 E16.41027
G1 X160.027 Y74.125 E16.54699
G1 X158.171 Y71.675 E16.91197
G1 X156.197 Y69.323 E17.27673
G1 X154.108 Y67.070 E17.64158
G1 X151.908 Y64.924 E18.00657
G1 X149.605 Y62.892 E18.37130
G1 X147.203 Y60.977 E18.73623
G1 X144.708 Y59.183 E19.10116
G1 X142.127 Y57.516 E19.46604
G1 X139.467 Y55.980 E19.83085
G1 X136.734 Y54.579 E20.19566
G1 X133.933 Y53.315 E20.56056
G1 X131.073 Y52.192 E20.92548
G1 X128.160 Y51.214 E21.29039
G1 X125.203 Y50.382 E21.65526
G1 X122.208 Y49.699 E22.02014
G1 X119.183 Y49.166 E22.38487
G1 X116.135 Y48.783 E22.74973
G1 X113.071 Y48.554 E23.11469
G1 X110.000 Y48.476 E23.47949
G1 X106.927 Y48.554 E23.84453
G1 X103.865 Y48.783 E24.20925
G1 X100.816 Y49.166 E24.57422
G1 X97.792 Y49.699 E24.93884
G1 X94.796 Y50.382 E25.30382
G1 X91.838 Y51.214 E25.66883
G1 X88.927 Y52.192 E26.03352
G1 X86.067 Y53.315 E26.39843
G1 X83.266 Y54.579 E26.76333
G1 X80.533 Y55.980 E27.12812
G1 X77.871 Y57.516 E27.49314
G1 X75.291 Y59.183 E27.85795
G1 X72.796 Y60.977 E28.22288
G1 X70.395 Y62.892 E28.58772
G1 X68.092 Y64.924 E28.95243
G1 X65.892 Y67.070 E29.31739
G1 X63.801 Y69.322 E29.68240
G1 X61.827 Y71.675 E30.04722
G1 X59.973 Y74.125 E30.41203
G1 X59.351 Y75.037 E30.54314
G1 X58.806 Y76.593 F7800.000
G1 F1800.000
G1 X58.779 Y76.217 E30.58791
G1 X58.689 Y75.610 E30.66081
G1 X58.543 Y75.014 E30.73363
G1 X58.334 Y74.419 E30.80858
G1 X58.181 Y74.094 E30.85119
G1 X59.890 Y71.744 E31.19624
G1 X61.852 Y69.308 E31.56783
G1 X63.933 Y66.969 E31.93956
G1 X66.127 Y64.740 E32.31109
G1 X68.430 Y62.619 E32.68284
G1 X70.834 Y60.617 E33.05447
G1 X73.336 Y58.737 E33.42618
G1 X75.927 Y56.982 E33.79781
G1 X78.602 Y55.358 E34.16945
G1 X81.356 Y53.867 E34.54132
G1 X84.178 Y52.516 E34.91293
G1 X87.064 Y51.308 E35.28459
G1 X90.007 Y50.243 E35.65624
G1 X92.999 Y49.325 E36.02790
G1 X96.033 Y48.557 E36.39958
G1 X99.100 Y47.940 E36.77121
G1 X102.195 Y47.475 E37.14295
G1 X105.310 Y47.166 E37.51462
G1 X108.434 Y47.011 E37.88613
G1 X111.564 Y47.011 E38.25788
G1 X114.690 Y47.166 E38.62963
G1 X117.804 Y47.475 E39.00130
G1 X120.898 Y47.940 E39.37280
G1 X123.967 Y48.557 E39.74466
G1 X127.001 Y49.325 E40.11634
G1 X129.993 Y50.243 E40.48801
G1 X132.936 Y51.308 E40.85966
G1 X135.822 Y52.516 E41.23132
G1 X138.644 Y53.867 E41.60292
G1 X141.397 Y55.358 E41.97468
G1 X144.071 Y56.982 E42.34624
G1 X146.664 Y58.737 E42.71805
G1 X149.164 Y60.617 E43.08957
G1 X151.569 Y62.619 E43.46130
G1 X153.872 Y64.740 E43.83305
G1 X156.067 Y66.969 E44.20467
G1 X158.148 Y69.308 E44.57639
G1 X160.110 Y71.744 E44.94797
G1 X161.817 Y74.095 E45.29296
G1 X161.665 Y74.421 E45.33570
G1 X161.462 Y74.994 E45.40794
G1 X161.379 Y75.295 E45.44499
G1 X161.311 Y75.602 E45.48234
G1 X161.222 Y76.203 E45.55453
G1 X161.201 Y76.599 E45.60164
G1 X160.905 Y76.682 E45.63817
G1 X159.447 Y74.541 E45.94578
G1 X157.613 Y72.120 E46.30651
G1 X155.661 Y69.795 E46.66705
G1 X153.596 Y67.569 E47.02768
G1 X151.422 Y65.448 E47.38843
G1 X149.146 Y63.439 E47.74891
G1 X146.772 Y61.546 E48.10961
G1 X144.305 Y59.773 E48.47032
G1 X141.755 Y58.126 E48.83097
G1 X139.125 Y56.608 E49.19155
G1 X136.424 Y55.222 E49.55213
G1 X133.655 Y53.973 E49.91281
G1 X130.829 Y52.863 E50.27349
G1 X127.950 Y51.897 E50.63416
G1 X125.027 Y51.074 E50.99481
G1 X122.066 Y50.399 E51.35545
G1 X119.077 Y49.872 E51.71597
G1 X116.064 Y49.494 E52.07659
G1 X113.035 Y49.267 E52.43733
G1 X110.000 Y49.191 E52.79789
G1 X106.963 Y49.267 E53.15869
G1 X103.936 Y49.494 E53.51918
G1 X100.922 Y49.872 E53.87993
G1 X97.934 Y50.399 E54.24033
G1 X94.972 Y51.074 E54.60108
G1 X92.048 Y51.897 E54.96185
G1 X89.171 Y52.863 E55.32230
G1 X86.345 Y53.973 E55.68297
G1 X83.576 Y55.222 E56.04365
G1 X80.875 Y56.608 E56.40423
G1 X78.243 Y58.126 E56.76501
