; generated by Slic3r 1.3.1-dev (Build 18ddd3a36dc69d81fb9b7440498bff9e1dde8b7e) on 2021-07-12 at 09:48:13

; external perimeters extrusion width = 0.44mm (3.38mm^3/s)
; perimeters extrusion width = 0.48mm (7.54mm^3/s)
; infill extrusion width = 0.48mm (10.05mm^3/s)
; solid infill extrusion width = 0.48mm (2.51mm^3/s)
; top infill extrusion width = 0.48mm (1.88mm^3/s)

M107
G92 E0
M190 S85 ; set bed temperature and wait for it to be reached
M104 S225 ; set temperature
G28 ; home all axes
G1 Z5 F5000 ; lift nozzle

; Filament gcode

M109 S225 ; set temperature and wait for it to be reached
G21 ; set units to millimeters
G90 ; use absolute coordinates
M82 ; use absolute distances for extrusion
G92 E0
G1 Z0.400 F7800.000
G1 E-2.00000 F2400.00000
G92 E0
G1 X58.063 Y56.991 F7800.000
G1 E2.00000 F2400.00000
G1 F900.000
G1 X60.770 Y54.468 E2.43949
G1 X63.599 Y52.083 E2.87892
G1 X66.543 Y49.842 E3.31836
G1 X69.596 Y47.751 E3.75789
G1 X72.750 Y45.814 E4.19743
G1 X75.994 Y44.037 E4.63676
G1 X79.325 Y42.424 E5.07634
G1 X82.731 Y40.979 E5.51573
G1 X86.206 Y39.706 E5.95525
G1 X89.739 Y38.607 E6.39470
G1 X93.323 Y37.686 E6.83417
G1 X96.948 Y36.945 E7.27361
G1 X100.606 Y36.385 E7.71314
G1 X104.286 Y36.008 E8.15249
G1 X108.317 Y35.807 E8.63180
G1 X112.017 Y35.815 E9.07120
G1 X115.714 Y36.008 E9.51083
G1 X119.394 Y36.385 E9.95018
G1 X123.052 Y36.945 E10.38970
G1 X126.677 Y37.686 E10.82915
G1 X130.261 Y38.607 E11.26861
G1 X133.794 Y39.706 E11.70806
G1 X137.269 Y40.979 E12.14758
G1 X140.675 Y42.424 E12.58697
G1 X144.006 Y44.037 E13.02656
G1 X147.250 Y45.814 E13.46589
G1 X150.404 Y47.751 E13.90542
G1 X153.457 Y49.842 E14.34495
G1 X156.401 Y52.083 E14.78440
G1 X159.230 Y54.468 E15.22382
G1 X161.937 Y56.991 E15.66332
G1 X164.515 Y59.646 E16.10278
G1 X166.957 Y62.426 E16.54224
G1 X169.258 Y65.324 E16.98176
G1 X171.411 Y68.333 E17.42118
G1 X173.411 Y71.446 E17.86062
G1 X175.255 Y74.655 E18.30012
G1 X176.936 Y77.952 E18.73966
G1 X178.449 Y81.327 E19.17898
G1 X179.794 Y84.776 E19.61864
G1 X180.964 Y88.286 E20.05802
G1 X181.958 Y91.850 E20.49746
G1 X182.774 Y95.459 E20.93693
G1 X183.358 Y98.774 E21.33665
G1 X183.827 Y102.444 E21.77613
G1 X184.111 Y106.134 E22.21561
G1 X184.212 Y109.832 E22.65506
G1 X184.128 Y113.532 E23.09457
G1 X183.860 Y117.223 E23.53402
G1 X183.408 Y120.895 E23.97349
G1 X182.774 Y124.541 E24.41297
G1 X181.958 Y128.150 E24.85244
G1 X180.964 Y131.714 E25.29188
G1 X179.794 Y135.224 E25.73126
G1 X178.449 Y138.673 E26.17093
G1 X176.936 Y142.048 E26.61025
G1 X175.255 Y145.345 E27.04978
G1 X173.411 Y148.554 E27.48929
G1 X171.411 Y151.667 E27.92872
G1 X169.258 Y154.676 E28.36814
G1 X166.957 Y157.574 E28.80766
G1 X164.515 Y160.354 E29.24712
G1 X161.937 Y163.009 E29.68659
G1 X159.230 Y165.532 E30.12608
G1 X156.401 Y167.917 E30.56550
G1 X153.457 Y170.158 E31.00495
G1 X150.404 Y172.249 E31.44448
G1 X147.250 Y174.186 E31.88402
G1 X144.006 Y175.963 E32.32334
G1 X140.675 Y177.576 E32.76293
G1 X137.269 Y179.021 E33.20232
G1 X133.794 Y180.294 E33.64184
G1 X130.261 Y181.393 E34.08129
G1 X126.677 Y182.314 E34.52076
G1 X123.052 Y183.055 E34.96020
G1 X119.394 Y183.615 E35.39972
G1 X115.714 Y183.992 E35.83907
G1 X111.683 Y184.193 E36.31838
G1 X107.983 Y184.185 E36.75779
G1 X104.286 Y183.992 E37.19742
G1 X100.606 Y183.615 E37.63677
G1 X96.948 Y183.055 E38.07629
G1 X93.323 Y182.314 E38.51573
G1 X89.739 Y181.393 E38.95520
G1 X86.206 Y180.294 E39.39465
G1 X82.731 Y179.021 E39.83417
G1 X79.325 Y177.576 E40.27356
G1 X75.994 Y175.963 E40.71314
G1 X72.750 Y174.186 E41.15247
G1 X69.596 Y172.249 E41.59201
G1 X66.543 Y170.158 E42.03154
G1 X63.599 Y167.917 E42.47098
G1 X60.770 Y165.532 E42.91041
G1 X58.063 Y163.009 E43.34990
G1 X55.485 Y160.354 E43.78937
G1 X53.043 Y157.574 E44.22883
G1 X50.742 Y154.676 E44.66835
G1 X48.589 Y151.667 E45.10777
G1 X46.589 Y148.554 E45.54720
G1 X44.745 Y145.345 E45.98671
G1 X43.064 Y142.048 E46.42624
G1 X41.551 Y138.673 E46.86556
G1 X40.206 Y135.224 E47.30523
G1 X39.036 Y131.714 E47.74460
G1 X38.042 Y128.150 E48.18405
G1 X37.226 Y124.541 E48.62352
G1 X36.592 Y120.895 E49.06300
G1 X36.173 Y117.556 E49.46272
G1 X35.889 Y113.866 E49.90220
G1 X35.788 Y110.168 E50.34164
G1 X35.872 Y106.468 E50.78115
G1 X36.140 Y102.777 E51.22060
G1 X36.592 Y99.105 E51.66007
G1 X37.226 Y95.459 E52.09956
G1 X38.042 Y91.850 E52.53903
G1 X39.036 Y88.286 E52.97847
G1 X40.206 Y84.776 E53.41785
G1 X41.551 Y81.327 E53.85751
G1 X43.064 Y77.952 E54.29683
G1 X44.745 Y74.655 E54.73637
G1 X46.589 Y71.446 E55.17587
G1 X48.589 Y68.333 E55.61531
G1 X50.742 Y65.324 E56.05473
G1 X53.043 Y62.426 E56.49425
G1 X55.485 Y59.646 E56.93371
G1 X58.021 Y57.034 E57.36605
G1 E55.36605 F2400.00000
G92 E0
G1 X69.380 Y65.882 F7800.000
G1 E2.00000 F2400.00000
G1 F900.000
G1 X70.383 Y64.952 E2.16240
G1 X72.612 Y63.082 E2.50790
G1 X75.042 Y61.246 E2.86969
G1 X77.444 Y59.608 E3.21491
G1 X80.044 Y58.021 E3.57671
G1 X82.597 Y56.631 E3.92193
G1 X85.341 Y55.309 E4.28372
G1 X88.020 Y54.180 E4.62892
G1 X90.882 Y53.134 E4.99079
G1 X93.794 Y52.237 E5.35276
G1 X96.611 Y51.520 E5.69799
G1 X99.597 Y50.916 E6.05977
G1 X102.471 Y50.482 E6.40502
G1 X105.503 Y50.176 E6.76686
G1 X108.547 Y50.025 E7.12881
G1 X111.453 Y50.025 E7.47404
G1 X114.497 Y50.176 E7.83598
G1 X117.529 Y50.482 E8.19783
G1 X120.403 Y50.916 E8.54308
G1 X123.389 Y51.520 E8.90486
G1 X126.206 Y52.237 E9.25009
G1 X129.118 Y53.134 E9.61206
G1 X131.980 Y54.180 E9.97393
G1 X134.659 Y55.309 E10.31913
G1 X137.403 Y56.631 E10.68092
G1 X139.956 Y58.021 E11.02614
G1 X142.557 Y59.609 E11.38809
G1 X145.073 Y61.328 E11.74996
G1 X147.390 Y63.083 E12.09518
G1 X149.723 Y65.042 E12.45698
G1 X151.854 Y67.019 E12.80220
G1 X153.983 Y69.199 E13.16414
G1 X155.997 Y71.486 E13.52601
G1 X157.809 Y73.759 E13.87124
G1 X159.587 Y76.232 E14.23303
G1 X161.164 Y78.674 E14.57827
G1 X162.689 Y81.312 E14.94018
G1 X164.077 Y84.025 E15.30204
G1 X165.273 Y86.674 E15.64728
G1 X166.386 Y89.510 E16.00910
G1 X167.311 Y92.266 E16.35432
G1 X168.139 Y95.198 E16.71623
G1 X168.814 Y98.170 E17.07812
G1 X169.319 Y101.032 E17.42335
G1 X169.698 Y104.055 E17.78516
G1 X169.915 Y106.954 E18.13038
G1 X169.993 Y110.000 E18.49228
G1 X169.915 Y113.046 E18.85417
G1 X169.698 Y115.945 E19.19939
G1 X169.319 Y118.968 E19.56121
G1 X168.814 Y121.830 E19.90644
G1 X168.139 Y124.802 E20.26833
G1 X167.311 Y127.734 E20.63023
G1 X166.386 Y130.490 E20.97546
G1 X165.273 Y133.326 E21.33727
G1 X164.077 Y135.975 E21.68251
G1 X162.689 Y138.688 E22.04438
G1 X161.164 Y141.326 E22.40628
G1 X159.587 Y143.768 E22.75152
G1 X157.809 Y146.241 E23.11332
G1 X155.997 Y148.514 E23.45854
G1 X153.984 Y150.800 E23.82033
G1 X151.952 Y152.883 E24.16588
G1 X149.617 Y155.048 E24.54408
G1 X147.388 Y156.918 E24.88958
G1 X144.958 Y158.754 E25.25136
G1 X142.556 Y160.391 E25.59659
G1 X139.956 Y161.979 E25.95838
G1 X137.403 Y163.369 E26.30360
G1 X134.659 Y164.691 E26.66540
G1 X131.980 Y165.820 E27.01060
G1 X129.118 Y166.866 E27.37246
G1 X126.206 Y167.763 E27.73444
G1 X123.389 Y168.480 E28.07967
G1 X120.403 Y169.084 E28.44145
G1 X117.529 Y169.518 E28.78670
G1 X114.497 Y169.824 E29.14854
G1 X111.453 Y169.975 E29.51048
G1 X108.547 Y169.975 E29.85572
G1 X105.503 Y169.824 E30.21766
G1 X102.471 Y169.518 E30.57951
G1 X99.597 Y169.084 E30.92475
G1 X96.611 Y168.480 E31.28653
G1 X93.794 Y167.763 E31.63177
G1 X90.882 Y166.866 E31.99374
G1 X88.020 Y165.820 E32.35560
G1 X85.341 Y164.691 E32.70081
G1 X82.597 Y163.369 E33.06260
G1 X80.044 Y161.979 E33.40782
G1 X77.443 Y160.391 E33.76977
G1 X74.927 Y158.672 E34.13163
G1 X72.610 Y156.917 E34.47686
G1 X70.277 Y154.958 E34.83865
G1 X68.146 Y152.981 E35.18388
G1 X66.017 Y150.801 E35.54581
G1 X64.003 Y148.514 E35.90769
G1 X62.191 Y146.241 E36.25292
G1 X60.413 Y143.768 E36.61471
G1 X58.836 Y141.326 E36.95995
G1 X57.311 Y138.688 E37.32185
G1 X55.923 Y135.975 E37.68372
G1 X54.727 Y133.326 E38.02896
G1 X53.614 Y130.490 E38.39077
G1 X52.689 Y127.734 E38.73600
G1 X51.861 Y124.802 E39.09790
G1 X51.186 Y121.830 E39.45979
G1 X50.681 Y118.968 E39.80502
G1 X50.302 Y115.945 E40.16684
G1 X50.085 Y113.046 E40.51206
G1 X50.007 Y110.000 E40.87395
G1 X50.085 Y106.954 E41.23585
G1 X50.302 Y104.055 E41.58107
G1 X50.681 Y101.032 E41.94288
G1 X51.186 Y98.170 E42.28811
G1 X51.861 Y95.198 E42.65000
G1 X52.689 Y92.266 E43.01191
G1 X53.614 Y89.510 E43.35714
G1 X54.727 Y86.674 E43.71895
G1 X55.923 Y84.025 E44.06419
G1 X57.311 Y81.312 E44.42605
G1 X58.836 Y78.674 E44.78796
G1 X60.413 Y76.232 E45.13320
G1 X62.191 Y73.759 E45.49499
G1 X64.003 Y71.486 E45.84022
G1 X66.016 Y69.200 E46.20201
G1 X68.048 Y67.117 E46.54756
G1 X69.336 Y65.922 E46.75623
G1 X69.866 Y66.405 F7800.000
G1 F900.000
G1 X70.856 Y65.488 E46.91653
G1 X73.057 Y63.641 E47.25776
G1 X75.459 Y61.826 E47.61531
G1 X77.831 Y60.209 E47.95634
G1 X80.401 Y58.640 E48.31390
G1 X82.923 Y57.267 E48.65493
G1 X85.635 Y55.960 E49.01249
G1 X88.281 Y54.845 E49.35350
G1 X91.109 Y53.811 E49.71112
G1 X93.988 Y52.925 E50.06881
G1 X96.770 Y52.217 E50.40984
G1 X99.721 Y51.619 E50.76740
G1 X102.561 Y51.191 E51.10844
G1 X105.556 Y50.888 E51.46604
G1 X108.564 Y50.739 E51.82371
G1 X111.436 Y50.739 E52.16474
G1 X114.444 Y50.888 E52.52241
G1 X117.439 Y51.191 E52.88001
G1 X120.279 Y51.619 E53.22106
G1 X123.230 Y52.217 E53.57861
G1 X126.012 Y52.925 E53.91965
G1 X128.891 Y53.811 E54.27733
G1 X131.719 Y54.845 E54.63495
G1 X134.365 Y55.960 E54.97596
G1 X137.077 Y57.267 E55.33352
G1 X139.599 Y58.640 E55.67455
G1 X142.169 Y60.209 E56.03222
G1 X144.655 Y61.908 E56.38983
G1 X146.944 Y63.642 E56.73087
G1 X149.250 Y65.578 E57.08843
G1 X151.355 Y67.531 E57.42946
G1 X153.459 Y69.685 E57.78712
G1 X155.449 Y71.945 E58.14474
G1 X157.240 Y74.190 E58.48577
G1 X158.997 Y76.635 E58.84334
G1 X160.555 Y79.047 E59.18437
G1 X162.062 Y81.654 E59.54201
G1 X163.433 Y84.334 E59.89962
G1 X164.615 Y86.952 E60.24067
G1 X165.714 Y89.755 E60.59825
G1 X166.629 Y92.477 E60.93928
G1 X167.446 Y95.375 E61.29692
G1 X168.114 Y98.311 E61.65455
G1 X168.613 Y101.139 E61.99558
G1 X168.987 Y104.126 E62.35316
G1 X169.201 Y106.990 E62.69419
G1 X169.279 Y110.000 E63.05182
G1 X169.201 Y113.010 E63.40946
G1 X168.987 Y115.874 E63.75048
G1 X168.613 Y118.861 E64.10806
G1 X168.114 Y121.689 E64.44909
G1 X167.446 Y124.625 E64.80672
G1 X166.629 Y127.523 E65.16437
G1 X165.714 Y130.245 E65.50539
G1 X164.615 Y133.048 E65.86297
G1 X163.433 Y135.666 E66.20402
G1 X162.062 Y138.346 E66.56163
G1 X160.555 Y140.953 E66.91927
G1 X158.997 Y143.365 E67.26031
G1 X157.240 Y145.810 E67.61787
G1 X155.449 Y148.055 E67.95890
G1 X153.460 Y150.314 E68.31646
G1 X151.453 Y152.371 E68.65772
G1 X149.144 Y154.512 E69.03169
G1 X146.943 Y156.359 E69.37292
G1 X144.541 Y158.174 E69.73047
G1 X142.168 Y159.791 E70.07150
G1 X139.599 Y161.360 E70.42906
G1 X137.077 Y162.733 E70.77009
G1 X134.365 Y164.040 E71.12765
G1 X131.719 Y165.155 E71.46866
G1 X128.891 Y166.189 E71.82628
G1 X126.012 Y167.075 E72.18397
G1 X123.230 Y167.783 E72.52500
G1 X120.279 Y168.381 E72.88256
G1 X117.439 Y168.809 E73.22360
G1 X114.444 Y169.112 E73.58120
G1 X111.436 Y169.261 E73.93887
G1 X108.564 Y169.261 E74.27991
G1 X105.556 Y169.112 E74.63757
G1 X102.561 Y168.809 E74.99517
G1 X99.721 Y168.381 E75.33622
G1 X96.770 Y167.783 E75.69377
G1 X93.988 Y167.075 E76.03481
G1 X91.109 Y166.189 E76.39249
G1 X88.281 Y165.155 E76.75011
G1 X85.635 Y164.040 E77.09112
G1 X82.923 Y162.733 E77.44868
G1 X80.401 Y161.360 E77.78971
G1 X77.831 Y159.791 E78.14738
G1 X75.345 Y158.092 E78.50500
G1 X73.056 Y156.358 E78.84603
G1 X70.750 Y154.422 E79.20359
G1 X68.645 Y152.469 E79.54462
G1 X66.541 Y150.315 E79.90228
G1 X64.550 Y148.055 E80.25990
G1 X62.760 Y145.810 E80.60093
G1 X61.003 Y143.365 E80.95850
G1 X59.445 Y140.953 E81.29953
G1 X57.938 Y138.346 E81.65717
G1 X56.567 Y135.666 E82.01479
G1 X55.385 Y133.048 E82.35583
G1 X54.286 Y130.245 E82.71341
G1 X53.371 Y127.523 E83.05444
G1 X52.554 Y124.625 E83.41208
G1 X51.886 Y121.689 E83.76971
G1 X51.387 Y118.861 E84.11074
G1 X51.013 Y115.874 E84.46832
G1 X50.799 Y113.010 E84.80935
G1 X50.721 Y110.000 E85.16698
G1 X50.799 Y106.990 E85.52462
G1 X51.013 Y104.126 E85.86564
G1 X51.387 Y101.139 E86.22322
G1 X51.886 Y98.311 E86.56425
G1 X52.554 Y95.375 E86.92188
G1 X53.371 Y92.477 E87.27953
G1 X54.286 Y89.755 E87.62056
G1 X55.385 Y86.952 E87.97813
G1 X56.567 Y84.334 E88.31918
G1 X57.938 Y81.654 E88.67679
G1 X59.445 Y79.047 E89.03443
G1 X61.003 Y76.635 E89.37547
G1 X62.760 Y74.190 E89.73303
G1 X64.550 Y71.945 E90.07406
G1 X66.540 Y69.686 E90.43162
G1 X68.547 Y67.629 E90.77288
G1 X69.822 Y66.446 E90.97942
G1 X70.352 Y66.929 F7800.000
G1 F900.000
G1 X71.328 Y66.023 E91.13762
G1 X73.502 Y64.200 E91.47458
G1 X75.876 Y62.407 E91.82791
G1 X78.219 Y60.809 E92.16474
G1 X80.758 Y59.259 E92.51807
G1 X83.249 Y57.903 E92.85490
G1 X85.929 Y56.611 E93.20823
G1 X88.542 Y55.510 E93.54505
G1 X91.337 Y54.489 E93.89842
G1 X94.181 Y53.613 E94.25182
G1 X96.930 Y52.913 E94.58866
G1 X99.845 Y52.323 E94.94199
G1 X102.650 Y51.900 E95.27883
G1 X105.610 Y51.601 E95.63218
G1 X108.582 Y51.453 E95.98558
G1 X111.418 Y51.453 E96.32242
G1 X114.390 Y51.601 E96.67581
G1 X117.350 Y51.900 E97.02916
G1 X120.155 Y52.323 E97.36600
G1 X123.070 Y52.913 E97.71933
G1 X125.819 Y53.613 E98.05617
G1 X128.663 Y54.489 E98.40957
G1 X131.457 Y55.510 E98.76294
G1 X134.071 Y56.611 E99.09976
G1 X136.751 Y57.903 E99.45309
G1 X139.242 Y59.259 E99.78992
G1 X141.782 Y60.809 E100.14332
G1 X144.238 Y62.488 E100.49668
G1 X146.499 Y64.200 E100.83352
G1 X148.778 Y66.113 E101.18685
G1 X150.857 Y68.042 E101.52368
G1 X152.935 Y70.171 E101.87707
G1 X154.902 Y72.404 E102.23044
G1 X156.670 Y74.621 E102.56727
G1 X158.407 Y77.037 E102.92060
G1 X159.945 Y79.419 E103.25744
G1 X161.435 Y81.995 E103.61081
G1 X162.790 Y84.644 E103.96418
G1 X163.956 Y87.229 E104.30102
G1 X165.043 Y89.999 E104.65437
G1 X165.946 Y92.687 E104.99120
G1 X166.754 Y95.551 E105.34458
G1 X167.414 Y98.452 E105.69795
G1 X167.906 Y101.245 E106.03479
G1 X168.276 Y104.197 E106.38813
G1 X168.488 Y107.026 E106.72496
G1 X168.565 Y110.000 E107.07833
G1 X168.488 Y112.974 E107.43171
G1 X168.276 Y115.803 E107.76854
G1 X167.906 Y118.755 E108.12188
G1 X167.414 Y121.548 E108.45872
G1 X166.754 Y124.449 E108.81209
G1 X165.946 Y127.313 E109.16547
G1 X165.043 Y130.001 E109.50230
G1 X163.956 Y132.771 E109.85564
G1 X162.790 Y135.356 E110.19249
G1 X161.435 Y138.005 E110.54585
G1 X159.945 Y140.581 E110.89922
G1 X158.407 Y142.963 E111.23606
G1 X156.670 Y145.379 E111.58939
G1 X154.902 Y147.596 E111.92623
G1 X152.936 Y149.829 E112.27955
G1 X150.955 Y151.860 E112.61653
G1 X148.672 Y153.977 E112.98627
G1 X146.498 Y155.800 E113.32323
G1 X144.124 Y157.593 E113.67655
G1 X141.781 Y159.191 E114.01339
G1 X139.242 Y160.741 E114.36671
G1 X136.751 Y162.097 E114.70354
G1 X134.071 Y163.389 E115.05687
G1 X131.457 Y164.490 E115.39369
G1 X128.663 Y165.511 E115.74706
G1 X125.819 Y166.387 E116.10047
G1 X123.070 Y167.087 E116.43731
G1 X120.155 Y167.677 E116.79063
G1 X117.350 Y168.100 E117.12748
G1 X114.390 Y168.399 E117.48082
G1 X111.418 Y168.547 E117.83422
G1 X108.582 Y168.547 E118.17106
G1 X105.610 Y168.399 E118.52445
G1 X102.650 Y168.100 E118.87780
G1 X99.845 Y167.677 E119.21465
G1 X96.930 Y167.087 E119.56797
G1 X94.181 Y166.387 E119.90481
G1 X91.337 Y165.511 E120.25822
G1 X88.542 Y164.490 E120.61159
G1 X85.929 Y163.389 E120.94841
G1 X83.249 Y162.097 E121.30174
G1 X80.758 Y160.741 E121.63857
G1 X78.218 Y159.191 E121.99196
G1 X75.762 Y157.512 E122.34533
G1 X73.501 Y155.800 E122.68216
G1 X71.222 Y153.887 E123.03549
G1 X69.143 Y151.958 E123.37232
G1 X67.065 Y149.829 E123.72572
G1 X65.098 Y147.596 E124.07908
G1 X63.330 Y145.379 E124.41592
G1 X61.593 Y142.963 E124.76925
G1 X60.055 Y140.581 E125.10609
