; generated by Slic3r 1.3.1-dev (Build 18ddd3a36dc69d81fb9b7440498bff9e1dde8b7e) on 2021-07-13 at 17:03:01

; external perimeters extrusion width = 0.44mm (3.38mm^3/s)
; perimeters extrusion width = 0.48mm (7.54mm^3/s)
; infill extrusion width = 0.48mm (10.05mm^3/s)
; solid infill extrusion width = 0.48mm (2.51mm^3/s)
; top infill extrusion width = 0.48mm (1.88mm^3/s)

M107
G92 E0
M190 S85 ; set bed temperature and wait for it to be reached
M104 S225 ; set temperature
G28 ; home all axes
G1 Z5 F5000 ; lift nozzle

; Filament gcode

M109 S225 ; set temperature and wait for it to be reached
G21 ; set units to millimeters
G90 ; use absolute coordinates
M82 ; use absolute distances for extrusion
G92 E0
G1 Z0.400 F7800.000
G1 E-2.00000 F2400.00000
G92 E0
G1 X61.979 Y64.542 F7800.000
G1 E2.00000 F2400.00000
G1 F1800.000
G1 X63.997 Y62.995 E2.30200
G1 X71.997 Y58.995 E3.36427
G1 X75.000 Y58.286 E3.73068
G1 X145.000 Y58.286 E12.04425
G1 X148.003 Y58.995 E12.41066
G1 X156.003 Y62.995 E13.47293
G1 X157.860 Y64.367 E13.74715
G1 X159.234 Y66.506 E14.04915
G1 X167.234 Y86.506 E16.60743
G1 X167.714 Y89.000 E16.90903
G1 X167.714 Y130.000 E21.77840
G1 X167.274 Y132.390 E22.06704
G1 X159.274 Y153.390 E24.73595
G1 X158.094 Y155.374 E25.01018
G1 X156.003 Y157.005 E25.32511
G1 X148.003 Y161.005 E26.38738
G1 X145.000 Y161.714 E26.75379
G1 X75.000 Y161.714 E35.06735
G1 X71.997 Y161.005 E35.43377
G1 X63.997 Y157.005 E36.49604
G1 X62.140 Y155.633 E36.77026
G1 X60.726 Y153.390 E37.08519
G1 X52.726 Y132.390 E39.75411
G1 X52.286 Y130.000 E40.04275
G1 X52.286 Y89.000 E44.91212
G1 X52.766 Y86.506 E45.21371
G1 X60.766 Y66.506 E47.77199
G1 X61.948 Y64.593 E48.03909
G1 E46.03909 F2400.00000
G92 E0
G1 X131.600 Y150.600 F7800.000
G1 E2.00000 F2400.00000
G1 F1800.000
G1 X143.400 Y150.600 E3.40143
G1 X143.400 Y153.400 E3.73397
G1 X131.600 Y153.400 E5.13540
G1 X131.600 Y150.660 E5.46082
G1 X131.427 Y150.239 F7800.000
G1 E3.46082 F2400.00000
G92 E0
G1 X88.400 Y150.600 F7800.000
G1 E2.00000 F2400.00000
G1 F1800.000
G1 X88.400 Y153.400 E2.33254
G1 X76.600 Y153.400 E3.73397
G1 X76.600 Y150.600 E4.06651
G1 X88.340 Y150.600 E5.46082
G1 X88.799 Y150.569 F7800.000
G1 E3.46082 F2400.00000
G92 E0
G1 X62.403 Y134.621 F7800.000
G1 E2.00000 F2400.00000
G1 F1800.000
G1 X62.007 Y134.764 E2.05002
G1 X60.114 Y129.795 E2.68160
G1 X60.114 Y89.215 E7.50114
G1 X63.815 Y79.963 E8.68458
G1 X64.207 Y80.108 E8.73419
G1 X60.886 Y89.815 E9.95262
G1 X60.886 Y130.185 E14.74724
G1 X62.384 Y134.564 E15.29693
G1 E13.29693 F2400.00000
G92 E0
G1 X68.214 Y149.400 F7800.000
G1 E2.00000 F2400.00000
G1 F1800.000
G1 X61.600 Y130.067 E4.42679
G1 X61.600 Y89.933 E9.19320
G1 X68.214 Y70.600 E11.61999
G1 X151.786 Y70.600 E21.54542
G1 X158.400 Y89.933 E23.97221
G1 X158.400 Y130.067 E28.73862
G1 X151.786 Y149.400 E31.16541
G1 X68.274 Y149.400 E41.08371
G1 X67.831 Y149.514 F7800.000
G1 E39.08371 F2400.00000
G92 E0
G1 X76.600 Y69.400 F7800.000
G1 E2.00000 F2400.00000
G1 F1800.000
G1 X76.600 Y66.600 E2.33254
G1 X88.400 Y66.600 E3.73397
G1 X88.400 Y69.400 E4.06651
G1 X76.660 Y69.400 E5.46082
G1 X76.201 Y69.431 F7800.000
G1 E3.46082 F2400.00000
G92 E0
G1 X131.600 Y69.400 F7800.000
G1 E2.00000 F2400.00000
G1 F1800.000
G1 X131.600 Y66.600 E2.33254
G1 X143.400 Y66.600 E3.73397
G1 X143.400 Y69.400 E4.06651
G1 X131.660 Y69.400 E5.46082
G1 X131.201 Y69.431 F7800.000
G1 E3.46082 F2400.00000
G92 E0
G1 X155.793 Y80.108 F7800.000
G1 E2.00000 F2400.00000
G1 F1800.000
G1 X156.185 Y79.963 E2.04961
G1 X159.886 Y89.215 E3.23305
G1 X159.886 Y129.795 E8.05259
G1 X157.993 Y134.764 E8.68417
G1 X157.597 Y134.621 E8.73419
G1 X159.114 Y130.185 E9.29101
G1 X159.114 Y89.815 E14.08563
G1 X155.813 Y80.165 E15.29693
G1 E13.29693 F2400.00000
G92 E0
G1 X144.600 Y69.400 F7800.000
G1 E2.00000 F2400.00000
G1 F1800.000
G1 X152.729 Y69.400 E2.96546
G1 X160.600 Y89.077 E5.48243
G1 X160.600 Y129.926 E10.33391
G1 X152.724 Y150.600 E12.96135
G1 X144.600 Y150.600 E13.92624
G1 X144.600 Y154.600 E14.40130
G1 X130.400 Y154.600 E16.08776
G1 X130.400 Y150.600 E16.56282
G1 X89.600 Y150.600 E21.40844
G1 X89.600 Y154.600 E21.88350
G1 X75.400 Y154.600 E23.56997
G1 X75.400 Y150.600 E24.04503
G1 X67.276 Y150.600 E25.00992
G1 X59.400 Y129.926 E27.63735
G1 X59.400 Y89.077 E32.48883
G1 X67.271 Y69.400 E35.00580
G1 X75.400 Y69.400 E35.97127
G1 X75.400 Y65.400 E36.44633
G1 X89.600 Y65.400 E38.13279
G1 X89.600 Y69.400 E38.60785
G1 X130.400 Y69.400 E43.45347
G1 X130.400 Y65.400 E43.92853
G1 X144.600 Y65.400 E45.61500
G1 X144.600 Y69.340 E46.08293
G1 X144.768 Y69.763 F7800.000
G1 X144.162 Y69.980 F7800.000
G1 F1800.000
G1 X144.243 Y70.000 E46.08905
G1 X152.041 Y70.000 E46.66029
G1 X152.202 Y70.040 E46.67243
G1 F1800.000
G1 X152.282 Y70.060 E46.67959
G1 X152.323 Y70.147 E46.68786
G1 X152.677 Y71.102 E46.77594
G1 F1800.000
G1 X153.385 Y73.013 E46.98182
G1 F1800.000
G1 X154.094 Y74.924 E47.22097
G1 F1800.000
G1 X154.802 Y76.834 E47.49338
G1 F1800.000
G1 X155.511 Y78.745 E47.79906
G1 F1800.000
G1 X155.865 Y79.701 E47.96853
G1 E45.96853 F2400.00000
G92 E0
G1 X158.655 Y87.225 F7800.000
G1 E2.00000 F2400.00000
G1 F1800.000
G1 X158.912 Y87.918 E2.00577
G1 F1800.000
G1 X159.426 Y89.303 E2.03537
G1 X159.447 Y89.430 E2.03794
G1 F1800.000
G1 X159.489 Y89.682 E2.03994
G1 E0.03994 F2400.00000
G92 E0
G1 X144.162 Y69.980 F7800.000
G1 E2.00000 F2400.00000
G1 F1800.000
G1 X144.000 Y69.939 E2.01448
G1 F1800.000
G1 X143.919 Y69.960 E2.02171
G1 F1800.000
G1 X143.757 Y70.000 E2.03394
G1 X131.243 Y70.000 E2.95064
G1 X135.495 Y69.980 E3.26214
G1 F1800.000
G1 X144.000 Y69.939 E3.99967
G1 X144.000 Y69.879 E4.00494
G1 F1800.000
G1 X144.000 Y66.243 E4.27126
G1 X143.958 Y66.042 E4.28632
G1 X143.757 Y66.000 E4.30137
G1 X131.243 Y66.000 E5.21807
G1 X131.042 Y66.042 E5.23313
G1 X131.000 Y66.243 E5.24818
G1 X131.000 Y69.818 E5.51005
G1 F1800.000
G1 X131.000 Y69.939 E5.52059
G1 F1800.000
G1 X130.919 Y69.960 E5.52782
G1 F1800.000
G1 X130.757 Y70.000 E5.54005
G1 X89.243 Y70.000 E8.58109
G1 X89.162 Y69.980 E8.58720
G1 F1800.000
G1 X89.000 Y69.939 E8.60168
G1 X89.000 Y69.879 E8.60695
G1 F1800.000
G1 X89.000 Y66.243 E8.87327
G1 X88.958 Y66.042 E8.88832
G1 X88.757 Y66.000 E8.90337
G1 X76.243 Y66.000 E9.82008
G1 X76.042 Y66.042 E9.83513
G1 X76.000 Y66.243 E9.85019
G1 X76.000 Y69.818 E10.11206
G1 F1800.000
G1 X76.000 Y69.939 E10.12259
G1 X75.919 Y69.960 F7800.000
G1 F1800.000
G1 X76.000 Y69.939 E10.12983
G1 X76.162 Y69.980 E10.14430
G1 F1800.000
G1 X76.243 Y70.000 E10.15042
G1 X88.757 Y70.000 E11.06712
G1 X88.919 Y69.960 E11.07935
G1 F1800.000
G1 X89.000 Y69.939 E11.08658
G1 E9.08658 F2400.00000
G92 E0
G1 X75.919 Y69.960 F7800.000
G1 E2.00000 F2400.00000
G1 F1800.000
G1 X75.757 Y70.000 E2.01221
G1 X67.959 Y70.000 E2.58274
G1 X67.878 Y70.020 E2.58880
G1 F1800.000
G1 X67.718 Y70.060 E2.60313
G1 X67.677 Y70.147 E2.61139
G1 F1800.000
G1 X66.969 Y72.057 E2.81728
G1 F1800.000
G1 X66.260 Y73.968 E3.05642
G1 F1800.000
G1 X65.552 Y75.879 E3.32883
G1 F1800.000
G1 X64.843 Y77.790 E3.63451
G1 F1800.000
G1 X64.135 Y79.700 E3.97345
G1 E1.97345 F2400.00000
G92 E0
G1 X61.345 Y87.225 F7800.000
G1 E2.00000 F2400.00000
G1 F1800.000
G1 X60.831 Y88.610 E2.01153
G1 F1800.000
G1 X60.574 Y89.303 E2.02633
G1 X60.532 Y89.556 E2.03147
G1 F1800.000
G1 X60.511 Y89.682 E2.03247
G1 E0.03247 F2400.00000
G92 E0
G1 X62.327 Y135.029 F7800.000
G1 E2.00000 F2400.00000
G1 F1800.000
G1 X63.301 Y137.724 E2.48524
G1 F1800.000
G1 X64.275 Y140.419 E2.92520
G1 F1800.000
G1 X65.249 Y143.114 E3.31990
G1 F1800.000
G1 X66.223 Y145.809 E3.66933
G1 F1800.000
G1 X67.197 Y148.504 E3.97348
G1 F1800.000
G1 X67.684 Y149.851 E4.10293
G1 X67.727 Y149.945 E4.11225
G1 X67.804 Y149.963 E4.11942
G1 F1800.000
G1 X67.959 Y150.000 E4.13192
G1 F1800.000
G1 X75.757 Y150.000 E4.65067
G1 X75.838 Y150.020 E4.65622
G1 F1800.000
G1 X76.000 Y150.061 E4.66957
G1 X76.243 Y150.000 E4.68960
G1 F1800.000
G1 X88.757 Y150.000 E5.52205
G1 X88.838 Y150.020 E5.52760
G1 F1800.000
G1 X89.000 Y150.061 E5.54095
G1 X89.000 Y150.121 F7800.000
G1 F1800.000
G1 X89.000 Y150.061 E5.54622
G1 X89.162 Y150.020 E5.56069
G1 F1800.000
G1 X89.243 Y150.000 E5.56681
G1 X130.757 Y150.000 E8.60785
G1 X130.919 Y150.040 E8.62008
G1 F1800.000
G1 X131.000 Y150.061 E8.62732
G1 F1800.000
G1 X131.000 Y150.182 E8.63785
G1 F1800.000
G1 X131.000 Y153.757 E8.89972
G1 X131.042 Y153.958 E8.91478
G1 X131.243 Y154.000 E8.92983
G1 X143.757 Y154.000 E9.84653
G1 X143.958 Y153.958 E9.86159
G1 X144.000 Y153.757 E9.87664
G1 X144.000 Y150.121 E10.14297
G1 F1800.000
G1 X144.000 Y150.061 E10.14823
G1 X135.495 Y150.020 E10.88576
G1 F1800.000
G1 X131.243 Y150.000 E11.19726
G1 X143.757 Y150.000 E12.11397
G1 X143.919 Y150.040 E12.12619
G1 F1800.000
G1 X144.000 Y150.061 E12.13343
G1 F1800.000
G1 X144.162 Y150.020 E12.14791
G1 F1800.000
G1 X144.243 Y150.000 E12.15402
G1 X152.041 Y150.000 E12.72527
G1 X152.196 Y149.963 E12.73690
G1 F1800.000
G1 X152.273 Y149.945 E12.74363
G1 X152.316 Y149.851 E12.75239
G1 X152.803 Y148.504 E12.87402
G1 F1800.000
G1 X153.777 Y145.809 E13.15554
G1 F1800.000
G1 X154.751 Y143.114 E13.48233
G1 F1800.000
G1 X155.725 Y140.419 E13.85439
G1 F1800.000
G1 X156.699 Y137.724 E14.27173
G1 F1800.000
G1 X157.673 Y135.029 E14.73433
G1 E12.73433 F2400.00000
G92 E0
G1 X89.000 Y150.121 F7800.000
G1 E2.00000 F2400.00000
G1 F1800.000
G1 X89.000 Y153.757 E2.26632
G1 X88.958 Y153.958 E2.28138
G1 X88.757 Y154.000 E2.29643
G1 X76.243 Y154.000 E3.21313
G1 X76.042 Y153.958 E3.22819
G1 X76.000 Y153.757 E3.24324
G1 X76.000 Y150.182 E3.50512
G1 F1800.000
G1 X76.000 Y150.061 E3.51565
M104 S220 ; set temperature
M140 S80 ; set bed temperature
G1 Z0.700 F7800.000
G1 X143.617 Y150.383 F7800.000
G1 F900.000
G1 X143.617 Y153.617 E3.68463
G1 X131.383 Y153.617 E4.32382
G1 X131.383 Y150.383 E4.49281
G1 X143.557 Y150.383 E5.12887
G1 X143.220 Y150.780 F7800.000
G1 F900.000
G1 X143.220 Y153.220 E5.24318
G1 X131.780 Y153.220 E5.77913
G1 X131.780 Y150.780 E5.89345
G1 X143.160 Y150.780 E6.42659
G1 X143.619 Y150.752 F7800.000
G1 X88.617 Y150.383 F7800.000
G1 F900.000
G1 X88.617 Y153.617 E6.59558
G1 X76.383 Y153.617 E7.23477
G1 X76.383 Y150.383 E7.40375
G1 X88.557 Y150.383 E8.03981
G1 X88.220 Y150.780 F7800.000
G1 F900.000
G1 X88.220 Y153.220 E8.15412
G1 X76.780 Y153.220 E8.69008
G1 X76.780 Y150.780 E8.80439
G1 X88.160 Y150.780 E9.33753
G1 X88.619 Y150.752 F7800.000
G1 E7.33753 F2400.00000
G92 E0
G1 X65.588 Y143.690 F7800.000
G1 E2.00000 F2400.00000
G1 F3600.000
G1 X65.356 Y143.774 E2.01291
G1 X60.036 Y129.809 E2.79365
G1 X60.036 Y89.200 E4.91531
G1 X66.142 Y73.934 E5.77426
G1 X66.372 Y74.020 E5.78707
G1 X60.964 Y89.828 E6.65995
G1 X60.964 Y130.172 E8.76775
G1 X65.569 Y143.634 E9.51104
G1 X68.059 Y149.617 F7800.000
G1 F3600.000
G1 X61.383 Y130.103 E10.58859
G1 X61.383 Y89.897 E12.68912
G1 X68.059 Y70.383 E13.76667
G1 X151.941 Y70.383 E18.14909
G1 X158.617 Y89.897 E19.22664
G1 X158.617 Y130.103 E21.32717
G1 X151.941 Y149.617 E22.40471
G1 X68.119 Y149.617 E26.78401
G1 X68.343 Y149.220 F7800.000
G1 F1800.000
G1 X61.780 Y130.037 E27.73387
G1 X61.780 Y89.963 E29.61128
G1 X68.343 Y70.780 E30.56114
G1 X151.657 Y70.780 E34.46437
G1 X158.220 Y89.963 E35.41424
G1 X158.220 Y130.037 E37.29164
G1 X151.657 Y149.220 E38.24151
G1 X68.403 Y149.220 E42.14192
G1 X67.959 Y149.334 F7800.000
G1 E40.14192 F2400.00000
G92 E0
G1 X76.383 Y69.617 F7800.000
G1 E2.00000 F2400.00000
G1 F900.000
G1 X76.383 Y66.383 E2.16899
G1 X88.617 Y66.383 E2.80818
G1 X88.617 Y69.617 E2.97716
G1 X76.443 Y69.617 E3.61322
G1 X76.780 Y69.220 F7800.000
G1 F900.000
G1 X76.780 Y66.780 E3.72753
G1 X88.220 Y66.780 E4.26349
G1 X88.220 Y69.220 E4.37780
G1 X76.840 Y69.220 E4.91094
G1 X76.381 Y69.248 F7800.000
G1 X131.383 Y69.617 F7800.000
G1 F900.000
G1 X131.383 Y66.383 E5.07993
G1 X143.617 Y66.383 E5.71912
G1 X143.617 Y69.617 E5.88811
G1 X131.443 Y69.617 E6.52416
G1 X131.780 Y69.220 F7800.000
G1 F900.000
G1 X131.780 Y66.780 E6.63847
G1 X143.220 Y66.780 E7.17443
G1 X143.220 Y69.220 E7.28874
G1 X131.840 Y69.220 E7.82189
G1 X131.381 Y69.248 F7800.000
G1 E5.82189 F2400.00000
G92 E0
G1 X153.628 Y74.020 F7800.000
G1 E2.00000 F2400.00000
G1 F3600.000
G1 X153.858 Y73.934 E2.01280
G1 X159.964 Y89.200 E2.87176
G1 X159.964 Y129.809 E4.99341
G1 X154.644 Y143.774 E5.77416
G1 X154.412 Y143.690 E5.78707
G1 X159.036 Y130.172 E6.53350
G1 X159.036 Y89.828 E8.64130
G1 X153.648 Y74.076 E9.51105
G1 E7.51105 F2400.00000
G92 E0
G1 X144.383 Y69.617 F7800.000
G1 E2.00000 F2400.00000
G1 F3600.000
G1 X152.582 Y69.617 E2.42837
G1 X160.383 Y89.119 E3.52572
G1 X160.383 Y129.886 E5.65562
G1 X152.575 Y150.383 E6.80152
G1 X144.383 Y150.383 E7.22950
G1 X144.383 Y154.383 E7.43848
G1 X130.617 Y154.383 E8.15766
G1 X130.617 Y150.383 E8.36664
G1 X89.383 Y150.383 E10.52093
G1 X89.383 Y154.383 E10.72991
G1 X75.617 Y154.383 E11.44909
G1 X75.617 Y150.383 E11.65807
G1 X67.425 Y150.383 E12.08605
G1 X59.617 Y129.886 E13.23195
G1 X59.617 Y89.119 E15.36184
G1 X67.418 Y69.617 E16.45919
G1 X75.617 Y69.617 E16.88757
G1 X75.617 Y65.617 E17.09654
G1 X89.383 Y65.617 E17.81572
G1 X89.383 Y69.617 E18.02470
G1 X130.617 Y69.617 E20.17899
G1 X130.617 Y65.617 E20.38797
G1 X144.383 Y65.617 E21.10715
G1 X144.383 Y69.557 E21.31300
G1 X144.780 Y69.220 F7800.000
G1 F1800.000
G1 X152.851 Y69.220 E21.69112
G1 X160.780 Y89.042 E22.69132
G1 X160.780 Y129.960 E24.60826
G1 X152.848 Y150.780 E25.65207
G1 X144.780 Y150.780 E26.03007
G1 X144.780 Y154.780 E26.21747
G1 X130.220 Y154.780 E26.89959
G1 X130.220 Y150.780 E27.08699
G1 X89.780 Y150.780 E28.98158
G1 X89.780 Y154.780 E29.16897
G1 X75.220 Y154.780 E29.85110
G1 X75.220 Y150.780 E30.03850
G1 X67.152 Y150.780 E30.41650
G1 X59.220 Y129.960 E31.46030
G1 X59.220 Y89.042 E33.37724
G1 X67.149 Y69.220 E34.37745
G1 X75.220 Y69.220 E34.75557
G1 X75.220 Y65.220 E34.94297
G1 X89.780 Y65.220 E35.62509
G1 X89.780 Y69.220 E35.81249
G1 X130.220 Y69.220 E37.70708
G1 X130.220 Y65.220 E37.89448
G1 X144.780 Y65.220 E38.57660
G1 X144.780 Y69.160 E38.76119
G1 X144.948 Y69.583 F7800.000
G1 X144.173 Y70.000 F7800.000
G1 F1200.000
G1 X152.091 Y70.000 E39.03991
G1 X152.156 Y70.018 E39.04229
G1 F1200.000
G1 X152.286 Y70.055 E39.04827
G1 X152.305 Y70.100 E39.05045
G1 F1200.000
G1 X152.988 Y71.940 E39.15693
G1 F1200.000
G1 X153.670 Y73.781 E39.28587
G1 X155.318 Y78.224 F7800.000
G1 F1200.000
G1 X156.002 Y80.071 E39.30885
G1 F1200.000
G1 X156.687 Y81.917 E39.35638
G1 F1200.000
G1 X157.372 Y83.764 E39.42845
G1 F1200.000
G1 X158.056 Y85.610 E39.52508
G1 F1200.000
G1 X158.741 Y87.457 E39.64625
G1 F1200.000
G1 X159.426 Y89.303 E39.79198
G1 X159.448 Y89.438 E39.80211
G1 F1200.000
G1 X159.493 Y89.708 E39.81929
G1 F1200.000
G1 X159.500 Y129.724 E42.03771
G1 X159.478 Y129.845 E42.04452
G1 F1200.000
G1 X159.433 Y130.086 E42.05541
G1 F1200.000
G1 X159.397 Y130.259 E42.06128
G1 F1200.000
G1 X158.529 Y132.662 E42.12889
G1 F1200.000
G1 X157.660 Y135.064 E42.16864
G1 F1200.000
G1 X156.792 Y137.467 E42.18053
G1 X154.457 Y143.929 F7800.000
G1 F1200.000
G1 X153.594 Y146.317 E42.35208
G1 F1200.000
G1 X152.731 Y148.704 E42.49743
G1 F1200.000
G1 X152.299 Y149.898 E42.55786
G1 X152.277 Y149.950 E42.56057
G1 X152.184 Y149.975 E42.56515
G1 F1200.000
G1 X152.091 Y150.000 E42.56853
G1 X144.173 Y150.000 E42.84726
G1 F1200.000
G1 X144.000 Y150.043 E42.85548
G1 F1200.000
G1 X143.913 Y150.022 E42.85959
G1 F1200.000
G1 X143.827 Y150.000 E42.86273
G1 X131.173 Y150.000 E43.30817
G1 F1200.000
G1 X144.000 Y150.043 E43.89834
G1 X144.000 Y150.108 E43.90133
G1 F1200.000
G1 X144.000 Y153.827 E44.03223
G1 F1200.000
G1 X143.970 Y153.970 E44.03848
