; generated by Slic3r 1.3.1-dev (Build 18ddd3a36dc69d81fb9b7440498bff9e1dde8b7e) on 2021-07-13 at 18:02:27

; external perimeters extrusion width = 0.44mm (3.38mm^3/s)
; perimeters extrusion width = 0.48mm (7.54mm^3/s)
; infill extrusion width = 0.48mm (10.05mm^3/s)
; solid infill extrusion width = 0.48mm (2.51mm^3/s)
; top infill extrusion width = 0.48mm (1.88mm^3/s)

M107
G92 E0
M190 S85 ; set bed temperature and wait for it to be reached
M104 S225 ; set temperature
G28 ; home all axes
G1 Z5 F5000 ; lift nozzle

; Filament gcode

M109 S225 ; set temperature and wait for it to be reached
G21 ; set units to millimeters
G90 ; use absolute coordinates
M82 ; use absolute distances for extrusion
G92 E0
G1 Z0.400 F7800.000
G1 E-2.00000 F2400.00000
G92 E0
G1 X62.716 Y53.830 F7800.000
G1 E2.00000 F2400.00000
G1 F1800.000
G1 X63.997 Y52.995 E2.18172
G1 X71.997 Y48.995 E3.24398
G1 X75.000 Y48.286 E3.61040
G1 X145.000 Y48.286 E11.92396
G1 X148.003 Y48.995 E12.29037
G1 X156.003 Y52.995 E13.35264
G1 X157.860 Y54.367 E13.62687
G1 X158.782 Y55.588 E13.80858
G1 X176.782 Y86.088 E18.01470
G1 X177.596 Y88.248 E18.28892
G1 X177.714 Y89.500 E18.43825
G1 X177.714 Y130.500 E23.30763
G1 X177.317 Y132.775 E23.58185
G1 X176.782 Y133.912 E23.73118
G1 X158.782 Y164.412 E27.93730
G1 X157.284 Y166.170 E28.21152
G1 X156.003 Y167.005 E28.39324
G1 X148.003 Y171.005 E29.45551
G1 X145.000 Y171.714 E29.82192
G1 X75.000 Y171.714 E38.13548
G1 X71.997 Y171.005 E38.50189
G1 X63.997 Y167.005 E39.56416
G1 X62.140 Y165.633 E39.83839
G1 X61.218 Y164.412 E40.02010
G1 X43.218 Y133.912 E44.22622
G1 X42.404 Y131.752 E44.50044
G1 X42.286 Y130.500 E44.64977
G1 X42.286 Y89.500 E49.51915
G1 X42.683 Y87.225 E49.79337
G1 X43.218 Y86.088 E49.94270
G1 X61.218 Y55.588 E54.14882
G1 X62.677 Y53.876 E54.41591
G1 E52.41591 F2400.00000
G92 E0
G1 X131.600 Y150.600 F7800.000
G1 E2.00000 F2400.00000
G1 F1800.000
G1 X143.400 Y150.600 E3.40143
G1 X143.400 Y153.400 E3.73397
G1 X131.600 Y153.400 E5.13540
G1 X131.600 Y150.660 E5.46082
G1 X131.427 Y150.239 F7800.000
G1 E3.46082 F2400.00000
G92 E0
G1 X88.400 Y150.600 F7800.000
G1 E2.00000 F2400.00000
G1 F1800.000
G1 X88.400 Y153.400 E2.33254
G1 X76.600 Y153.400 E3.73397
G1 X76.600 Y150.600 E4.06651
G1 X88.340 Y150.600 E5.46082
G1 X88.799 Y150.569 F7800.000
G1 E3.46082 F2400.00000
G92 E0
G1 X63.462 Y137.715 F7800.000
G1 E2.00000 F2400.00000
G1 F1800.000
G1 X63.068 Y137.859 E2.04982
G1 X60.114 Y130.290 E3.01472
G1 X60.114 Y89.710 E7.83428
G1 X63.068 Y82.141 E8.79918
G1 X63.462 Y82.285 E8.84900
G1 X60.886 Y89.815 E9.79410
G1 X60.886 Y130.185 E14.58873
G1 X63.442 Y137.658 E15.52671
G1 E13.52671 F2400.00000
G92 E0
G1 X68.214 Y149.400 F7800.000
G1 E2.00000 F2400.00000
G1 F1800.000
G1 X61.600 Y130.067 E4.42679
G1 X61.600 Y89.933 E9.19320
G1 X68.214 Y70.600 E11.61999
G1 X151.786 Y70.600 E21.54542
G1 X158.400 Y89.933 E23.97221
G1 X158.400 Y130.067 E28.73862
G1 X151.786 Y149.400 E31.16541
G1 X68.274 Y149.400 E41.08371
G1 X67.831 Y149.514 F7800.000
G1 E39.08371 F2400.00000
G92 E0
G1 X76.600 Y69.400 F7800.000
G1 E2.00000 F2400.00000
G1 F1800.000
G1 X76.600 Y66.600 E2.33254
G1 X88.400 Y66.600 E3.73397
G1 X88.400 Y69.400 E4.06651
G1 X76.660 Y69.400 E5.46082
G1 X76.201 Y69.431 F7800.000
G1 E3.46082 F2400.00000
G92 E0
G1 X131.600 Y69.400 F7800.000
G1 E2.00000 F2400.00000
G1 F1800.000
G1 X131.600 Y66.600 E2.33254
G1 X143.400 Y66.600 E3.73397
G1 X143.400 Y69.400 E4.06651
G1 X131.660 Y69.400 E5.46082
G1 X131.201 Y69.431 F7800.000
G1 E3.46082 F2400.00000
G92 E0
G1 X156.538 Y82.285 F7800.000
G1 E2.00000 F2400.00000
G1 F1800.000
G1 X156.932 Y82.141 E2.04982
G1 X159.886 Y89.710 E3.01472
G1 X159.886 Y130.290 E7.83428
G1 X156.932 Y137.859 E8.79918
G1 X156.538 Y137.715 E8.84900
G1 X159.114 Y130.185 E9.79411
G1 X159.114 Y89.815 E14.58873
G1 X156.558 Y82.342 E15.52671
G1 E13.52671 F2400.00000
G92 E0
G1 X144.600 Y69.400 F7800.000
G1 E2.00000 F2400.00000
G1 F1800.000
G1 X152.727 Y69.400 E2.96517
G1 X160.600 Y89.575 E5.53728
G1 X160.600 Y130.425 E10.38877
G1 X152.727 Y150.600 E12.96088
G1 X144.600 Y150.600 E13.92605
G1 X144.600 Y154.600 E14.40112
G1 X130.400 Y154.600 E16.08758
G1 X130.400 Y150.600 E16.56264
G1 X89.600 Y150.600 E21.40826
G1 X89.600 Y154.600 E21.88332
G1 X75.400 Y154.600 E23.56979
G1 X75.400 Y150.600 E24.04485
G1 X67.273 Y150.600 E25.01002
G1 X59.400 Y130.425 E27.58213
G1 X59.400 Y89.575 E32.43362
G1 X67.273 Y69.400 E35.00573
G1 X75.400 Y69.400 E35.97090
G1 X75.400 Y65.400 E36.44596
G1 X89.600 Y65.400 E38.13243
G1 X89.600 Y69.400 E38.60749
G1 X130.400 Y69.400 E43.45311
G1 X130.400 Y65.400 E43.92817
G1 X144.600 Y65.400 E45.61463
G1 X144.600 Y69.340 E46.08257
G1 X144.768 Y69.763 F7800.000
G1 X144.162 Y69.980 F7800.000
G1 F1800.000
G1 X144.243 Y70.000 E46.08868
G1 X152.041 Y70.000 E46.65993
G1 X152.199 Y70.038 E46.67181
G1 F1800.000
G1 X152.278 Y70.057 E46.67875
G1 X152.319 Y70.148 E46.68727
G1 X152.710 Y71.214 E46.78452
G1 F1800.000
G1 X153.490 Y73.347 E47.00910
G1 F1800.000
G1 X154.271 Y75.480 E47.26848
G1 F1800.000
G1 X155.051 Y77.612 E47.56267
G1 F1800.000
G1 X155.832 Y79.745 E47.89166
G1 F1800.000
G1 X156.613 Y81.878 E48.25547
G1 E46.25547 F2400.00000
G92 E0
G1 X144.162 Y69.980 F7800.000
G1 E2.00000 F2400.00000
G1 F1800.000
G1 X144.000 Y69.939 E2.01448
G1 F1800.000
G1 X143.919 Y69.960 E2.02171
G1 F1800.000
G1 X143.757 Y70.000 E2.03394
G1 X131.243 Y70.000 E2.95064
G1 X135.495 Y69.980 E3.26214
G1 F1800.000
G1 X144.000 Y69.939 E3.99967
G1 X144.000 Y69.879 E4.00494
G1 F1800.000
G1 X144.000 Y66.243 E4.27126
G1 X143.958 Y66.042 E4.28632
G1 X143.757 Y66.000 E4.30137
G1 X131.243 Y66.000 E5.21807
G1 X131.042 Y66.042 E5.23313
G1 X131.000 Y66.243 E5.24818
G1 X131.000 Y69.818 E5.51005
G1 F1800.000
G1 X131.000 Y69.939 E5.52059
G1 F1800.000
G1 X130.919 Y69.960 E5.52782
G1 F1800.000
G1 X130.757 Y70.000 E5.54005
G1 X89.243 Y70.000 E8.58109
G1 X89.162 Y69.980 E8.58720
G1 F1800.000
G1 X89.000 Y69.939 E8.60168
G1 X89.000 Y69.879 E8.60695
G1 F1800.000
G1 X89.000 Y66.243 E8.87327
G1 X88.958 Y66.042 E8.88832
G1 X88.757 Y66.000 E8.90337
G1 X76.243 Y66.000 E9.82008
G1 X76.042 Y66.042 E9.83513
G1 X76.000 Y66.243 E9.85019
G1 X76.000 Y69.818 E10.11206
G1 F1800.000
G1 X76.000 Y69.939 E10.12259
G1 X75.838 Y69.980 F7800.000
G1 F1800.000
G1 X76.000 Y69.939 E10.13594
G1 X76.243 Y70.000 E10.15597
G1 F1800.000
G1 X88.757 Y70.000 E10.98842
G1 X88.838 Y69.980 E10.99397
G1 F1800.000
G1 X89.000 Y69.939 E11.00732
G1 E9.00732 F2400.00000
G92 E0
G1 X75.838 Y69.980 F7800.000
G1 E2.00000 F2400.00000
G1 F1800.000
G1 X75.757 Y70.000 E2.00555
G1 X67.959 Y70.000 E2.52429
G1 F1800.000
G1 X67.801 Y70.038 E2.53715
G1 F1800.000
G1 X67.722 Y70.057 E2.54455
G1 X67.681 Y70.148 E2.55362
G1 X67.290 Y71.214 E2.65721
G1 F1800.000
G1 X66.510 Y73.347 E2.89918
G1 F1800.000
G1 X65.729 Y75.480 E3.17597
G1 F1800.000
G1 X64.949 Y77.612 E3.48756
G1 F1800.000
G1 X64.168 Y79.745 E3.83396
G1 F1800.000
G1 X63.387 Y81.878 E4.21517
G1 E2.21517 F2400.00000
G92 E0
G1 X63.387 Y138.122 F7800.000
G1 E2.00000 F2400.00000
G1 F1800.000
G1 X64.168 Y140.255 E2.38121
G1 F1800.000
G1 X64.949 Y142.388 E2.72761
G1 F1800.000
G1 X65.729 Y144.520 E3.03920
G1 F1800.000
G1 X66.510 Y146.653 E3.31599
G1 F1800.000
G1 X67.290 Y148.786 E3.55796
G1 F1800.000
G1 X67.681 Y149.852 E3.66155
G1 X67.722 Y149.943 E3.67062
G1 X67.801 Y149.962 E3.67802
G1 F1800.000
G1 X67.959 Y150.000 E3.69087
G1 F1800.000
G1 X75.757 Y150.000 E4.20962
G1 X75.838 Y150.020 E4.21517
G1 F1800.000
G1 X76.000 Y150.061 E4.22852
G1 X76.243 Y150.000 E4.24855
G1 F1800.000
G1 X88.757 Y150.000 E5.08100
G1 X88.838 Y150.020 E5.08655
G1 F1800.000
G1 X89.000 Y150.061 E5.09990
G1 X89.000 Y150.121 F7800.000
G1 F1800.000
G1 X89.000 Y150.061 E5.10517
G1 X89.162 Y150.020 E5.11964
G1 F1800.000
G1 X89.243 Y150.000 E5.12576
G1 X130.757 Y150.000 E8.16680
G1 X130.919 Y150.040 E8.17903
G1 F1800.000
G1 X131.000 Y150.061 E8.18627
G1 F1800.000
G1 X131.000 Y150.182 E8.19680
G1 F1800.000
G1 X131.000 Y153.757 E8.45867
G1 X131.042 Y153.958 E8.47373
G1 X131.243 Y154.000 E8.48878
G1 X143.757 Y154.000 E9.40549
G1 X143.958 Y153.958 E9.42054
G1 X144.000 Y153.757 E9.43560
G1 X144.000 Y150.121 E9.70192
G1 F1800.000
G1 X144.000 Y150.061 E9.70718
G1 X135.495 Y150.020 E10.44471
G1 F1800.000
G1 X131.243 Y150.000 E10.75622
G1 X143.757 Y150.000 E11.67292
G1 X143.919 Y150.040 E11.68515
G1 F1800.000
G1 X144.000 Y150.061 E11.69238
G1 F1800.000
G1 X144.162 Y150.020 E11.70686
G1 F1800.000
G1 X144.243 Y150.000 E11.71297
G1 X152.041 Y150.000 E12.28422
G1 X152.199 Y149.962 E12.29610
G1 F1800.000
G1 X152.278 Y149.943 E12.30304
G1 X152.319 Y149.852 E12.31156
G1 X152.710 Y148.786 E12.40882
G1 F1800.000
G1 X153.490 Y146.653 E12.63339
G1 F1800.000
G1 X154.271 Y144.520 E12.89277
G1 F1800.000
G1 X155.051 Y142.388 E13.18696
G1 F1800.000
G1 X155.832 Y140.255 E13.51595
G1 F1800.000
G1 X156.613 Y138.122 E13.87976
G1 E11.87976 F2400.00000
G92 E0
G1 X89.000 Y150.121 F7800.000
G1 E2.00000 F2400.00000
G1 F1800.000
G1 X89.000 Y153.757 E2.26632
G1 X88.958 Y153.958 E2.28138
G1 X88.757 Y154.000 E2.29643
G1 X76.243 Y154.000 E3.21313
G1 X76.042 Y153.958 E3.22819
G1 X76.000 Y153.757 E3.24324
G1 X76.000 Y150.182 E3.50512
G1 F1800.000
G1 X76.000 Y150.061 E3.51565
G1 Z0.400 F7800.000
G1 E1.51565 F2400.00000
G92 E0
G1 X69.487 Y142.828 F7800.000
G1 E2.00000 F2400.00000
G1 F1800.000
G1 X67.172 Y130.673 E3.46964
G1 X67.172 Y89.327 E8.38000
G1 X69.487 Y77.172 E9.84963
G1 X150.513 Y77.172 E19.47269
G1 X152.828 Y89.327 E20.94232
G1 X152.828 Y130.673 E25.85268
G1 X150.513 Y142.828 E27.32232
G1 X69.547 Y142.828 E36.93825
G1 X70.078 Y142.114 F7800.000
G1 F1800.000
G1 X67.886 Y130.605 E38.32969
G1 X67.886 Y89.395 E43.22404
G1 X70.078 Y77.886 E44.61548
G1 X149.922 Y77.886 E54.09816
G1 X152.114 Y89.395 E55.48961
G1 X152.114 Y130.605 E60.38396
G1 X149.922 Y142.114 E61.77540
G1 X70.138 Y142.114 E71.25095
G1 X70.669 Y141.400 F7800.000
G1 F1800.000
G1 X68.600 Y130.538 E72.56420
G1 X68.600 Y89.462 E77.44255
G1 X70.669 Y78.600 E78.75580
G1 X149.331 Y78.600 E88.09810
G1 X151.400 Y89.462 E89.41135
G1 X151.400 Y130.538 E94.28969
G1 X149.331 Y141.400 E95.60294
G1 X70.729 Y141.400 E104.93812
G1 X70.275 Y141.468 F7800.000
G1 E102.93812 F2400.00000
G92 E0
G1 X76.828 Y159.172 F7800.000
G1 E2.00000 F2400.00000
G1 F1800.000
G1 X68.044 Y159.172 E3.04328
G1 X50.828 Y130.001 E7.06611
G1 X50.828 Y89.999 E11.81689
G1 X68.044 Y60.828 E15.83972
G1 X76.828 Y60.828 E16.88300
G1 X76.828 Y56.828 E17.35806
G1 X88.172 Y56.828 E18.70525
G1 X88.172 Y60.828 E19.18031
G1 X131.828 Y60.828 E24.36520
G1 X131.828 Y56.828 E24.84026
G1 X143.172 Y56.828 E26.18746
G1 X143.172 Y60.828 E26.66252
G1 X151.956 Y60.828 E27.70580
G1 X169.172 Y89.999 E31.72863
G1 X169.172 Y130.001 E36.47941
G1 X151.956 Y159.172 E40.50224
G1 X143.172 Y159.172 E41.54552
G1 X143.172 Y163.172 E42.02058
G1 X131.828 Y163.172 E43.36777
G1 X131.828 Y159.172 E43.84283
G1 X88.172 Y159.172 E49.02772
G1 X88.172 Y163.172 E49.50278
G1 X76.828 Y163.172 E50.84998
G1 X76.828 Y159.232 E51.31791
G1 X76.114 Y159.886 F7800.000
G1 F1800.000
G1 X67.636 Y159.886 E52.32480
G1 X50.114 Y130.196 E56.41923
G1 X50.114 Y89.804 E61.21633
G1 X67.636 Y60.114 E65.31076
G1 X76.114 Y60.114 E66.31764
G1 X76.114 Y56.114 E66.79271
G1 X88.886 Y56.114 E68.30954
G1 X88.886 Y60.114 E68.78460
G1 X131.114 Y60.114 E73.79985
G1 X131.114 Y56.114 E74.27491
G1 X143.886 Y56.114 E75.79174
G1 X143.886 Y60.114 E76.26680
G1 X152.364 Y60.114 E77.27369
G1 X169.886 Y89.804 E81.36812
G1 X169.886 Y130.196 E86.16522
G1 X152.364 Y159.886 E90.25964
G1 X143.886 Y159.886 E91.26653
G1 X143.886 Y163.886 E91.74159
G1 X131.114 Y163.886 E93.25842
G1 X131.114 Y159.886 E93.73349
G1 X88.886 Y159.886 E98.74874
G1 X88.886 Y163.886 E99.22380
G1 X76.114 Y163.886 E100.74063
G1 X76.114 Y159.946 E101.20857
G1 X75.400 Y160.600 F7800.000
G1 F1800.000
G1 X67.228 Y160.600 E102.17907
G1 X49.400 Y130.391 E106.34508
G1 X49.400 Y89.609 E111.18851
G1 X67.228 Y59.400 E115.35453
G1 X75.400 Y59.400 E116.32503
G1 X75.400 Y55.400 E116.80009
G1 X89.600 Y55.400 E118.48655
G1 X89.600 Y59.400 E118.96162
G1 X130.400 Y59.400 E123.80723
G1 X130.400 Y55.400 E124.28230
G1 X144.600 Y55.400 E125.96876
G1 X144.600 Y59.400 E126.44382
G1 X152.772 Y59.400 E127.41432
G1 X170.600 Y89.609 E131.58034
G1 X170.600 Y130.391 E136.42377
G1 X152.772 Y160.600 E140.58978
G1 X144.600 Y160.600 E141.56028
G1 X144.600 Y164.600 E142.03535
G1 X130.400 Y164.600 E143.72181
G1 X130.400 Y160.600 E144.19687
G1 X89.600 Y160.600 E149.04249
G1 X89.600 Y164.600 E149.51755
G1 X75.400 Y164.600 E151.20402
G1 X75.400 Y160.660 E151.67195
G1 X75.232 Y160.237 F7800.000
G1 E149.67195 F2400.00000
G92 E0
G1 X86.592 Y162.735 F7800.000
G1 E2.00000 F2400.00000
G1 F1800.000
G1 X87.735 Y161.592 E2.19220
G1 X87.735 Y160.581 E2.31247
G1 X85.581 Y162.735 E2.67475
G1 X84.570 Y162.735 E2.79501
G1 X87.735 Y159.570 E3.32737
G1 X87.735 Y158.559 E3.44763
G1 E1.44763 F2400.00000
G92 E0
G1 X141.203 Y162.735 F7800.000
G1 E2.00000 F2400.00000
G1 F1800.000
G1 X142.735 Y161.203 E2.25777
G1 X142.735 Y160.191 E2.37803
G1 X140.191 Y162.735 E2.80588
G1 X139.180 Y162.735 E2.92615
G1 X142.735 Y159.180 E3.52408
G1 E1.52408 F2400.00000
G92 E0
G1 X151.270 Y158.735 F7800.000
G1 E2.00000 F2400.00000
G1 F1800.000
G1 X151.826 Y158.179 E2.09348
G1 X153.282 Y155.712 E2.43422
G1 X150.259 Y158.735 E2.94269
G1 X149.248 Y158.735 E3.06295
G1 X154.739 Y153.244 E3.98642
G1 X156.195 Y150.777 E4.32716
G1 X148.236 Y158.735 E5.66562
G1 X147.225 Y158.735 E5.78589
G1 X157.651 Y148.309 E7.53934
G1 X159.108 Y145.842 E7.88008
G1 X146.214 Y158.735 E10.04853
G1 X145.203 Y158.735 E10.16880
G1 X160.564 Y143.374 E12.75224
G1 X162.020 Y140.906 E13.09298
G1 X144.191 Y158.735 E16.09142
G1 X143.180 Y158.735 E16.21169
G1 X163.476 Y138.439 E19.62512
G1 X164.933 Y135.971 E19.96586
G1 X138.169 Y162.735 E24.46701
G1 X137.157 Y162.735 E24.58727
G1 X166.389 Y133.504 E29.50342
G1 X167.845 Y131.036 E29.84415
G1 X136.146 Y162.735 E35.17529
G1 X135.135 Y162.735 E35.29556
G1 X168.735 Y129.135 E40.94647
G1 X168.735 Y128.124 E41.06674
G1 X134.123 Y162.735 E46.88773
G1 X133.112 Y162.735 E47.00800
G1 X168.735 Y127.112 E52.99908
G1 X168.735 Y126.101 E53.11934
G1 X132.265 Y162.571 E59.25295
G1 X132.265 Y161.560 E59.37321
G1 X150.560 Y143.265 E62.45013
G1 X149.549 Y143.265 E62.57040
G1 X132.265 Y160.549 E65.47724
G1 X132.265 Y159.538 E65.59751
G1 X148.538 Y143.265 E68.33427
G1 X147.526 Y143.265 E68.45453
G1 X132.056 Y158.735 E71.05637
G1 X131.044 Y158.735 E71.17663
G1 X146.515 Y143.265 E73.77847
G1 X145.504 Y143.265 E73.89873
G1 X130.033 Y158.735 E76.50057
G1 X129.022 Y158.735 E76.62083
G1 X144.492 Y143.265 E79.22267
G1 X143.481 Y143.265 E79.34293
G1 X128.011 Y158.735 E81.94477
G1 X126.999 Y158.735 E82.06503
G1 X142.470 Y143.265 E84.66687
G1 X141.458 Y143.265 E84.78713
G1 X125.988 Y158.735 E87.38897
G1 X124.977 Y158.735 E87.50923
G1 X140.447 Y143.265 E90.11107
G1 X139.436 Y143.265 E90.23133
G1 X123.965 Y158.735 E92.83317
G1 X122.954 Y158.735 E92.95343
G1 X138.425 Y143.265 E95.55527
G1 X137.413 Y143.265 E95.67553
G1 X121.943 Y158.735 E98.27737
G1 X120.931 Y158.735 E98.39763
G1 X136.402 Y143.265 E100.99947
G1 X135.391 Y143.265 E101.11973
G1 X119.920 Y158.735 E103.72157
G1 X118.909 Y158.735 E103.84183
G1 X134.379 Y143.265 E106.44367
G1 X133.368 Y143.265 E106.56393
G1 X117.898 Y158.735 E109.16577
G1 X116.886 Y158.735 E109.28603
G1 X132.357 Y143.265 E111.88787
G1 X131.346 Y143.265 E112.00813
G1 X115.875 Y158.735 E114.60997
G1 X114.864 Y158.735 E114.73023
G1 X130.334 Y143.265 E117.33207
G1 X129.323 Y143.265 E117.45233
G1 X113.852 Y158.735 E120.05417
