; generated by Slic3r 1.3.1-dev (Build 18ddd3a36dc69d81fb9b7440498bff9e1dde8b7e) on 2021-07-12 at 19:02:17

; external perimeters extrusion width = 0.44mm (3.38mm^3/s)
; perimeters extrusion width = 0.48mm (7.54mm^3/s)
; infill extrusion width = 0.48mm (10.05mm^3/s)
; solid infill extrusion width = 0.48mm (2.51mm^3/s)
; top infill extrusion width = 0.48mm (1.88mm^3/s)

M107
G92 E0
M190 S85 ; set bed temperature and wait for it to be reached
M104 S225 ; set temperature
G28 ; home all axes
G1 Z5 F5000 ; lift nozzle

; Filament gcode

M109 S225 ; set temperature and wait for it to be reached
G21 ; set units to millimeters
G90 ; use absolute coordinates
M82 ; use absolute distances for extrusion
G92 E0
G1 Z0.400 F7800.000
G1 E-2.00000 F2400.00000
G92 E0
G1 X61.686 Y61.474 F7800.000
G1 E2.00000 F2400.00000
G1 F1800.000
G1 X63.783 Y60.509 E2.27422
G1 X65.500 Y60.286 E2.47981
G1 X154.500 Y60.286 E13.04991
G1 X156.775 Y60.683 E13.32413
G1 X158.780 Y61.827 E13.59836
G1 X160.280 Y63.583 E13.87258
G1 X160.961 Y65.174 E14.07816
G1 X167.461 Y88.174 E16.91675
G1 X167.714 Y90.000 E17.13568
G1 X167.714 Y130.000 E21.88629
G1 X167.461 Y131.826 E22.10523
G1 X160.961 Y154.826 E24.94381
G1 X159.960 Y156.907 E25.21804
G1 X158.314 Y158.526 E25.49226
G1 X156.217 Y159.491 E25.76649
G1 X154.500 Y159.714 E25.97207
G1 X65.500 Y159.714 E36.54217
G1 X63.225 Y159.317 E36.81639
G1 X61.220 Y158.173 E37.09062
G1 X59.720 Y156.417 E37.36484
G1 X59.039 Y154.826 E37.57043
G1 X52.539 Y131.826 E40.40901
G1 X52.286 Y130.000 E40.62795
G1 X52.286 Y90.000 E45.37855
G1 X52.539 Y88.174 E45.59749
G1 X59.039 Y65.174 E48.43607
G1 X60.040 Y63.093 E48.71030
G1 X61.643 Y61.516 E48.97740
G1 E46.97740 F2400.00000
G92 E0
G1 X159.114 Y128.154 F7800.000
G1 E2.00000 F2400.00000
G1 F1800.000
G1 X157.431 Y128.095 E2.20000
G1 X156.956 Y128.125 E2.25654
G1 X156.267 Y128.252 E2.33972
G1 X155.787 Y128.404 E2.39950
G1 X155.151 Y128.696 E2.48267
G1 X154.745 Y128.945 E2.53922
G1 X154.366 Y129.233 E2.59575
G1 X154.016 Y129.556 E2.65231
G1 X153.690 Y129.921 E2.71046
G1 X153.425 Y130.284 E2.76379
G1 X153.177 Y130.706 E2.82195
G1 X152.976 Y131.138 E2.87850
G1 X152.818 Y131.587 E2.93504
G1 X152.666 Y132.271 E3.01822
G1 X152.614 Y133.012 E3.10646
G1 X152.614 Y151.114 E5.25641
G1 X67.386 Y151.114 E15.37857
G1 X67.386 Y133.012 E17.52852
G1 X67.334 Y132.271 E17.61675
G1 X67.182 Y131.587 E17.69994
G1 X67.024 Y131.138 E17.75648
G1 X66.823 Y130.706 E17.81303
G1 X66.575 Y130.284 E17.87118
G1 X66.310 Y129.921 E17.92452
G1 X65.984 Y129.556 E17.98267
G1 X65.634 Y129.233 E18.03922
G1 X65.255 Y128.945 E18.09576
G1 X64.849 Y128.696 E18.15231
G1 X64.213 Y128.404 E18.23548
G1 X63.733 Y128.252 E18.29526
G1 X63.044 Y128.125 E18.37843
G1 X62.569 Y128.095 E18.43497
G1 X60.886 Y128.154 E18.63498
G1 X60.886 Y91.846 E22.94699
G1 X62.569 Y91.905 E23.14699
G1 X63.044 Y91.875 E23.20353
G1 X63.733 Y91.748 E23.28671
G1 X64.213 Y91.596 E23.34649
G1 X64.849 Y91.304 E23.42966
G1 X65.255 Y91.055 E23.48620
G1 X65.634 Y90.767 E23.54274
G1 X65.984 Y90.444 E23.59930
G1 X66.310 Y90.079 E23.65745
G1 X66.575 Y89.716 E23.71079
G1 X66.823 Y89.294 E23.76894
G1 X67.024 Y88.862 E23.82549
G1 X67.182 Y88.413 E23.88203
G1 X67.334 Y87.729 E23.96521
G1 X67.386 Y86.988 E24.05345
G1 X67.386 Y68.886 E26.20340
G1 X152.614 Y68.886 E36.32555
G1 X152.614 Y86.988 E38.47550
G1 X152.666 Y87.729 E38.56374
G1 X152.818 Y88.413 E38.64692
G1 X152.976 Y88.862 E38.70346
G1 X153.177 Y89.294 E38.76001
G1 X153.425 Y89.716 E38.81817
G1 X153.690 Y90.079 E38.87151
G1 X154.016 Y90.444 E38.92966
G1 X154.366 Y90.767 E38.98621
G1 X154.745 Y91.055 E39.04275
G1 X155.151 Y91.304 E39.09930
G1 X155.787 Y91.596 E39.18246
G1 X156.267 Y91.748 E39.24225
G1 X156.956 Y91.875 E39.32542
G1 X157.431 Y91.905 E39.38196
G1 X159.114 Y91.846 E39.58196
G1 X159.114 Y128.094 E43.88685
G1 X158.400 Y127.414 F7800.000
G1 F1800.000
G1 X157.421 Y127.380 E44.00318
G1 X156.876 Y127.414 E44.06800
G1 X156.333 Y127.502 E44.13340
G1 X156.077 Y127.563 E44.16467
G1 X155.547 Y127.731 E44.23065
G1 X155.303 Y127.828 E44.26190
G1 X154.807 Y128.070 E44.32732
G1 X154.342 Y128.355 E44.39214
G1 X153.907 Y128.684 E44.45696
G1 X153.506 Y129.055 E44.52179
G1 X153.140 Y129.466 E44.58718
G1 X152.976 Y129.678 E44.61904
G1 X152.824 Y129.899 E44.65088
G1 X152.544 Y130.373 E44.71627
G1 X152.314 Y130.868 E44.78110
G1 X152.133 Y131.383 E44.84592
G1 X152.002 Y131.918 E44.91133
G1 X151.958 Y132.177 E44.94259
G1 X151.906 Y132.731 E45.00858
G1 X151.900 Y133.004 E45.04108
G1 X151.900 Y150.400 E47.10710
G1 X68.100 Y150.400 E57.05962
G1 X68.100 Y133.004 E59.12564
G1 X68.094 Y132.731 E59.15814
G1 X68.042 Y132.177 E59.22412
G1 X67.998 Y131.918 E59.25538
G1 X67.867 Y131.383 E59.32080
G1 X67.686 Y130.868 E59.38562
G1 X67.456 Y130.373 E59.45044
G1 X67.176 Y129.899 E59.51584
G1 X67.024 Y129.678 E59.54767
G1 X66.860 Y129.466 E59.57953
G1 X66.494 Y129.055 E59.64493
G1 X66.093 Y128.684 E59.70976
G1 X65.658 Y128.355 E59.77458
G1 X65.193 Y128.070 E59.83940
G1 X64.697 Y127.828 E59.90481
G1 X64.453 Y127.731 E59.93606
G1 X63.923 Y127.563 E60.00205
G1 X63.667 Y127.502 E60.03332
G1 X63.124 Y127.414 E60.09872
G1 X62.579 Y127.380 E60.16354
G1 X61.600 Y127.414 E60.27986
G1 X61.600 Y92.586 E64.41625
G1 X62.579 Y92.620 E64.53258
G1 X63.124 Y92.586 E64.59740
G1 X63.667 Y92.498 E64.66279
G1 X63.923 Y92.437 E64.69407
G1 X64.453 Y92.269 E64.76005
G1 X64.697 Y92.172 E64.79130
G1 X65.193 Y91.930 E64.85672
G1 X65.658 Y91.645 E64.92154
G1 X66.093 Y91.316 E64.98636
G1 X66.494 Y90.945 E65.05119
G1 X66.860 Y90.534 E65.11658
G1 X67.024 Y90.322 E65.14844
G1 X67.176 Y90.101 E65.18028
G1 X67.456 Y89.627 E65.24567
G1 X67.686 Y89.132 E65.31050
G1 X67.867 Y88.617 E65.37532
G1 X67.998 Y88.082 E65.44073
G1 X68.042 Y87.823 E65.47199
G1 X68.094 Y87.269 E65.53798
G1 X68.100 Y86.996 E65.57048
G1 X68.100 Y69.600 E67.63650
G1 X151.900 Y69.600 E77.58902
G1 X151.900 Y86.996 E79.65504
G1 X151.906 Y87.269 E79.68754
G1 X151.958 Y87.823 E79.75352
G1 X152.002 Y88.082 E79.78478
G1 X152.133 Y88.617 E79.85020
G1 X152.314 Y89.132 E79.91502
G1 X152.544 Y89.627 E79.97984
G1 X152.824 Y90.101 E80.04524
G1 X152.976 Y90.322 E80.07707
G1 X153.140 Y90.534 E80.10893
G1 X153.506 Y90.945 E80.17432
G1 X153.907 Y91.316 E80.23915
G1 X154.342 Y91.645 E80.30397
G1 X154.807 Y91.930 E80.36880
G1 X155.303 Y92.172 E80.43421
G1 X155.547 Y92.269 E80.46546
G1 X156.077 Y92.437 E80.53145
G1 X156.333 Y92.498 E80.56272
G1 X156.876 Y92.586 E80.62811
G1 X157.421 Y92.620 E80.69294
G1 X158.400 Y92.586 E80.80926
G1 X158.400 Y127.354 E84.93852
G1 X158.394 Y127.814 F7800.000
G1 E82.93852 F2400.00000
G92 E0
G1 X65.852 Y89.519 F7800.000
G1 E2.00000 F2400.00000
G1 F1800.000
G1 X65.474 Y89.943 E2.06746
G1 X65.175 Y90.219 E2.11574
G1 X64.828 Y90.482 E2.16755
G1 X64.567 Y90.157 E2.21702
G1 X64.916 Y89.860 E2.27149
G1 X65.551 Y89.233 E2.37746
G1 X65.808 Y89.478 E2.41963
G1 E0.41963 F2400.00000
G92 E0
G1 X64.828 Y129.518 F7800.000
G1 E2.00000 F2400.00000
G1 F1800.000
G1 X65.175 Y129.781 E2.05183
G1 X65.474 Y130.057 E2.10010
G1 X65.852 Y130.481 E2.16756
G1 X65.551 Y130.767 E2.21685
G1 X64.916 Y130.140 E2.32281
G1 X64.567 Y129.843 E2.37730
G1 X64.790 Y129.565 E2.41963
G1 E0.41963 F2400.00000
G92 E0
G1 X154.148 Y130.481 F7800.000
G1 E2.00000 F2400.00000
G1 F1800.000
G1 X154.526 Y130.057 E2.06746
G1 X154.825 Y129.781 E2.11574
G1 X155.172 Y129.518 E2.16756
G1 X155.433 Y129.843 E2.21703
G1 X155.084 Y130.140 E2.27151
G1 X154.449 Y130.767 E2.37748
G1 X154.191 Y130.522 E2.41965
G1 E0.41965 F2400.00000
G92 E0
G1 X155.272 Y90.557 F7800.000
G1 E2.00000 F2400.00000
G1 F1800.000
G1 X154.825 Y90.219 E2.06663
G1 X154.526 Y89.943 E2.11490
G1 X154.148 Y89.519 E2.18237
G1 X154.449 Y89.233 E2.23166
G1 X155.100 Y89.876 E2.34034
G1 X155.532 Y90.225 E2.40629
G1 X155.309 Y90.510 E2.44925
G1 E0.44925 F2400.00000
G92 E0
G1 X159.886 Y91.146 F7800.000
G1 E2.00000 F2400.00000
G1 F1800.000
G1 X159.886 Y128.854 E6.47835
G1 X159.353 Y128.912 E6.54203
G1 X158.673 Y129.039 E6.62418
G1 X157.995 Y129.236 E6.70799
G1 X157.341 Y129.499 E6.79179
G1 X156.727 Y129.820 E6.87395
G1 X156.404 Y130.020 E6.91913
G1 X155.857 Y130.420 E6.99965
G1 X155.567 Y130.667 E7.04485
G1 X155.075 Y131.153 E7.12701
G1 X154.624 Y131.696 E7.21081
G1 X154.230 Y132.281 E7.29461
G1 X153.895 Y132.902 E7.37840
G1 X153.629 Y133.541 E7.46057
G1 X153.513 Y133.889 E7.50413
G1 X153.386 Y134.348 E7.56077
G1 X153.386 Y151.886 E9.64363
G1 X66.614 Y151.886 E19.94908
G1 X66.614 Y134.348 E22.03194
G1 X66.487 Y133.889 E22.08858
G1 X66.371 Y133.541 E22.13214
G1 X66.105 Y132.902 E22.21431
G1 X65.770 Y132.281 E22.29810
G1 X65.376 Y131.696 E22.38190
G1 X64.925 Y131.153 E22.46571
G1 X64.433 Y130.667 E22.54786
G1 X64.143 Y130.420 E22.59306
G1 X63.596 Y130.020 E22.67358
G1 X63.273 Y129.820 E22.71874
G1 X62.663 Y129.501 E22.80053
G1 X62.005 Y129.236 E22.88472
G1 X61.327 Y129.039 E22.96853
G1 X60.647 Y128.912 E23.05069
G1 X60.114 Y128.854 E23.11437
G1 X60.114 Y91.146 E27.59271
G1 X60.647 Y91.088 E27.65639
G1 X61.327 Y90.961 E27.73855
G1 X62.005 Y90.764 E27.82235
G1 X62.659 Y90.501 E27.90615
G1 X63.273 Y90.180 E27.98832
G1 X63.596 Y89.980 E28.03350
G1 X64.143 Y89.580 E28.11402
G1 X64.433 Y89.333 E28.15922
G1 X64.925 Y88.847 E28.24137
G1 X65.376 Y88.304 E28.32518
G1 X65.770 Y87.719 E28.40898
G1 X66.105 Y87.098 E28.49277
G1 X66.371 Y86.459 E28.57494
G1 X66.487 Y86.111 E28.61850
G1 X66.614 Y85.652 E28.67513
G1 X66.614 Y68.114 E30.75800
G1 X153.386 Y68.114 E41.06345
G1 X153.386 Y85.666 E43.14798
G1 X153.624 Y86.447 E43.24492
G1 X153.895 Y87.098 E43.32873
G1 X154.223 Y87.707 E43.41087
G1 X154.633 Y88.315 E43.49794
G1 X155.075 Y88.847 E43.58011
G1 X155.577 Y89.343 E43.66391
G1 X156.125 Y89.787 E43.74772
G1 X156.715 Y90.174 E43.83151
G1 X157.341 Y90.501 E43.91532
G1 X157.995 Y90.764 E43.99912
G1 X158.673 Y90.961 E44.08292
G1 X159.353 Y91.088 E44.16508
G1 X159.826 Y91.140 E44.22163
G1 X160.600 Y90.445 F7800.000
G1 F1800.000
G1 X160.600 Y129.555 E48.86650
G1 X159.783 Y129.584 E48.96363
G1 X159.457 Y129.619 E49.00251
G1 X158.838 Y129.734 E49.07729
G1 X158.229 Y129.912 E49.15267
G1 X157.640 Y130.149 E49.22805
G1 X157.082 Y130.440 E49.30285
G1 X156.804 Y130.613 E49.34172
G1 X156.299 Y130.981 E49.41593
G1 X156.050 Y131.193 E49.45481
G1 X155.602 Y131.636 E49.52960
G1 X155.196 Y132.124 E49.60498
G1 X154.842 Y132.651 E49.68036
G1 X154.541 Y133.209 E49.75573
G1 X154.298 Y133.791 E49.83053
G1 X154.197 Y134.097 E49.86882
G1 X154.100 Y134.445 E49.91181
G1 X154.100 Y152.600 E52.06793
G1 X65.900 Y152.600 E62.54302
G1 X65.900 Y134.445 E64.69914
G1 X65.803 Y134.097 E64.74213
G1 X65.702 Y133.791 E64.78042
G1 X65.459 Y133.209 E64.85522
G1 X65.158 Y132.651 E64.93059
G1 X64.804 Y132.124 E65.00597
G1 X64.398 Y131.636 E65.08135
G1 X63.950 Y131.193 E65.15614
G1 X63.701 Y130.981 E65.19502
G1 X63.196 Y130.613 E65.26923
G1 X62.918 Y130.440 E65.30809
G1 X62.363 Y130.150 E65.38252
G1 X61.771 Y129.912 E65.45827
G1 X61.162 Y129.734 E65.53366
G1 X60.543 Y129.619 E65.60844
G1 X60.217 Y129.584 E65.64732
G1 X59.400 Y129.555 E65.74445
G1 X59.400 Y90.445 E70.38932
G1 X60.217 Y90.416 E70.48644
G1 X60.543 Y90.381 E70.52532
G1 X61.162 Y90.266 E70.60011
G1 X61.771 Y90.088 E70.67549
G1 X62.360 Y89.851 E70.75087
G1 X62.918 Y89.560 E70.82567
G1 X63.196 Y89.387 E70.86453
G1 X63.701 Y89.019 E70.93874
G1 X63.950 Y88.807 E70.97762
G1 X64.398 Y88.364 E71.05241
G1 X64.804 Y87.876 E71.12780
G1 X65.158 Y87.349 E71.20317
G1 X65.459 Y86.791 E71.27855
G1 X65.702 Y86.209 E71.35334
G1 X65.803 Y85.903 E71.39164
G1 X65.900 Y85.554 E71.43462
G1 X65.900 Y67.400 E73.59075
G1 X154.100 Y67.400 E84.06583
G1 X154.100 Y85.560 E86.22256
G1 X154.296 Y86.205 E86.30265
G1 X154.541 Y86.791 E86.37804
G1 X154.839 Y87.345 E86.45282
G1 X155.013 Y87.617 E86.49111
G1 X155.200 Y87.879 E86.52939
G1 X155.602 Y88.364 E86.60419
G1 X156.053 Y88.810 E86.67957
G1 X156.547 Y89.209 E86.75495
G1 X157.077 Y89.557 E86.83033
G1 X157.640 Y89.851 E86.90572
G1 X158.229 Y90.088 E86.98109
G1 X158.838 Y90.266 E87.05648
G1 X159.457 Y90.381 E87.13126
G1 X159.783 Y90.416 E87.17014
G1 X160.540 Y90.443 E87.26014
G1 X160.394 Y90.788 F7800.000
G1 E85.26014 F2400.00000
G92 E0
G1 X158.587 Y91.508 F7800.000
G1 E2.00000 F2400.00000
G1 F1800.000
G1 X157.566 Y91.277 E2.09640
G1 F1800.000
G1 X157.021 Y91.151 E2.15575
G1 F1800.000
G1 X156.759 Y91.064 E2.18760
G1 F1800.000
G1 X156.484 Y90.967 E2.22554
G1 F1800.000
G1 X155.691 Y90.601 E2.34914
G1 E0.34914 F2400.00000
G92 E0
G1 X154.078 Y89.093 F7800.000
G1 E2.00000 F2400.00000
G1 F1800.000
G1 X153.653 Y88.329 E2.13252
G1 F1800.000
G1 X153.554 Y88.118 E2.16466
G1 F1800.000
G1 X153.484 Y87.938 E2.18942
G1 F1800.000
G1 X153.199 Y87.125 E2.29267
G1 F1800.000
G1 X152.971 Y86.462 E2.36883
G1 E0.36883 F2400.00000
G92 E0
G1 X158.587 Y128.492 F7800.000
G1 E2.00000 F2400.00000
G1 F1800.000
G1 X157.566 Y128.723 E2.09640
G1 F1800.000
G1 X157.021 Y128.849 E2.15575
G1 F1800.000
G1 X156.759 Y128.936 E2.18761
G1 F1800.000
G1 X156.484 Y129.033 E2.22555
G1 F1800.000
G1 X156.189 Y129.161 E2.27083
G1 F1800.000
G1 X155.585 Y129.461 E2.37375
G1 E0.37375 F2400.00000
G92 E0
G1 X154.075 Y130.904 F7800.000
G1 E2.00000 F2400.00000
G1 F1800.000
G1 X153.702 Y131.576 E2.11692
G1 F1800.000
G1 X153.583 Y131.814 E2.15505
G1 F1800.000
G1 X153.488 Y132.053 E2.18903
G1 F1800.000
G1 X153.199 Y132.875 E2.29372
G1 F1800.000
G1 X152.971 Y133.538 E2.36987
G1 E0.36987 F2400.00000
G92 E0
G1 X67.029 Y133.538 F7800.000
G1 E2.00000 F2400.00000
G1 F1800.000
G1 X66.574 Y132.212 E2.15230
G1 F1800.000
G1 X66.451 Y131.894 E2.19328
G1 F1800.000
G1 X66.357 Y131.695 E2.22173
G1 F1800.000
G1 X66.238 Y131.458 E2.25985
G1 F1800.000
G1 X65.925 Y130.904 E2.35658
G1 E0.35658 F2400.00000
G92 E0
G1 X64.415 Y129.461 F7800.000
G1 E2.00000 F2400.00000
G1 F1800.000
G1 X63.698 Y129.110 E2.12259
G1 F1800.000
G1 X63.372 Y128.979 E2.17254
G1 F1800.000
G1 X63.113 Y128.893 E2.20813
G1 F1800.000
G1 X62.948 Y128.840 E2.22817
G1 F1800.000
G1 X61.925 Y128.608 E2.33956
G1 F1800.000
G1 X61.414 Y128.492 E2.38790
G1 E0.38790 F2400.00000
G92 E0
G1 X61.413 Y91.508 F7800.000
G1 E2.00000 F2400.00000
G1 F1800.000
G1 X61.924 Y91.392 E2.04820
G1 F1800.000
G1 X62.944 Y91.161 E2.15914
G1 F1800.000
G1 X63.110 Y91.108 E2.17929
G1 F1800.000
G1 X63.372 Y91.021 E2.21520
G1 F1800.000
G1 X63.698 Y90.891 E2.26511
G1 F1800.000
G1 X64.415 Y90.539 E2.38776
G1 E0.38776 F2400.00000
G92 E0
G1 X65.925 Y89.096 F7800.000
G1 E2.00000 F2400.00000
G1 F1800.000
G1 X66.238 Y88.542 E2.09672
G1 F1800.000
G1 X66.357 Y88.305 E2.13484
G1 F1800.000
G1 X66.451 Y88.106 E2.16330
G1 F1800.000
G1 X66.574 Y87.788 E2.20427
G1 F1800.000
G1 X67.029 Y86.462 E2.35658
M104 S220 ; set temperature
M140 S80 ; set bed temperature
G1 Z0.700 F7800.000
G1 E0.35658 F2400.00000
G92 E0
G1 X159.036 Y91.927 F7800.000
G1 E2.00000 F2400.00000
G1 F3600.000
G1 X159.036 Y128.073 E3.88842
G1 X157.430 Y128.017 E3.97238
G1 X156.947 Y128.047 E3.99765
G1 X156.246 Y128.177 E4.03488
G1 X155.761 Y128.330 E4.06148
G1 X155.114 Y128.628 E4.09871
G1 X154.701 Y128.881 E4.12398
G1 X154.316 Y129.173 E4.14925
G1 X153.960 Y129.501 E4.17453
G1 X153.630 Y129.872 E4.20046
G1 X153.360 Y130.242 E4.22442
G1 X153.108 Y130.669 E4.25035
G1 X152.904 Y131.108 E4.27562
G1 X152.743 Y131.564 E4.30089
G1 X152.589 Y132.260 E4.33813
G1 X152.536 Y133.011 E4.37743
G1 X152.536 Y151.036 E5.31916
G1 X67.464 Y151.036 E9.76376
G1 X67.464 Y133.011 E10.70549
G1 X67.411 Y132.260 E10.74479
G1 X67.257 Y131.564 E10.78203
G1 X67.096 Y131.108 E10.80730
G1 X66.892 Y130.669 E10.83257
G1 X66.640 Y130.242 E10.85850
G1 X66.370 Y129.872 E10.88246
G1 X66.040 Y129.501 E10.90839
