; generated by Slic3r 1.3.1-dev (Build 18ddd3a36dc69d81fb9b7440498bff9e1dde8b7e) on 2021-07-12 at 16:33:49

; external perimeters extrusion width = 0.44mm (3.38mm^3/s)
; perimeters extrusion width = 0.48mm (7.54mm^3/s)
; infill extrusion width = 0.48mm (10.05mm^3/s)
; solid infill extrusion width = 0.48mm (2.51mm^3/s)
; top infill extrusion width = 0.48mm (1.88mm^3/s)

M107
G92 E0
M190 S85 ; set bed temperature and wait for it to be reached
M104 S225 ; set temperature
G28 ; home all axes
G1 Z5 F5000 ; lift nozzle

; Filament gcode

M109 S225 ; set temperature and wait for it to be reached
G21 ; set units to millimeters
G90 ; use absolute coordinates
M82 ; use absolute distances for extrusion
G92 E0
G1 Z0.400 F7800.000
G1 E-2.00000 F2400.00000
G92 E0
G1 X63.742 Y64.558 F7800.000
G1 E2.00000 F2400.00000
G1 F1800.000
G1 X65.819 Y63.547 E2.27422
G1 X67.674 Y63.286 E2.49679
G1 X150.674 Y63.286 E12.35430
G1 X152.949 Y63.683 E12.62852
G1 X154.954 Y64.827 E12.90275
G1 X156.454 Y66.583 E13.17697
G1 X157.045 Y67.879 E13.34620
G1 X164.541 Y90.399 E16.16508
G1 X164.885 Y92.520 E16.42021
G1 X164.885 Y126.520 E20.45823
G1 X164.615 Y128.404 E20.68430
G1 X157.749 Y151.884 E23.58967
G1 X156.730 Y153.956 E23.86389
G1 X155.069 Y155.560 E24.13812
G1 X152.963 Y156.506 E24.41234
G1 X151.305 Y156.714 E24.61077
G1 X68.305 Y156.714 E34.46828
G1 X66.031 Y156.317 E34.74251
G1 X64.025 Y155.173 E35.01673
G1 X62.526 Y153.417 E35.29096
G1 X61.833 Y151.785 E35.50154
G1 X55.357 Y128.305 E38.39424
G1 X55.115 Y126.520 E38.60818
G1 X55.115 Y92.520 E42.64620
G1 X55.331 Y90.833 E42.84815
G1 X61.175 Y68.313 E45.61136
G1 X62.131 Y66.211 E45.88559
G1 X63.700 Y64.601 E46.15269
G1 E44.15269 F2400.00000
G92 E0
G1 X149.476 Y148.172 F7800.000
G1 E2.00000 F2400.00000
G1 F1800.000
G1 X70.133 Y148.172 E11.42314
G1 X70.133 Y132.978 E13.22767
G1 X70.124 Y132.573 E13.27573
G1 X70.051 Y131.812 E13.36650
G1 X69.887 Y130.982 E13.46696
G1 X69.650 Y130.201 E13.56389
G1 X69.347 Y129.469 E13.65804
G1 X69.144 Y129.065 E13.71180
G1 X68.736 Y128.385 E13.80594
G1 X68.251 Y127.730 E13.90274
G1 X67.719 Y127.142 E13.99690
G1 X67.391 Y126.830 E14.05065
G1 X66.778 Y126.327 E14.14479
G1 X66.119 Y125.886 E14.23895
G1 X65.726 Y125.663 E14.29270
G1 X65.009 Y125.324 E14.38684
G1 X64.242 Y125.049 E14.48365
G1 X63.658 Y124.902 E14.55518
G1 X63.658 Y94.091 E18.21441
G1 X64.108 Y93.968 E18.26990
G1 X64.490 Y93.832 E18.31804
G1 X64.865 Y93.678 E18.36617
G1 X65.510 Y93.355 E18.45181
G1 X65.877 Y93.136 E18.50259
G1 X66.486 Y92.711 E18.59085
G1 X67.051 Y92.227 E18.67915
G1 X67.355 Y91.926 E18.72994
G1 X67.828 Y91.382 E18.81555
G1 X68.084 Y91.040 E18.86634
G1 X68.485 Y90.414 E18.95464
G1 X68.833 Y89.732 E19.04555
G1 X69.105 Y89.040 E19.13384
G1 X69.232 Y88.631 E19.18465
G1 X69.400 Y87.907 E19.27293
G1 X69.503 Y87.119 E19.36736
G1 X69.503 Y71.828 E21.18335
G1 X148.846 Y71.828 E30.60658
G1 X148.846 Y85.069 E32.17906
G1 X148.889 Y85.938 E32.28242
G1 X149.023 Y86.843 E32.39113
G1 X149.245 Y87.731 E32.49983
G1 X149.554 Y88.593 E32.60853
G1 X149.945 Y89.420 E32.71725
G1 X150.416 Y90.205 E32.82596
G1 X150.961 Y90.941 E32.93465
G1 X151.575 Y91.619 E33.04336
G1 X152.254 Y92.233 E33.15208
G1 X152.989 Y92.779 E33.26077
G1 X153.774 Y93.249 E33.36946
G1 X154.601 Y93.641 E33.47818
G1 X155.463 Y93.949 E33.58689
G1 X156.342 Y94.169 E33.69452
G1 X156.342 Y124.751 E37.32663
G1 X156.017 Y124.798 E37.36561
G1 X155.608 Y124.887 E37.41532
G1 X155.204 Y124.996 E37.46504
G1 X154.478 Y125.252 E37.55650
G1 X153.760 Y125.587 E37.65059
G1 X153.078 Y125.991 E37.74469
G1 X152.440 Y126.460 E37.83880
G1 X151.850 Y126.989 E37.93289
G1 X151.331 Y127.558 E38.02434
G1 X151.058 Y127.904 E38.07674
G1 X150.628 Y128.543 E38.16813
G1 X150.263 Y129.220 E38.25957
G1 X150.083 Y129.623 E38.31201
G1 X149.821 Y130.347 E38.40342
G1 X149.632 Y131.093 E38.49484
G1 X149.559 Y131.506 E38.54458
G1 X149.507 Y131.921 E38.59430
G1 X149.470 Y132.647 E38.68064
G1 X149.476 Y148.112 E40.51727
G1 X150.191 Y148.886 F7800.000
G1 F1800.000
G1 X69.419 Y148.886 E50.11008
G1 X69.419 Y132.986 E51.99838
G1 X69.410 Y132.616 E52.04242
G1 X69.344 Y131.915 E52.12595
G1 X69.193 Y131.156 E52.21793
G1 X68.977 Y130.442 E52.30649
G1 X68.697 Y129.766 E52.39335
G1 X68.517 Y129.409 E52.44086
G1 X68.142 Y128.782 E52.52771
G1 X67.698 Y128.183 E52.61619
G1 X67.207 Y127.641 E52.70306
G1 X66.917 Y127.365 E52.75056
G1 X66.352 Y126.901 E52.83742
G1 X65.744 Y126.494 E52.92429
G1 X65.396 Y126.297 E52.97179
G1 X64.735 Y125.984 E53.05864
G1 X64.034 Y125.733 E53.14713
G1 X63.325 Y125.555 E53.23400
G1 X62.944 Y125.488 E53.27992
G1 X62.944 Y93.517 E57.07701
G1 X63.236 Y93.467 E57.11224
G1 X63.894 Y93.286 E57.19326
G1 X64.569 Y93.027 E57.27913
G1 X65.167 Y92.728 E57.35856
G1 X65.489 Y92.536 E57.40312
G1 X66.048 Y92.145 E57.48413
G1 X66.567 Y91.702 E57.56517
G1 X66.833 Y91.437 E57.60974
G1 X67.272 Y90.933 E57.68913
G1 X67.497 Y90.633 E57.73370
G1 X67.865 Y90.058 E57.81474
G1 X68.181 Y89.438 E57.89736
G1 X68.431 Y88.803 E57.97840
G1 X68.542 Y88.445 E58.02298
G1 X68.696 Y87.780 E58.10400
G1 X68.788 Y87.072 E58.18877
G1 X68.788 Y71.114 E60.08406
G1 X149.560 Y71.114 E69.67692
G1 X149.560 Y85.051 E71.33214
G1 X149.600 Y85.868 E71.42925
G1 X149.724 Y86.704 E71.52963
G1 X149.930 Y87.524 E71.63000
G1 X150.214 Y88.319 E71.73037
G1 X150.576 Y89.083 E71.83074
G1 X151.010 Y89.808 E71.93112
G1 X151.514 Y90.487 E72.03148
G1 X152.081 Y91.113 E72.13186
G1 X152.707 Y91.681 E72.23223
G1 X153.386 Y92.184 E72.33260
G1 X154.111 Y92.619 E72.43296
G1 X154.875 Y92.980 E72.53334
G1 X155.671 Y93.265 E72.63372
G1 X156.491 Y93.470 E72.73409
G1 X157.056 Y93.554 E72.80203
G1 X157.056 Y125.392 E76.58331
G1 X156.845 Y125.401 E76.60841
G1 X156.144 Y125.501 E76.69254
G1 X155.778 Y125.581 E76.73703
G1 X155.416 Y125.679 E76.78154
G1 X154.748 Y125.914 E76.86567
G1 X154.094 Y126.219 E76.95141
G1 X153.473 Y126.587 E77.03716
G1 X152.891 Y127.015 E77.12291
G1 X152.354 Y127.497 E77.20864
G1 X151.876 Y128.020 E77.29277
G1 X151.636 Y128.325 E77.33891
G1 X151.240 Y128.912 E77.42300
G1 X150.904 Y129.536 E77.50712
G1 X150.745 Y129.891 E77.55329
G1 X150.505 Y130.557 E77.63739
G1 X150.331 Y131.243 E77.72150
G1 X150.266 Y131.613 E77.76602
G1 X150.219 Y131.984 E77.81052
G1 X150.184 Y132.666 E77.89154
G1 X150.191 Y148.826 E79.81082
G1 X150.905 Y149.600 F7800.000
G1 F1800.000
G1 X68.705 Y149.600 E89.57330
G1 X68.705 Y132.995 E91.54538
G1 X68.697 Y132.658 E91.58539
G1 X68.636 Y132.019 E91.66169
G1 X68.500 Y131.329 E91.74520
G1 X68.304 Y130.683 E91.82538
G1 X68.047 Y130.064 E91.90495
G1 X67.891 Y129.754 E91.94621
G1 X67.547 Y129.179 E92.02578
G1 X67.145 Y128.637 E92.10594
G1 X66.695 Y128.140 E92.18551
G1 X66.444 Y127.900 E92.22677
G1 X65.926 Y127.475 E92.30634
G1 X65.369 Y127.103 E92.38592
G1 X65.067 Y126.931 E92.42717
G1 X64.461 Y126.645 E92.50674
G1 X63.826 Y126.417 E92.58690
G1 X63.176 Y126.254 E92.66648
G1 X62.834 Y126.194 E92.70773
G1 X62.229 Y126.134 E92.77988
G1 X62.229 Y92.892 E96.72790
G1 X62.463 Y92.875 E96.75576
G1 X63.080 Y92.769 E96.83011
G1 X63.679 Y92.604 E96.90387
G1 X63.979 Y92.498 E96.94164
G1 X64.273 Y92.377 E96.97940
G1 X64.824 Y92.101 E97.05260
G1 X65.102 Y91.936 E97.09094
G1 X65.611 Y91.580 E97.16471
G1 X66.083 Y91.176 E97.23849
G1 X66.312 Y90.949 E97.27683
G1 X66.716 Y90.484 E97.35001
G1 X66.910 Y90.225 E97.38836
G1 X67.245 Y89.702 E97.46213
G1 X67.529 Y89.145 E97.53647
G1 X67.757 Y88.567 E97.61025
G1 X67.852 Y88.258 E97.64860
G1 X67.992 Y87.653 E97.72237
G1 X68.074 Y87.026 E97.79748
G1 X68.074 Y70.400 E99.77207
G1 X150.274 Y70.400 E109.53457
G1 X150.274 Y85.034 E111.27252
G1 X150.312 Y85.798 E111.36338
G1 X150.425 Y86.564 E111.45542
G1 X150.614 Y87.316 E111.54746
G1 X150.875 Y88.046 E111.63950
G1 X151.206 Y88.746 E111.73154
G1 X151.605 Y89.411 E111.82358
G1 X152.066 Y90.033 E111.91561
G1 X152.587 Y90.608 E112.00765
G1 X153.161 Y91.128 E112.09969
G1 X153.783 Y91.590 E112.19173
G1 X154.448 Y91.988 E112.28376
G1 X155.149 Y92.319 E112.37580
G1 X155.878 Y92.580 E112.46785
G1 X156.630 Y92.769 E112.55988
G1 X157.397 Y92.882 E112.65192
G1 X157.771 Y92.901 E112.69639
G1 X157.771 Y126.076 E116.63650
G1 X156.911 Y126.113 E116.73870
G1 X156.271 Y126.204 E116.81550
G1 X155.628 Y126.361 E116.89405
G1 X155.018 Y126.576 E116.97086
G1 X154.428 Y126.851 E117.04824
G1 X153.867 Y127.184 E117.12564
G1 X153.342 Y127.569 E117.20302
G1 X152.857 Y128.005 E117.28041
G1 X152.421 Y128.482 E117.35722
G1 X152.213 Y128.746 E117.39709
G1 X151.852 Y129.282 E117.47388
G1 X151.545 Y129.852 E117.55069
G1 X151.408 Y130.158 E117.59058
G1 X151.188 Y130.766 E117.66738
G1 X151.030 Y131.393 E117.74418
G1 X150.972 Y131.719 E117.78347
G1 X150.931 Y132.047 E117.82276
G1 X150.898 Y132.684 E117.89845
G1 X150.905 Y149.540 E119.90039
G1 X150.559 Y149.400 F7800.000
G1 E117.90039 F2400.00000
G92 E0
G1 X148.484 Y147.735 F7800.000
G1 E2.00000 F2400.00000
G1 F1800.000
G1 X149.039 Y147.180 E2.09391
G1 X149.039 Y146.164 E2.21531
G1 X147.468 Y147.735 E2.48091
G1 X146.451 Y147.735 E2.60237
G1 X149.039 Y145.148 E3.03966
G1 X149.038 Y144.132 E3.16107
G1 X145.435 Y147.735 E3.77006
G1 X144.419 Y147.735 E3.89151
G1 X149.038 Y143.116 E4.67219
G1 X149.037 Y142.100 E4.79360
G1 X143.402 Y147.735 E5.74597
G1 X142.386 Y147.735 E5.86743
G1 X149.037 Y141.084 E6.99150
G1 X149.037 Y140.068 E7.11291
G1 X141.370 Y147.735 E8.40867
G1 X140.353 Y147.735 E8.53012
G1 X149.036 Y139.053 E9.99758
G1 X149.036 Y138.037 E10.11899
G1 X139.337 Y147.735 E11.75814
G1 X138.321 Y147.735 E11.87960
G1 X149.035 Y137.021 E13.69044
G1 X149.035 Y136.005 E13.81185
G1 X137.305 Y147.735 E15.79439
G1 X136.288 Y147.735 E15.91584
G1 X149.035 Y134.989 E18.07008
G1 X149.034 Y133.973 E18.19148
G1 X135.272 Y147.735 E20.51741
G1 X134.256 Y147.735 E20.63887
G1 X149.034 Y132.957 E23.13649
G1 X149.033 Y132.351 E23.20890
G1 X149.056 Y131.919 E23.26064
G1 X133.239 Y147.735 E25.93374
G1 X132.223 Y147.735 E26.05519
G1 X149.194 Y130.765 E28.92336
G1 X149.415 Y129.860 E29.03468
G1 X149.604 Y129.339 E29.10094
G1 X131.207 Y147.735 E32.21016
G1 X130.191 Y147.735 E32.33162
G1 X150.899 Y127.027 E35.83145
G1 X150.343 Y127.583 F7800.000
G1 F1800.000
G1 X150.508 Y127.373 E35.86336
G1 X151.069 Y126.759 E35.96274
G1 X151.711 Y126.183 E36.06583
G1 X151.833 Y126.093 E36.08392
G1 X155.906 Y122.020 E36.77230
G1 X155.906 Y123.036 E36.89376
G1 X154.153 Y124.789 E37.18996
G1 E35.18996 F2400.00000
G92 E0
G1 X129.174 Y147.735 F7800.000
G1 E2.00000 F2400.00000
G1 F1800.000
G1 X155.906 Y121.004 E6.51789
G1 X155.906 Y119.987 E6.63934
G1 X128.158 Y147.735 E11.32899
G1 X127.142 Y147.735 E11.45044
G1 X155.906 Y118.971 E16.31186
G1 X155.906 Y117.955 E16.43331
G1 X126.125 Y147.735 E21.46648
G1 X125.109 Y147.735 E21.58794
G1 X155.906 Y116.939 E26.79288
G1 X155.906 Y115.922 E26.91433
G1 X124.093 Y147.735 E32.29103
G1 X123.077 Y147.735 E32.41248
G1 X155.906 Y114.906 E37.96095
G1 X155.906 Y113.890 E38.08240
G1 X122.060 Y147.735 E43.80263
G1 X121.044 Y147.735 E43.92408
G1 X155.906 Y112.873 E49.81607
G1 X155.906 Y111.857 E49.93752
G1 X120.028 Y147.735 E56.00127
G1 X119.011 Y147.735 E56.12273
G1 X155.906 Y110.841 E62.35824
G1 X155.906 Y109.825 E62.47969
G1 X117.995 Y147.735 E68.88697
G1 X116.979 Y147.735 E69.00842
G1 X155.906 Y108.808 E75.58746
G1 X155.906 Y107.792 E75.70892
G1 X115.963 Y147.735 E82.45972
G1 X114.946 Y147.735 E82.58117
G1 X155.906 Y106.776 E89.50373
G1 X155.906 Y105.759 E89.62519
G1 X113.930 Y147.735 E96.71951
G1 X112.914 Y147.735 E96.84097
G1 X155.906 Y104.743 E104.10706
G1 X155.906 Y103.727 E104.22851
G1 X111.897 Y147.735 E111.66636
G1 X110.881 Y147.735 E111.78782
G1 X155.906 Y102.711 E119.39743
G1 X155.906 Y101.694 E119.51889
G1 X109.865 Y147.735 E127.30026
G1 X108.849 Y147.735 E127.42172
G1 X155.906 Y100.678 E135.37486
G1 X155.906 Y99.662 E135.49631
G1 X107.832 Y147.735 E143.62121
G1 X106.816 Y147.735 E143.74267
G1 X155.906 Y98.645 E152.03933
G1 X155.906 Y97.629 E152.16079
G1 X105.800 Y147.735 E160.62921
G1 X104.783 Y147.735 E160.75067
G1 X155.906 Y96.613 E169.39086
G1 X155.906 Y95.597 E169.51231
G1 X103.767 Y147.735 E178.32426
G1 X102.751 Y147.735 E178.44572
G1 X155.906 Y94.580 E187.42943
G1 X155.906 Y94.449 E187.44516
G1 X155.533 Y94.355 E187.49104
G1 X155.225 Y94.245 E187.53021
G1 X101.734 Y147.735 E196.57058
G1 X100.718 Y147.735 E196.69204
G1 X154.486 Y93.967 E205.77938
G1 X153.796 Y93.641 E205.87059
G1 X99.702 Y147.735 E215.01309
G1 X98.686 Y147.735 E215.13455
G1 X153.155 Y93.266 E224.34033
G1 X152.869 Y93.095 E224.38006
G1 X152.548 Y92.857 E224.42792
G1 X97.669 Y147.735 E233.70290
G1 X96.653 Y147.735 E233.82435
G1 X151.974 Y92.414 E243.17413
G1 X151.441 Y91.931 E243.26012
G1 X95.637 Y147.735 E252.69155
G1 X94.620 Y147.735 E252.81301
G1 X150.949 Y91.407 E262.33307
G1 X150.686 Y91.116 E262.37991
G1 X150.489 Y90.851 E262.41944
G1 X93.604 Y147.735 E272.03348
G1 X92.588 Y147.735 E272.15494
G1 X150.061 Y90.262 E281.86848
G1 X149.680 Y89.627 E281.95701
G1 X91.572 Y147.735 E291.77793
G1 X90.555 Y147.735 E291.89938
G1 X149.341 Y88.949 E301.83479
G1 X149.171 Y88.589 E301.88246
G1 X149.043 Y88.231 E301.92781
G1 X89.539 Y147.735 E311.98455
G1 X88.523 Y147.735 E312.10600
G1 X148.790 Y87.468 E322.29182
G1 X148.591 Y86.650 E322.39233
G1 X87.506 Y147.735 E332.71626
G1 X86.490 Y147.735 E332.83771
G1 X148.460 Y85.765 E343.31122
G1 X148.410 Y84.800 E343.42680
G1 X85.474 Y147.735 E354.06353
G1 X84.458 Y147.735 E354.18498
G1 X148.410 Y83.783 E364.99348
G1 X148.410 Y82.767 E365.11493
G1 X83.441 Y147.735 E376.09519
G1 X82.425 Y147.735 E376.21665
G1 X148.410 Y81.751 E387.36867
G1 X148.410 Y80.734 E387.49012
G1 X81.409 Y147.735 E398.81390
G1 X80.392 Y147.735 E398.93536
G1 X148.410 Y79.718 E410.43090
G1 X148.410 Y78.702 E410.55236
G1 X79.376 Y147.735 E422.21967
G1 X78.360 Y147.735 E422.34112
G1 X148.410 Y77.686 E434.18019
G1 X148.410 Y76.669 E434.30165
G1 X77.344 Y147.735 E446.31248
G1 X76.327 Y147.735 E446.43393
G1 X148.410 Y75.653 E458.61653
G1 X148.410 Y74.637 E458.73798
G1 X75.311 Y147.735 E471.09234
G1 X74.295 Y147.735 E471.21380
G1 X148.410 Y73.620 E483.73992
G1 X148.410 Y72.604 E483.86137
G1 X73.278 Y147.735 E496.55926
G1 X72.262 Y147.735 E496.68071
G1 X147.733 Y72.265 E509.43597
G1 X146.716 Y72.265 E509.55742
G1 X71.246 Y147.735 E522.31267
G1 X70.570 Y147.735 E522.39345
G1 X70.570 Y147.395 E522.43413
G1 X145.700 Y72.265 E535.13186
G1 X144.684 Y72.265 E535.25331
G1 X70.570 Y146.379 E547.77928
G1 X70.570 Y145.362 E547.90073
G1 X143.668 Y72.265 E560.25494
G1 X142.651 Y72.265 E560.37639
G1 X70.570 Y144.346 E572.55884
G1 X70.570 Y143.330 E572.68029
G1 X141.635 Y72.265 E584.69097
G1 X140.619 Y72.265 E584.81243
G1 X70.570 Y142.313 E596.65134
G1 X70.570 Y141.297 E596.77280
G1 X139.602 Y72.265 E608.43995
G1 X138.586 Y72.265 E608.56141
G1 X70.570 Y140.281 E620.05680
G1 X70.570 Y139.265 E620.17825
G1 X137.570 Y72.265 E631.50188
G1 X136.554 Y72.265 E631.62334
G1 X70.570 Y138.248 E642.77520
G1 X70.570 Y137.232 E642.89666
G1 X135.537 Y72.265 E653.87676
G1 X134.521 Y72.265 E653.99822
G1 X70.570 Y136.216 E664.80656
G1 X70.570 Y135.199 E664.92801
G1 X133.505 Y72.265 E675.56459
G1 X132.488 Y72.265 E675.68605
G1 X70.570 Y134.183 E686.15087
G1 X70.568 Y133.169 E686.27209
G1 X131.472 Y72.265 E696.56547
G1 X130.456 Y72.265 E696.68692
G1 X70.503 Y132.218 E706.81953
G1 X70.481 Y131.987 E706.84725
G1 X70.355 Y131.349 E706.92490
G1 X129.439 Y72.265 E716.91075
G1 X128.423 Y72.265 E717.03220
G1 X70.140 Y130.548 E726.88267
G1 X70.046 Y130.238 E726.92136
G1 X69.866 Y129.805 E726.97739
G1 X127.407 Y72.265 E736.70228
G1 X126.391 Y72.265 E736.82373
G1 X69.547 Y129.108 E746.43078
G1 X69.173 Y128.466 E746.51960
G1 X125.374 Y72.265 E756.01813
