; generated by Slic3r 1.3.1-dev (Build 18ddd3a36dc69d81fb9b7440498bff9e1dde8b7e) on 2021-07-12 at 21:29:46

; external perimeters extrusion width = 0.44mm (3.38mm^3/s)
; perimeters extrusion width = 0.48mm (7.54mm^3/s)
; infill extrusion width = 0.48mm (10.05mm^3/s)
; solid infill extrusion width = 0.48mm (2.51mm^3/s)
; top infill extrusion width = 0.48mm (1.88mm^3/s)

M107
G92 E0
M190 S85 ; set bed temperature and wait for it to be reached
M104 S225 ; set temperature
G28 ; home all axes
G1 Z5 F5000 ; lift nozzle

; Filament gcode

M109 S225 ; set temperature and wait for it to be reached
G21 ; set units to millimeters
G90 ; use absolute coordinates
M82 ; use absolute distances for extrusion
G92 E0
G1 Z0.400 F7800.000
G1 E-2.00000 F2400.00000
G92 E0
G1 X60.195 Y62.884 F7800.000
G1 E2.00000 F2400.00000
G1 F1800.000
G1 X61.903 Y61.331 E2.27422
G1 X64.037 Y60.447 E2.54845
G1 X65.500 Y60.286 E2.72331
G1 X154.500 Y60.286 E13.29341
G1 X156.775 Y60.683 E13.56763
G1 X158.780 Y61.827 E13.84186
G1 X160.280 Y63.583 E14.11608
G1 X160.885 Y64.925 E14.29094
G1 X167.385 Y84.925 E16.78854
G1 X167.714 Y87.000 E17.03809
G1 X167.714 Y133.000 E22.50128
G1 X167.385 Y135.075 E22.75083
G1 X160.885 Y155.075 E25.24843
G1 X159.805 Y157.116 E25.52265
G1 X158.097 Y158.669 E25.79688
G1 X155.963 Y159.553 E26.07110
G1 X154.500 Y159.714 E26.24596
G1 X65.500 Y159.714 E36.81606
G1 X63.225 Y159.317 E37.09029
G1 X61.220 Y158.173 E37.36451
G1 X59.720 Y156.417 E37.63874
G1 X59.115 Y155.075 E37.81359
G1 X52.615 Y135.075 E40.31120
G1 X52.286 Y133.000 E40.56074
G1 X52.286 Y87.000 E46.02394
G1 X52.615 Y84.925 E46.27348
G1 X59.115 Y64.925 E48.77108
G1 X60.167 Y62.937 E49.03818
G1 E47.03818 F2400.00000
G92 E0
G1 X152.309 Y151.114 F7800.000
G1 E2.00000 F2400.00000
G1 F1800.000
G1 X67.691 Y151.114 E12.04977
G1 X60.886 Y130.177 E14.66447
G1 X60.886 Y89.823 E19.45700
G1 X67.691 Y68.886 E22.07169
G1 X152.309 Y68.886 E32.12147
G1 X159.114 Y89.823 E34.73616
G1 X159.114 Y130.177 E39.52869
G1 X152.328 Y151.057 E42.13626
G1 X151.791 Y150.400 F7800.000
G1 F1800.000
G1 X68.209 Y150.400 E52.06280
G1 X61.600 Y130.063 E54.60244
G1 X61.600 Y89.937 E59.36810
G1 X68.209 Y69.600 E61.90774
G1 X151.791 Y69.600 E71.83427
G1 X158.400 Y89.937 E74.37391
G1 X158.400 Y130.063 E79.13957
G1 X151.809 Y150.343 E81.67208
G1 X151.776 Y150.800 F7800.000
G1 E79.67208 F2400.00000
G92 E0
G1 X153.691 Y151.886 F7800.000
G1 E2.00000 F2400.00000
G1 F1800.000
G1 X66.309 Y151.886 E12.37784
G1 X60.114 Y132.823 E14.75835
G1 X60.114 Y87.177 E20.17962
G1 X66.309 Y68.114 E22.56012
G1 X153.691 Y68.114 E32.93796
G1 X159.886 Y87.177 E35.31847
G1 X159.886 Y132.823 E40.73974
G1 X153.709 Y151.829 E43.11312
G1 X154.209 Y152.600 F7800.000
G1 F1800.000
G1 X65.791 Y152.600 E53.61420
G1 X59.400 Y132.937 E56.06976
G1 X59.400 Y87.063 E61.51791
G1 X65.791 Y67.400 E63.97347
G1 X154.209 Y67.400 E74.47455
G1 X160.600 Y87.063 E76.93011
G1 X160.600 Y132.937 E82.37825
G1 X154.228 Y152.543 E84.82669
G1 X153.870 Y152.389 F7800.000
G1 X152.991 Y151.529 F7800.000
G1 F1800.000
G1 X159.110 Y132.701 E87.30268
G1 X159.135 Y132.541 E87.32285
G1 F1800.000
G1 X159.186 Y132.223 E87.35788
G1 F1800.000
G1 X159.236 Y131.904 E87.38760
G1 F1800.000
G1 X159.286 Y131.586 E87.41202
G1 F1800.000
G1 X159.337 Y131.267 E87.43113
G1 F1800.000
G1 X159.387 Y130.949 E87.44493
G1 F1800.000
G1 X159.438 Y130.630 E87.45344
G1 F1800.000
G1 X159.488 Y130.312 E87.45663
G1 E85.45663 F2400.00000
G92 E0
G1 X159.488 Y89.688 F7800.000
G1 E2.00000 F2400.00000
G1 F1800.000
G1 X159.438 Y89.370 E2.00320
G1 F1800.000
G1 X159.387 Y89.051 E2.01170
G1 F1800.000
G1 X159.337 Y88.733 E2.02551
G1 F1800.000
G1 X159.286 Y88.414 E2.04462
G1 F1800.000
G1 X159.236 Y88.096 E2.06904
G1 F1800.000
G1 X159.186 Y87.777 E2.09876
G1 F1800.000
G1 X159.135 Y87.459 E2.13379
G1 F1800.000
G1 X159.110 Y87.299 E2.15395
G1 X152.991 Y68.471 E4.62995
G1 E2.62995 F2400.00000
G92 E0
G1 X67.009 Y68.471 F7800.000
G1 E2.00000 F2400.00000
G1 F1800.000
G1 X60.890 Y87.299 E4.47598
G1 X60.840 Y87.618 E4.51632
G1 F1800.000
G1 X60.789 Y87.936 E4.55134
G1 F1800.000
G1 X60.739 Y88.255 E4.58107
G1 F1800.000
G1 X60.688 Y88.574 E4.60548
G1 F1800.000
G1 X60.638 Y88.892 E4.62460
G1 F1800.000
G1 X60.587 Y89.211 E4.63840
G1 F1800.000
G1 X60.537 Y89.529 E4.64691
G1 F1800.000
G1 X60.512 Y89.688 E4.64850
G1 E2.64850 F2400.00000
G92 E0
G1 X60.512 Y130.312 F7800.000
G1 E2.00000 F2400.00000
G1 F1800.000
G1 X60.537 Y130.471 E2.00160
G1 F1800.000
G1 X60.587 Y130.789 E2.01010
G1 F1800.000
G1 X60.638 Y131.108 E2.02391
G1 F1800.000
G1 X60.688 Y131.426 E2.04302
G1 F1800.000
G1 X60.739 Y131.745 E2.06744
G1 F1800.000
G1 X60.789 Y132.064 E2.09716
G1 F1800.000
G1 X60.840 Y132.382 E2.13219
G1 F1800.000
G1 X60.890 Y132.701 E2.17252
G1 X67.009 Y151.529 E4.64851
M104 S220 ; set temperature
M140 S80 ; set bed temperature
G1 Z0.700 F7800.000
G1 X152.253 Y151.036 F7800.000
G1 F3600.000
G1 X67.747 Y151.036 E9.06349
G1 X60.964 Y130.164 E10.21009
G1 X60.964 Y89.836 E12.31704
G1 X67.747 Y68.964 E13.46364
G1 X152.253 Y68.964 E17.87862
G1 X159.036 Y89.836 E19.02522
G1 X159.036 Y130.164 E21.13216
G1 X152.271 Y150.979 E22.27563
G1 X151.948 Y150.617 F7800.000
G1 F3600.000
G1 X68.052 Y150.617 E26.65881
G1 X61.383 Y130.098 E27.78604
G1 X61.383 Y89.902 E29.88606
G1 X68.052 Y69.383 E31.01329
G1 X151.948 Y69.383 E35.39647
G1 X158.617 Y89.902 E36.52371
G1 X158.617 Y130.098 E38.62372
G1 X151.967 Y150.560 E39.74782
G1 X151.660 Y150.220 F7800.000
G1 F1800.000
G1 X68.340 Y150.220 E43.65129
G1 X61.780 Y130.035 E44.64564
G1 X61.780 Y89.965 E46.52288
G1 X68.340 Y69.780 E47.51723
G1 X151.660 Y69.780 E51.42070
G1 X158.220 Y89.965 E52.41505
G1 X158.220 Y130.035 E54.29228
G1 X151.678 Y150.163 E55.28382
G1 X151.645 Y150.620 F7800.000
G1 X153.747 Y151.964 F7800.000
G1 F3600.000
G1 X66.253 Y151.964 E59.85497
G1 X60.036 Y132.836 E60.90576
G1 X60.036 Y87.164 E63.29187
G1 X66.253 Y68.036 E64.34267
G1 X153.747 Y68.036 E68.91381
G1 X159.964 Y87.164 E69.96461
G1 X159.964 Y132.836 E72.35072
G1 X153.766 Y151.907 E73.39838
G1 X154.052 Y152.383 F7800.000
G1 F3600.000
G1 X65.948 Y152.383 E78.00132
G1 X59.617 Y132.902 E79.07148
G1 X59.617 Y87.098 E81.46453
G1 X65.948 Y67.617 E82.53469
G1 X154.052 Y67.617 E87.13763
G1 X160.383 Y87.098 E88.20779
G1 X160.383 Y132.902 E90.60084
G1 X154.070 Y152.326 E91.66786
G1 X154.340 Y152.780 F7800.000
G1 F1800.000
G1 X65.660 Y152.780 E95.82248
G1 X59.220 Y132.965 E96.79859
G1 X59.220 Y87.035 E98.95039
G1 X65.660 Y67.220 E99.92650
G1 X154.340 Y67.220 E104.08111
G1 X160.780 Y87.035 E105.05722
G1 X160.780 Y132.965 E107.20903
G1 X154.359 Y152.723 E108.18232
G1 X154.000 Y152.569 F7800.000
G1 X152.578 Y151.382 F7800.000
G1 F1200.000
G1 X152.904 Y151.708 E108.20655
G1 X153.500 Y151.708 E108.23786
G1 X152.578 Y150.786 E108.30636
G1 X152.578 Y150.726 E108.30953
G1 X152.710 Y150.322 E108.33186
G1 X153.726 Y151.338 E108.40741
G1 X153.872 Y150.889 E108.43225
G1 X152.856 Y149.872 E108.50780
G1 X153.002 Y149.422 E108.53264
G1 X154.018 Y150.439 E108.60819
G1 X154.164 Y149.989 E108.63304
G1 X153.148 Y148.973 E108.70858
G1 X153.294 Y148.523 E108.73343
G1 X154.311 Y149.539 E108.80897
G1 X154.457 Y149.090 E108.83382
G1 X153.440 Y148.073 E108.90936
G1 X153.586 Y147.624 E108.93421
G1 X154.603 Y148.640 E109.00975
G1 X154.749 Y148.190 E109.03460
G1 X153.733 Y147.174 E109.11014
G1 X153.879 Y146.724 E109.13499
G1 X154.895 Y147.741 E109.21053
G1 X155.041 Y147.291 E109.23538
G1 X154.025 Y146.274 E109.31093
G1 X154.171 Y145.825 E109.33577
G1 X155.188 Y146.841 E109.41132
G1 X155.334 Y146.392 E109.43616
G1 X154.317 Y145.375 E109.51171
G1 X154.463 Y144.925 E109.53655
G1 X155.480 Y145.942 E109.61210
G1 X155.626 Y145.492 E109.63695
G1 X154.609 Y144.476 E109.71249
G1 X154.756 Y144.026 E109.73734
G1 X155.772 Y145.043 E109.81288
G1 X155.918 Y144.593 E109.83773
G1 X154.902 Y143.576 E109.91327
G1 X155.048 Y143.127 E109.93812
G1 X156.064 Y144.143 E110.01366
G1 X156.211 Y143.694 E110.03851
G1 X155.194 Y142.677 E110.11405
G1 X155.340 Y142.227 E110.13890
G1 X156.357 Y143.244 E110.21445
G1 X156.503 Y142.794 E110.23929
G1 X155.486 Y141.778 E110.31484
G1 X155.632 Y141.328 E110.33968
G1 X156.649 Y142.344 E110.41523
G1 X156.795 Y141.895 E110.44008
G1 X155.779 Y140.878 E110.51562
G1 X155.925 Y140.429 E110.54047
G1 X156.941 Y141.445 E110.61601
G1 X157.087 Y140.995 E110.64086
G1 X156.071 Y139.979 E110.71640
G1 X156.217 Y139.529 E110.74125
G1 X157.234 Y140.546 E110.81679
G1 X157.380 Y140.096 E110.84164
G1 X156.363 Y139.080 E110.91718
G1 X156.509 Y138.630 E110.94203
G1 X157.526 Y139.646 E111.01758
G1 X157.672 Y139.197 E111.04242
G1 X156.655 Y138.180 E111.11797
G1 X156.802 Y137.730 E111.14281
G1 X157.818 Y138.747 E111.21836
G1 X157.964 Y138.297 E111.24320
G1 X156.948 Y137.281 E111.31875
G1 X157.094 Y136.831 E111.34360
G1 X158.110 Y137.848 E111.41914
G1 X158.257 Y137.398 E111.44399
G1 X157.240 Y136.381 E111.51953
G1 X157.386 Y135.932 E111.54438
G1 X158.403 Y136.948 E111.61992
G1 X158.549 Y136.499 E111.64477
G1 X157.532 Y135.482 E111.72031
G1 X157.679 Y135.032 E111.74516
G1 X158.695 Y136.049 E111.82070
G1 X158.841 Y135.599 E111.84555
G1 X157.825 Y134.583 E111.92110
G1 X157.971 Y134.133 E111.94594
G1 X158.987 Y135.150 E112.02149
G1 X159.133 Y134.700 E112.04633
G1 X158.117 Y133.683 E112.12188
G1 X158.263 Y133.234 E112.14673
G1 X159.280 Y134.250 E112.22227
G1 X159.426 Y133.800 E112.24712
G1 X158.409 Y132.784 E112.32266
G1 X158.555 Y132.334 E112.34751
G1 X159.572 Y133.351 E112.42305
G1 X159.708 Y132.891 E112.44825
G1 X158.702 Y131.885 E112.52304
G1 X158.848 Y131.435 E112.54789
G1 X159.708 Y132.295 E112.61181
G1 X159.708 Y131.699 E112.64313
G1 X158.994 Y130.985 E112.69619
G1 X159.027 Y130.882 E112.70188
G1 X159.069 Y130.939 E112.70560
G1 X159.150 Y130.880 E112.71087
G1 X159.173 Y130.911 E112.71289
G1 X159.370 Y130.766 E112.72577
G1 X159.697 Y131.093 E112.75005
G1 X159.217 Y130.376 F7800.000
G1 F1200.000
G1 X159.298 Y130.316 E112.75363
G1 F1200.000
G1 X159.459 Y130.197 E112.76272
G1 F1200.000
G1 X159.500 Y130.163 E112.76567
G1 X159.500 Y89.837 E115.00127
G1 X159.480 Y89.820 E115.00275
G1 F1200.000
G1 X159.379 Y89.743 E115.00850
G1 F1200.000
G1 X159.217 Y89.624 E115.01565
G1 X159.027 Y88.792 F7800.000
G1 F1200.000
G1 X159.353 Y89.118 E115.04064
G1 X159.395 Y89.061 E115.04448
G1 X159.557 Y89.179 E115.05534
G1 X159.584 Y89.142 E115.05784
G1 X159.708 Y89.237 E115.06630
G1 X159.708 Y88.858 E115.08687
G1 X158.731 Y87.881 E115.16175
G1 X158.435 Y86.970 E115.21366
G1 X159.708 Y88.243 E115.31122
G1 X159.708 Y87.628 E115.34455
G1 X158.139 Y86.060 E115.46480
G1 X157.843 Y85.149 E115.51671
G1 X159.525 Y86.831 E115.64564
G1 X159.229 Y85.920 E115.69755
G1 X157.547 Y84.238 E115.82647
G1 X157.251 Y83.328 E115.87838
G1 X158.933 Y85.009 E116.00731
G1 X158.637 Y84.099 E116.05922
G1 X156.956 Y82.417 E116.18814
G1 X156.660 Y81.507 E116.24005
G1 X158.341 Y83.188 E116.36898
G1 X158.045 Y82.278 E116.42089
G1 X156.364 Y80.596 E116.54981
G1 X156.068 Y79.685 E116.60172
G1 X157.749 Y81.367 E116.73065
G1 X157.453 Y80.456 E116.78255
G1 X155.772 Y78.775 E116.91148
G1 X155.476 Y77.864 E116.96339
G1 X157.157 Y79.546 E117.09232
G1 X156.861 Y78.635 E117.14422
G1 X155.180 Y76.953 E117.27315
G1 X154.884 Y76.043 E117.32506
G1 X156.566 Y77.724 E117.45398
G1 X156.270 Y76.814 E117.50589
G1 X154.588 Y75.132 E117.63482
G1 X154.292 Y74.221 E117.68673
G1 X155.974 Y75.903 E117.81565
G1 X155.678 Y74.993 E117.86756
G1 X153.996 Y73.311 E117.99649
G1 X153.700 Y72.400 E118.04840
G1 X155.382 Y74.082 E118.17732
G1 X155.086 Y73.171 E118.22923
G1 X153.404 Y71.490 E118.35816
G1 X153.108 Y70.579 E118.41007
G1 X154.790 Y72.261 E118.53899
G1 X154.494 Y71.350 E118.59090
G1 X152.812 Y69.668 E118.71983
G1 X152.578 Y68.948 E118.76087
G1 X152.578 Y68.820 E118.76784
G1 X154.198 Y70.439 E118.89202
G1 X153.902 Y69.529 E118.94393
G1 X152.665 Y68.292 E119.03874
G1 X153.280 Y68.292 E119.07206
G1 X153.606 Y68.618 E119.09706
G1 X152.322 Y68.500 F7800.000
G1 F1200.000
G1 X67.678 Y68.500 E123.78965
G1 X67.422 Y68.618 F7800.000
G1 F1200.000
G1 X67.096 Y68.292 E123.81388
G1 X66.500 Y68.292 E123.84523
G1 X67.422 Y69.214 E123.91379
G1 X67.422 Y69.274 E123.91694
G1 X67.290 Y69.679 E123.93932
G1 X66.274 Y68.662 E124.01490
G1 X66.128 Y69.112 E124.03977
G1 X67.144 Y70.129 E124.11536
G1 X66.998 Y70.579 E124.14023
G1 X65.981 Y69.562 E124.21581
G1 X65.835 Y70.012 E124.24069
G1 X66.852 Y71.029 E124.31627
G1 X66.705 Y71.479 E124.34115
G1 X65.689 Y70.462 E124.41673
G1 X65.543 Y70.912 E124.44160
G1 X66.559 Y71.928 E124.51719
G1 X66.413 Y72.378 E124.54206
G1 X65.396 Y71.362 E124.61765
G1 X65.250 Y71.812 E124.64252
G1 X66.267 Y72.828 E124.71810
G1 X66.121 Y73.278 E124.74298
G1 X65.104 Y72.262 E124.81856
G1 X64.958 Y72.712 E124.84343
G1 X65.974 Y73.728 E124.91902
G1 X65.828 Y74.178 E124.94389
G1 X64.812 Y73.162 E125.01948
G1 X64.665 Y73.611 E125.04435
G1 X65.682 Y74.628 E125.11993
G1 X65.536 Y75.078 E125.14481
G1 X64.519 Y74.061 E125.22039
G1 X64.373 Y74.511 E125.24526
G1 X65.389 Y75.528 E125.32085
G1 X65.243 Y75.978 E125.34572
G1 X64.227 Y74.961 E125.42131
G1 X64.080 Y75.411 E125.44618
G1 X65.097 Y76.428 E125.52176
G1 X64.951 Y76.878 E125.54664
G1 X63.934 Y75.861 E125.62222
G1 X63.788 Y76.311 E125.64709
G1 X64.805 Y77.328 E125.72268
G1 X64.658 Y77.777 E125.74755
G1 X63.642 Y76.761 E125.82314
G1 X63.496 Y77.211 E125.84801
G1 X64.512 Y78.227 E125.92359
G1 X64.366 Y78.677 E125.94847
G1 X63.349 Y77.661 E126.02405
G1 X63.203 Y78.111 E126.04893
G1 X64.220 Y79.127 E126.12451
G1 X64.073 Y79.577 E126.14938
G1 X63.057 Y78.561 E126.22497
G1 X62.911 Y79.011 E126.24984
G1 X63.927 Y80.027 E126.32542
G1 X63.781 Y80.477 E126.35030
G1 X62.764 Y79.460 E126.42588
G1 X62.618 Y79.910 E126.45076
G1 X63.635 Y80.927 E126.52634
G1 X63.488 Y81.377 E126.55121
G1 X62.472 Y80.360 E126.62680
G1 X62.326 Y80.810 E126.65167
G1 X63.342 Y81.827 E126.72725
G1 X63.196 Y82.277 E126.75213
G1 X62.179 Y81.260 E126.82771
G1 X62.033 Y81.710 E126.85259
G1 X63.050 Y82.727 E126.92817
G1 X62.904 Y83.177 E126.95304
G1 X61.887 Y82.160 E127.02863
G1 X61.741 Y82.610 E127.05350
G1 X62.757 Y83.626 E127.12909
G1 X62.611 Y84.076 E127.15396
G1 X61.595 Y83.060 E127.22954
G1 X61.448 Y83.510 E127.25442
G1 X62.465 Y84.526 E127.33000
G1 X62.319 Y84.976 E127.35487
G1 X61.302 Y83.960 E127.43046
G1 X61.156 Y84.410 E127.45533
G1 X62.172 Y85.426 E127.53092
G1 X62.026 Y85.876 E127.55579
G1 X61.010 Y84.860 E127.63137
G1 X60.863 Y85.309 E127.65625
G1 X61.880 Y86.326 E127.73183
G1 X61.734 Y86.776 E127.75670
G1 X60.717 Y85.759 E127.83229
G1 X60.571 Y86.209 E127.85716
G1 X61.588 Y87.226 E127.93275
G1 X61.441 Y87.676 E127.95762
G1 X60.425 Y86.659 E128.03320
G1 X60.292 Y87.068 E128.05578
G1 X60.292 Y87.123 E128.05867
G1 X61.295 Y88.126 E128.13325
G1 X61.149 Y88.576 E128.15813
G1 X60.292 Y87.719 E128.22183
G1 X60.292 Y88.315 E128.25318
G1 X61.003 Y89.026 E128.30601
G1 X60.973 Y89.118 E128.31110
G1 X60.931 Y89.061 E128.31483
G1 X60.769 Y89.179 E128.32537
G1 X60.742 Y89.142 E128.32779
G1 X60.618 Y89.237 E128.33599
G1 X60.292 Y88.911 E128.36022
G1 X60.783 Y89.624 F7800.000
G1 F1200.000
G1 X60.621 Y89.743 E128.36738
G1 F1200.000
G1 X60.520 Y89.820 E128.37313
G1 F1200.000
G1 X60.500 Y89.837 E128.37461
G1 X60.500 Y130.163 E130.61020
G1 X60.541 Y130.197 E130.61316
G1 F1200.000
G1 X60.702 Y130.316 E130.62224
G1 F1200.000
G1 X60.783 Y130.376 E130.62582
G1 X60.647 Y130.883 F7800.000
G1 F1200.000
G1 X60.973 Y131.208 E130.65080
G1 X61.269 Y132.119 F7800.000
G1 F1200.000
G1 X60.292 Y131.142 E130.72568
G1 X60.292 Y131.757 E130.75900
G1 X61.565 Y133.030 E130.85657
G1 X61.861 Y133.940 E130.90847
G1 X60.292 Y132.372 E131.02873
