; generated by Slic3r 1.3.1-dev (Build 18ddd3a36dc69d81fb9b7440498bff9e1dde8b7e) on 2021-11-09 at 15:11:49

; external perimeters extrusion width = 0.44mm (3.38mm^3/s)
; perimeters extrusion width = 0.48mm (7.54mm^3/s)
; infill extrusion width = 0.48mm (10.05mm^3/s)
; solid infill extrusion width = 0.48mm (2.51mm^3/s)
; top infill extrusion width = 0.48mm (1.88mm^3/s)

M107
G92 E0
M190 S85 ; set bed temperature and wait for it to be reached
M104 S225 ; set temperature
G28 ; home all axes
G1 Z5 F5000 ; lift nozzle

; Filament gcode

M109 S225 ; set temperature and wait for it to be reached
G21 ; set units to millimeters
G90 ; use absolute coordinates
M82 ; use absolute distances for extrusion
G92 E0
G1 Z0.400 F7800.000
G1 E-2.00000 F2400.00000
G92 E0
G1 X3.004 Y28.904 F7800.000
G1 E2.00000 F2400.00000
G1 F1800.000
G1 X4.261 Y28.785 E2.14997
G1 X141.259 Y28.785 E18.42056
G1 X145.472 Y28.895 E18.92108
G1 X149.516 Y29.205 E19.40273
G1 X153.202 Y29.669 E19.84396
G1 X157.186 Y30.363 E20.32417
G1 X161.136 Y31.255 E20.80520
G1 X165.038 Y32.344 E21.28626
G1 X169.189 Y33.740 E21.80646
G1 X172.964 Y35.228 E22.28838
G1 X176.350 Y36.758 E22.72967
G1 X179.953 Y38.596 E23.20999
G1 X183.465 Y40.614 E23.69104
G1 X187.146 Y42.991 E24.21151
G1 X190.428 Y45.360 E24.69221
G1 X193.593 Y47.894 E25.17372
G1 X196.621 Y50.578 E25.65428
G1 X199.517 Y53.414 E26.13561
G1 X202.263 Y56.388 E26.61639
G1 X204.859 Y59.495 E27.09725
G1 X207.291 Y62.722 E27.57716
G1 X209.575 Y66.079 E28.05938
G1 X211.676 Y69.538 E28.54012
G1 X213.604 Y73.097 E29.02078
G1 X215.354 Y76.747 E29.50145
G1 X216.921 Y80.484 E29.98281
G1 X218.298 Y84.294 E30.46388
G1 X219.482 Y88.165 E30.94463
G1 X220.472 Y92.086 E31.42501
G1 X221.268 Y96.061 E31.90643
G1 X221.864 Y100.065 E32.38718
G1 X222.259 Y104.098 E32.86853
G1 X222.452 Y108.139 E33.34897
G1 X222.443 Y112.188 E33.82981
G1 X222.234 Y116.234 E34.31100
G1 X221.823 Y120.262 E34.79191
G1 X221.210 Y124.269 E35.27334
G1 X220.399 Y128.230 E35.75349
G1 X219.392 Y132.155 E36.23481
G1 X218.191 Y136.021 E36.71554
G1 X216.798 Y139.824 E37.19656
G1 X215.217 Y143.552 E37.67745
G1 X213.452 Y147.198 E38.15850
G1 X211.509 Y150.750 E38.63945
G1 X209.390 Y154.201 E39.12040
G1 X207.098 Y157.545 E39.60179
G1 X204.651 Y160.761 E40.08177
G1 X202.043 Y163.858 E40.56270
G1 X199.281 Y166.824 E41.04397
G1 X196.621 Y169.418 E41.48523
G1 X193.591 Y172.102 E41.96597
G1 X190.428 Y174.634 E42.44714
G1 X187.149 Y177.003 E42.92764
G1 X183.751 Y179.208 E43.40871
G1 X180.247 Y181.242 E43.88990
G1 X176.649 Y183.096 E44.37061
G1 X172.958 Y184.768 E44.85184
G1 X169.192 Y186.255 E45.33267
G1 X165.041 Y187.649 E45.85278
G1 X161.465 Y188.657 E46.29403
G1 X157.518 Y189.568 E46.77516
G1 X153.528 Y190.279 E47.25651
G1 X149.184 Y190.822 E47.77644
G1 X145.480 Y191.102 E48.21760
G1 X141.426 Y191.211 E48.69923
G1 X81.261 Y191.213 E55.84465
G1 X78.987 Y190.816 E56.11888
G1 X76.981 Y189.672 E56.39310
G1 X75.462 Y187.882 E56.67195
G1 X-1.538 Y55.880 E74.82148
G1 X-2.341 Y53.715 E75.09571
G1 X-2.453 Y52.497 E75.24100
G1 X-2.453 Y35.499 E77.25977
G1 X-2.056 Y33.224 E77.53399
G1 X-0.912 Y31.219 E77.80822
G1 X0.844 Y29.719 E78.08244
G1 X2.948 Y28.925 E78.34954
G1 E76.34954 F2400.00000
G92 E0
G1 X6.090 Y50.669 F7800.000
G1 E2.00000 F2400.00000
G1 F1800.000
G1 X6.090 Y37.327 E3.58449
G1 X141.237 Y37.327 E19.63525
G1 X144.883 Y37.418 E20.06840
G1 X148.495 Y37.687 E20.49862
G1 X152.091 Y38.139 E20.92900
G1 X155.659 Y38.768 E21.35937
G1 X159.192 Y39.573 E21.78973
G1 X162.680 Y40.555 E22.22003
G1 X166.114 Y41.710 E22.65032
G1 X169.489 Y43.032 E23.08083
G1 X172.791 Y44.525 E23.51123
G1 X176.015 Y46.177 E23.94142
G1 X179.154 Y47.990 E24.37194
G1 X182.198 Y49.954 E24.80217
G1 X185.140 Y52.069 E25.23248
G1 X187.974 Y54.328 E25.66295
G1 X190.689 Y56.726 E26.09317
G1 X193.284 Y59.256 E26.52360
G1 X195.748 Y61.913 E26.95395
G1 X198.075 Y64.687 E27.38401
G1 X200.263 Y67.577 E27.81449
G1 X202.307 Y70.570 E28.24492
G1 X204.195 Y73.663 E28.67533
G1 X205.928 Y76.845 E29.10568
G1 X207.501 Y80.110 E29.53600
G1 X208.909 Y83.447 E29.96625
G1 X210.148 Y86.853 E30.39665
G1 X211.215 Y90.316 E30.82703
G1 X212.109 Y93.826 E31.25721
G1 X212.829 Y97.381 E31.68798
G1 X213.369 Y100.961 E32.11791
G1 X213.730 Y104.567 E32.54841
G1 X213.909 Y108.184 E32.97851
G1 X213.909 Y111.810 E33.40907
G1 X213.730 Y115.429 E33.83940
G1 X213.369 Y119.033 E34.26968
G1 X212.829 Y122.617 E34.70007
G1 X212.109 Y126.168 E35.13038
G1 X211.215 Y129.682 E35.56103
G1 X210.148 Y133.143 E35.99113
G1 X208.909 Y136.547 E36.42135
G1 X207.501 Y139.887 E36.85186
G1 X205.928 Y143.153 E37.28237
G1 X204.196 Y146.335 E37.71264
G1 X202.307 Y149.424 E38.14270
G1 X200.263 Y152.421 E38.57352
G1 X198.076 Y155.307 E39.00359
G1 X195.748 Y158.083 E39.43390
G1 X193.284 Y160.740 E39.86422
G1 X190.690 Y163.270 E40.29460
G1 X187.974 Y165.666 E40.72466
G1 X185.139 Y167.925 E41.15522
G1 X182.197 Y170.042 E41.58572
G1 X179.154 Y172.009 E42.01604
G1 X176.015 Y173.821 E42.44651
G1 X172.792 Y175.473 E42.87659
G1 X169.489 Y176.962 E43.30685
G1 X166.114 Y178.286 E43.73750
G1 X162.680 Y179.439 E44.16771
G1 X159.191 Y180.423 E44.59819
G1 X155.659 Y181.230 E45.02854
G1 X152.092 Y181.858 E45.45874
G1 X148.495 Y182.307 E45.88918
G1 X144.882 Y182.580 E46.31955
G1 X141.237 Y182.671 E46.75258
G1 X83.090 Y182.671 E53.65843
G1 X83.090 Y169.325 E55.24339
G1 X141.282 Y169.325 E62.15457
G1 X144.218 Y169.254 E62.50341
G1 X147.168 Y169.033 E62.85473
G1 X150.104 Y168.663 E63.20618
G1 X153.016 Y168.152 E63.55733
G1 X155.899 Y167.491 E63.90863
G1 X158.746 Y166.691 E64.25981
G1 X161.553 Y165.750 E64.61143
G1 X164.304 Y164.668 E64.96253
G1 X167.002 Y163.451 E65.31406
G1 X169.636 Y162.103 E65.66548
G1 X172.198 Y160.621 E66.01696
G1 X174.679 Y159.016 E66.36792
G1 X177.083 Y157.292 E66.71924
G1 X179.397 Y155.448 E67.07061
G1 X181.616 Y153.489 E67.42218
G1 X183.733 Y151.422 E67.77360
G1 X185.745 Y149.255 E68.12474
G1 X187.646 Y146.989 E68.47602
G1 X189.430 Y144.633 E68.82712
G1 X191.098 Y142.187 E69.17869
G1 X192.639 Y139.662 E69.53000
G1 X194.057 Y137.066 E69.88128
G1 X195.339 Y134.401 E70.23247
G1 X196.490 Y131.673 E70.58412
G1 X197.502 Y128.892 E70.93558
G1 X198.370 Y126.066 E71.28673
G1 X199.103 Y123.200 E71.63805
G1 X199.687 Y120.301 E71.98932
G1 X200.130 Y117.375 E72.34079
G1 X200.423 Y114.431 E72.69215
G1 X200.570 Y111.476 E73.04349
G1 X200.570 Y108.520 E73.39463
G1 X200.423 Y105.565 E73.74597
G1 X200.130 Y102.621 E74.09732
G1 X199.687 Y99.695 E74.44880
G1 X199.103 Y96.797 E74.79992
G1 X198.370 Y93.930 E75.15140
G1 X197.502 Y91.106 E75.50230
G1 X196.490 Y88.323 E75.85399
G1 X195.339 Y85.597 E76.20541
G1 X194.057 Y82.931 E76.55675
G1 X192.639 Y80.332 E76.90836
G1 X191.098 Y77.811 E77.25930
G1 X189.430 Y75.365 E77.61079
G1 X187.646 Y73.009 E77.96188
G1 X185.745 Y70.743 E78.31307
G1 X183.733 Y68.572 E78.66460
G1 X181.615 Y66.506 E79.01602
G1 X179.397 Y64.550 E79.36731
G1 X177.084 Y62.705 E79.71872
G1 X174.680 Y60.978 E80.07023
G1 X172.197 Y59.373 E80.42139
G1 X169.636 Y57.895 E80.77250
G1 X167.003 Y56.543 E81.12400
G1 X164.303 Y55.325 E81.47581
G1 X161.552 Y54.248 E81.82666
G1 X158.747 Y53.306 E82.17815
G1 X155.899 Y52.503 E82.52961
G1 X153.016 Y51.846 E82.88072
G1 X150.104 Y51.330 E83.23196
G1 X147.167 Y50.965 E83.58343
G1 X144.219 Y50.742 E83.93454
G1 X141.282 Y50.669 E84.28345
G1 X6.150 Y50.669 E100.33250
G1 X5.376 Y51.383 F7800.000
G1 F1800.000
G1 X5.376 Y36.613 E102.08663
G1 X141.246 Y36.613 E118.22326
G1 X144.918 Y36.704 E118.65957
G1 X148.566 Y36.976 E119.09404
G1 X152.197 Y37.433 E119.52866
G1 X155.801 Y38.067 E119.96323
G1 X159.369 Y38.881 E120.39783
G1 X162.891 Y39.872 E120.83238
G1 X166.358 Y41.038 E121.26688
G1 X169.767 Y42.374 E121.70163
G1 X173.102 Y43.881 E122.13628
G1 X176.356 Y45.550 E122.57068
G1 X179.526 Y47.380 E123.00542
G1 X182.600 Y49.364 E123.43988
G1 X185.571 Y51.500 E123.87442
G1 X188.433 Y53.781 E124.30913
G1 X191.175 Y56.202 E124.74359
G1 X193.796 Y58.757 E125.17825
G1 X196.284 Y61.440 E125.61284
G1 X198.634 Y64.242 E126.04713
G1 X200.843 Y67.160 E126.48180
G1 X202.907 Y70.182 E126.91647
G1 X204.814 Y73.306 E127.35115
G1 X206.564 Y76.519 E127.78571
G1 X208.152 Y79.816 E128.22024
G1 X209.574 Y83.186 E128.65473
G1 X210.825 Y86.626 E129.08939
G1 X211.903 Y90.123 E129.52399
G1 X212.805 Y93.667 E129.95837
G1 X213.532 Y97.257 E130.39336
G1 X214.078 Y100.872 E130.82754
G1 X214.442 Y104.514 E131.26229
G1 X214.623 Y108.167 E131.69662
G1 X214.623 Y111.827 E132.13139
G1 X214.442 Y115.482 E132.56595
G1 X214.078 Y119.122 E133.00047
G1 X213.532 Y122.741 E133.43511
G1 X212.805 Y126.327 E133.86964
G1 X211.903 Y129.875 E134.30449
G1 X210.825 Y133.370 E134.73883
G1 X209.574 Y136.808 E135.17330
G1 X208.152 Y140.181 E135.60803
G1 X206.564 Y143.479 E136.04276
G1 X204.814 Y146.692 E136.47727
G1 X202.907 Y149.812 E136.91158
G1 X200.843 Y152.838 E137.34664
G1 X198.634 Y155.752 E137.78091
G1 X196.284 Y158.556 E138.21542
G1 X193.796 Y161.239 E138.65000
G1 X191.176 Y163.794 E139.08463
G1 X188.433 Y166.213 E139.51893
G1 X185.571 Y168.495 E139.95370
G1 X182.599 Y170.632 E140.38841
G1 X179.526 Y172.618 E140.82296
G1 X176.356 Y174.448 E141.25767
G1 X173.102 Y176.117 E141.69201
G1 X169.767 Y177.620 E142.12650
G1 X166.358 Y178.958 E142.56136
G1 X162.891 Y180.122 E142.99579
G1 X159.368 Y181.115 E143.43048
G1 X155.801 Y181.931 E143.86509
G1 X152.198 Y182.565 E144.29956
G1 X148.566 Y183.018 E144.73418
G1 X144.918 Y183.294 E145.16877
G1 X141.246 Y183.385 E145.60501
G1 X82.376 Y183.385 E152.59672
G1 X82.376 Y168.611 E154.35132
G1 X141.273 Y168.611 E161.34628
G1 X144.183 Y168.540 E161.69194
G1 X147.097 Y168.322 E162.03899
G1 X149.998 Y167.957 E162.38623
G1 X152.874 Y167.451 E162.73314
G1 X155.723 Y166.799 E163.08019
G1 X158.536 Y166.008 E163.42720
G1 X161.309 Y165.078 E163.77456
G1 X164.027 Y164.010 E164.12141
G1 X166.693 Y162.807 E164.46876
G1 X169.295 Y161.476 E164.81590
G1 X171.825 Y160.012 E165.16310
G1 X174.277 Y158.426 E165.50992
G1 X176.652 Y156.722 E165.85705
G1 X178.938 Y154.901 E166.20414
G1 X181.130 Y152.966 E166.55143
G1 X183.221 Y150.923 E166.89865
G1 X185.209 Y148.783 E167.24557
G1 X187.087 Y146.544 E167.59261
G1 X188.850 Y144.216 E167.93948
G1 X190.498 Y141.799 E168.28680
G1 X192.021 Y139.305 E168.63393
G1 X193.421 Y136.740 E168.98099
G1 X194.687 Y134.107 E169.32792
G1 X195.825 Y131.412 E169.67534
G1 X196.824 Y128.665 E170.02251
G1 X197.682 Y125.873 E170.36947
G1 X198.406 Y123.041 E170.71658
G1 X198.983 Y120.177 E171.06362
G1 X199.421 Y117.286 E171.41087
G1 X199.711 Y114.378 E171.75794
G1 X199.856 Y111.459 E172.10507
G1 X199.856 Y108.537 E172.45201
G1 X199.711 Y105.618 E172.79914
G1 X199.421 Y102.710 E173.14621
G1 X198.983 Y99.819 E173.49347
G1 X198.406 Y96.956 E173.84036
G1 X197.682 Y94.123 E174.18761
G1 X196.824 Y91.333 E174.53434
G1 X195.825 Y88.584 E174.88174
G1 X194.687 Y85.891 E175.22894
G1 X193.421 Y83.256 E175.57604
G1 X192.020 Y80.689 E175.92338
G1 X190.498 Y78.198 E176.27012
G1 X188.850 Y75.782 E176.61739
G1 X187.087 Y73.454 E176.96427
G1 X185.209 Y71.216 E177.31124
G1 X183.222 Y69.071 E177.65854
G1 X181.129 Y67.030 E178.00569
G1 X178.938 Y65.097 E178.35275
G1 X176.652 Y63.274 E178.69992
G1 X174.277 Y61.568 E179.04723
G1 X171.824 Y59.982 E179.39416
G1 X169.295 Y58.522 E179.74104
G1 X166.693 Y57.187 E180.08832
G1 X164.026 Y55.984 E180.43584
G1 X161.308 Y54.920 E180.78247
G1 X158.536 Y53.988 E181.12978
G1 X155.722 Y53.195 E181.47698
G1 X152.874 Y52.547 E181.82388
G1 X149.998 Y52.037 E182.17088
G1 X147.096 Y51.676 E182.51810
G1 X144.183 Y51.456 E182.86503
G1 X141.273 Y51.383 E183.21074
G1 X5.436 Y51.383 E199.34355
G1 X4.661 Y52.097 F7800.000
G1 F1800.000
G1 X4.661 Y35.899 E201.26731
G1 X141.254 Y35.899 E217.48980
G1 X144.954 Y35.991 E217.92927
G1 X148.638 Y36.265 E218.36800
G1 X152.304 Y36.727 E218.80685
G1 X155.942 Y37.367 E219.24563
G1 X159.545 Y38.189 E219.68446
G1 X163.101 Y39.189 E220.12327
G1 X166.603 Y40.367 E220.56198
G1 X170.044 Y41.716 E221.00097
G1 X173.412 Y43.237 E221.43987
G1 X176.698 Y44.922 E221.87848
G1 X179.899 Y46.770 E222.31744
G1 X183.002 Y48.774 E222.75612
G1 X186.002 Y50.930 E223.19489
G1 X188.892 Y53.234 E223.63385
G1 X191.661 Y55.678 E224.07254
G1 X194.307 Y58.258 E224.51144
G1 X196.819 Y60.968 E224.95027
G1 X199.193 Y63.796 E225.38879
G1 X201.423 Y66.743 E225.82764
G1 X203.507 Y69.794 E226.26655
G1 X205.433 Y72.949 E226.70551
G1 X207.199 Y76.194 E227.14427
G1 X208.803 Y79.522 E227.58301
G1 X210.239 Y82.925 E228.02175
G1 X211.502 Y86.398 E228.46067
G1 X212.590 Y89.929 E228.89948
G1 X213.501 Y93.508 E229.33808
G1 X214.236 Y97.133 E229.77728
G1 X214.787 Y100.783 E230.21571
G1 X215.155 Y104.461 E230.65471
G1 X215.338 Y108.149 E231.09327
G1 X215.338 Y111.845 E231.53224
G1 X215.155 Y115.535 E231.97103
G1 X214.787 Y119.211 E232.40981
G1 X214.236 Y122.865 E232.84870
G1 X213.501 Y126.486 E233.28744
G1 X212.590 Y130.069 E233.72649
G1 X211.502 Y133.598 E234.16507
G1 X210.239 Y137.069 E234.60378
G1 X208.803 Y140.474 E235.04275
G1 X207.199 Y143.804 E235.48170
G1 X205.433 Y147.049 E235.92044
G1 X203.507 Y150.200 E236.35900
G1 X201.423 Y153.255 E236.79830
G1 X199.193 Y156.198 E237.23676
G1 X196.819 Y159.028 E237.67549
G1 X194.307 Y161.738 E238.11431
G1 X191.661 Y164.318 E238.55319
G1 X188.892 Y166.760 E238.99173
G1 X186.002 Y169.064 E239.43071
G1 X183.002 Y171.222 E239.86963
G1 X179.899 Y173.228 E240.30843
G1 X176.698 Y175.076 E240.74738
G1 X173.412 Y176.760 E241.18596
G1 X170.044 Y178.278 E241.62469
G1 X166.603 Y179.629 E242.06377
G1 X163.101 Y180.805 E242.50240
G1 X159.545 Y181.807 E242.94130
G1 X155.942 Y182.631 E243.38018
G1 X152.304 Y183.271 E243.81891
G1 X148.638 Y183.729 E244.25773
G1 X144.953 Y184.007 E244.69653
G1 X141.254 Y184.099 E245.13597
G1 X81.661 Y184.099 E252.21354
G1 X81.661 Y167.897 E254.13778
G1 X141.264 Y167.897 E261.21652
G1 X144.147 Y167.827 E261.55902
G1 X147.025 Y167.611 E261.90179
G1 X149.891 Y167.251 E262.24482
G1 X152.733 Y166.751 E262.58749
G1 X155.546 Y166.107 E262.93029
G1 X158.325 Y165.325 E263.27313
G1 X161.064 Y164.407 E263.61623
G1 X163.749 Y163.352 E263.95883
G1 X166.383 Y162.164 E264.30200
G1 X168.953 Y160.848 E264.64487
G1 X171.452 Y159.402 E264.98778
G1 X173.875 Y157.836 E265.33045
G1 X176.221 Y156.152 E265.67339
G1 X178.479 Y154.354 E266.01621
G1 X180.644 Y152.442 E266.35922
G1 X182.710 Y150.424 E266.70223
G1 X184.674 Y148.310 E267.04494
G1 X186.528 Y146.098 E267.38773
G1 X188.270 Y143.799 E267.73038
G1 X189.898 Y141.412 E268.07345
G1 X191.402 Y138.947 E268.41639
G1 X192.786 Y136.414 E268.75923
G1 X194.036 Y133.814 E269.10190
G1 X195.160 Y131.151 E269.44510
G1 X196.147 Y128.438 E269.78797
G1 X196.995 Y125.679 E270.13075
G1 X197.710 Y122.882 E270.47365
G1 X198.280 Y120.053 E270.81645
G1 X198.713 Y117.197 E271.15948
G1 X198.999 Y114.325 E271.50227
G1 X199.142 Y111.441 E271.84519
G1 X199.142 Y108.555 E272.18793
G1 X198.999 Y105.671 E272.53085
G1 X198.713 Y102.799 E272.87364
G1 X198.280 Y99.943 E273.21667
G1 X197.710 Y97.115 E273.55933
G1 X196.995 Y94.317 E273.90237
G1 X196.147 Y91.560 E274.24492
G1 X195.160 Y88.845 E274.58801
G1 X194.036 Y86.184 E274.93100
G1 X192.786 Y83.582 E275.27387
G1 X191.402 Y81.047 E275.61694
G1 X189.898 Y78.586 E275.95949
G1 X188.270 Y76.199 E276.30253
G1 X186.528 Y73.900 E276.64518
G1 X184.674 Y71.688 E276.98795
G1 X182.710 Y69.570 E277.33102
G1 X180.644 Y67.554 E277.67390
G1 X178.479 Y65.644 E278.01672
G1 X176.221 Y63.844 E278.35967
G1 X173.875 Y62.158 E278.70277
G1 X171.452 Y60.592 E279.04547
G1 X168.953 Y59.150 E279.38812
G1 X166.383 Y57.831 E279.73117
G1 X163.749 Y56.642 E280.07441
G1 X161.064 Y55.591 E280.41681
G1 X158.325 Y54.671 E280.75994
G1 X155.546 Y53.887 E281.10289
