; generated by Slic3r 1.3.1-dev (Build 18ddd3a36dc69d81fb9b7440498bff9e1dde8b7e) on 2021-11-10 at 19:39:04

; external perimeters extrusion width = 0.44mm (3.38mm^3/s)
; perimeters extrusion width = 0.48mm (7.54mm^3/s)
; infill extrusion width = 0.48mm (10.05mm^3/s)
; solid infill extrusion width = 0.48mm (2.51mm^3/s)
; top infill extrusion width = 0.48mm (1.88mm^3/s)

M107
G92 E0
M190 S85 ; set bed temperature and wait for it to be reached
M104 S225 ; set temperature
G28 ; home all axes
G1 Z5 F5000 ; lift nozzle

; Filament gcode

M109 S225 ; set temperature and wait for it to be reached
G21 ; set units to millimeters
G90 ; use absolute coordinates
M82 ; use absolute distances for extrusion
G92 E0
G1 Z0.400 F7800.000
G1 E-2.00000 F2400.00000
G92 E0
G1 X101.377 Y104.220 F7800.000
G1 E2.00000 F2400.00000
G1 F1122.662
G1 X103.133 Y102.720 E2.27422
G1 X105.293 Y101.905 E2.54845
G1 X106.550 Y101.786 E2.69842
G1 X113.450 Y101.786 E3.51790
G1 X115.725 Y102.183 E3.79212
G1 X117.730 Y103.327 E4.06635
G1 X119.230 Y105.083 E4.34057
G1 X120.045 Y107.243 E4.61480
G1 X120.164 Y108.500 E4.76476
G1 X120.164 Y111.500 E5.12106
G1 X119.767 Y113.775 E5.39528
G1 X118.623 Y115.780 E5.66951
G1 X116.867 Y117.280 E5.94373
G1 X114.707 Y118.095 E6.21796
G1 X113.450 Y118.214 E6.36793
G1 X106.550 Y118.214 E7.18741
G1 X104.275 Y117.817 E7.46163
G1 X102.270 Y116.673 E7.73586
G1 X100.770 Y114.917 E8.01008
G1 X99.955 Y112.757 E8.28431
G1 X99.836 Y111.500 E8.43427
G1 X99.836 Y108.500 E8.79057
G1 X100.233 Y106.225 E9.06479
G1 X101.347 Y104.272 E9.33189
G1 E7.33189 F2400.00000
G92 E0
G1 X112.336 Y110.386 F7800.000
G1 E2.00000 F2400.00000
G1 F1122.662
G1 X111.564 Y110.386 E2.09165
G1 X111.564 Y109.614 E2.18330
G1 X112.336 Y109.614 E2.27495
G1 X112.336 Y110.326 E2.35947
G1 X113.050 Y111.100 F7800.000
G1 F1800.000
G1 X110.850 Y111.100 E2.62075
G1 X110.850 Y108.900 E2.88204
G1 X113.050 Y108.900 E3.14332
G1 X113.050 Y111.040 E3.39748
G1 X112.664 Y110.996 F7800.000
G1 E1.39748 F2400.00000
G92 E0
G1 X109.550 Y111.023 F7800.000
G1 E2.00000 F2400.00000
G1 F1800.000
G1 X108.291 Y111.238 E2.10658
G1 F1800.000
G1 X108.028 Y111.250 E2.12579
G1 X107.634 Y111.215 E2.15462
G1 F1800.000
G1 X106.550 Y111.023 E2.24653
G1 X106.550 Y110.937 F7800.000
G1 F1800.000
G1 X108.648 Y111.500 E2.46732
G1 X108.407 Y111.285 F7800.000
G1 F1800.000
G1 X107.818 Y111.500 E2.54531
G1 X107.452 Y111.500 F7800.000
G1 F1800.000
G1 X109.550 Y110.937 E2.76611
G1 X109.550 Y110.598 F7800.000
G1 F1800.000
G1 X108.987 Y108.500 E2.98691
G1 X108.648 Y108.500 F7800.000
G1 F1800.000
G1 X106.550 Y109.063 E3.20771
G1 X106.550 Y108.977 F7800.000
G1 F1800.000
G1 X107.634 Y108.785 E3.29963
G1 F1800.000
G1 X108.028 Y108.750 E3.32845
G1 X108.291 Y108.762 E3.34766
G1 F1800.000
G1 X109.550 Y108.977 E3.45424
G1 X109.550 Y109.063 F7800.000
G1 F1800.000
G1 X107.452 Y108.500 E3.67504
G1 X107.113 Y108.500 F7800.000
G1 F1800.000
G1 X106.550 Y110.598 E3.89585
G1 X106.765 Y110.357 F7800.000
G1 F1800.000
G1 X106.550 Y109.768 E3.97385
G1 X106.765 Y109.643 F7800.000
G1 F1800.000
G1 X106.550 Y110.232 E4.05184
G1 X106.765 Y110.357 F7800.000
G1 F1800.000
G1 X107.016 Y111.034 E4.14906
G1 X107.103 Y111.070 E4.16176
G1 F1800.000
G1 X108.282 Y111.500 E4.31775
G1 X108.407 Y111.285 F7800.000
G1 F1800.000
G1 X109.084 Y111.034 E4.41497
G1 X109.120 Y110.947 E4.42768
G1 F1800.000
G1 X109.575 Y109.700 E4.59267
G1 X109.550 Y109.402 F7800.000
G1 F1800.000
G1 X108.987 Y111.500 E4.81347
G1 X109.575 Y110.300 F7800.000
G1 F1800.000
G1 X109.120 Y109.053 E4.97846
G1 F1800.000
G1 X109.084 Y108.966 E4.99117
G1 X108.407 Y108.715 E5.08839
G1 F1800.000
G1 X107.818 Y108.500 E5.16638
G1 X108.282 Y108.500 F7800.000
G1 F1800.000
G1 X107.103 Y108.930 E5.32236
G1 F1800.000
G1 X107.016 Y108.966 E5.33507
G1 X106.765 Y109.643 E5.43229
G1 X106.812 Y109.759 F7800.000
G1 F1800.000
G1 X106.800 Y110.022 E5.45150
G1 X106.835 Y110.416 E5.48033
G1 F1800.000
G1 X107.027 Y111.500 E5.57224
G1 X107.113 Y111.500 F7800.000
G1 F1800.000
G1 X106.550 Y109.402 E5.79304
G1 X106.812 Y109.759 F7800.000
G1 F1800.000
G1 X107.027 Y108.500 E5.89962
M104 S220 ; set temperature
M140 S80 ; set bed temperature
G1 Z0.700 F7800.000
G1 E3.89962 F2400.00000
G92 E0
G1 X112.035 Y110.330 F7800.000
G1 E2.00000 F2400.00000
G1 F600.000
G1 X111.920 Y110.304 E2.00616
G1 X111.822 Y110.239 E2.01232
G1 X111.752 Y110.143 E2.01848
G1 X111.721 Y110.030 E2.02465
G1 X111.752 Y109.857 E2.03383
G1 X111.822 Y109.761 E2.03999
G1 X111.920 Y109.696 E2.04615
G1 X112.035 Y109.670 E2.05231
G1 X112.152 Y109.686 E2.05847
G1 X112.256 Y109.742 E2.06464
G1 X112.333 Y109.831 E2.07080
G1 X112.375 Y109.941 E2.07696
G1 X112.375 Y110.059 E2.08312
G1 X112.333 Y110.169 E2.08928
G1 X112.256 Y110.258 E2.09544
G1 X112.095 Y110.327 E2.10458
G1 X112.779 Y110.000 F7800.000
G1 F600.000
G1 X112.767 Y110.130 E2.11071
G1 X112.676 Y110.374 E2.12291
G1 X112.505 Y110.570 E2.13511
G1 X112.275 Y110.693 E2.14730
G1 X112.017 Y110.728 E2.15950
G1 X111.763 Y110.670 E2.17170
G1 X111.546 Y110.527 E2.18390
G1 X111.393 Y110.316 E2.19610
G1 X111.324 Y110.065 E2.20830
G1 X111.347 Y109.806 E2.22049
G1 X111.460 Y109.571 E2.23269
G1 X111.648 Y109.392 E2.24489
G1 X111.763 Y109.330 E2.25102
G1 X112.017 Y109.272 E2.26321
G1 X112.275 Y109.307 E2.27541
G1 X112.505 Y109.430 E2.28761
G1 X112.676 Y109.626 E2.29981
G1 X112.733 Y109.744 E2.30593
G1 X112.774 Y109.940 E2.31534
G1 X112.666 Y110.065 F7800.000
G1 Z1.000 F7800.000
G1 X112.380 Y110.000 F7800.000
G1 F600.000
G1 X112.359 Y110.116 E2.32150
G1 X112.299 Y110.217 E2.32766
G1 X112.206 Y110.291 E2.33382
G1 X112.035 Y110.330 E2.34300
G1 X111.920 Y110.304 E2.34916
G1 X111.822 Y110.239 E2.35532
G1 X111.752 Y110.143 E2.36149
G1 X111.721 Y110.030 E2.36765
G1 X111.732 Y109.912 E2.37381
G1 X111.783 Y109.806 E2.37997
G1 X111.868 Y109.724 E2.38613
G1 X111.977 Y109.678 E2.39229
G1 X112.094 Y109.673 E2.39846
G1 X112.206 Y109.709 E2.40462
G1 X112.299 Y109.783 E2.41078
G1 X112.375 Y109.940 E2.41992
G1 X112.779 Y110.000 F7800.000
G1 F600.000
G1 X112.767 Y110.130 E2.42604
G1 X112.676 Y110.374 E2.43824
G1 X112.505 Y110.570 E2.45044
G1 X112.275 Y110.693 E2.46264
G1 X112.017 Y110.728 E2.47484
G1 X111.763 Y110.670 E2.48704
G1 X111.546 Y110.527 E2.49923
G1 X111.393 Y110.316 E2.51143
G1 X111.324 Y110.065 E2.52363
G1 X111.347 Y109.806 E2.53583
G1 X111.460 Y109.571 E2.54803
G1 X111.648 Y109.392 E2.56023
G1 X111.763 Y109.330 E2.56635
G1 X112.017 Y109.272 E2.57855
G1 X112.275 Y109.307 E2.59075
G1 X112.505 Y109.430 E2.60295
G1 X112.676 Y109.626 E2.61514
G1 X112.733 Y109.744 E2.62127
G1 X112.774 Y109.940 E2.63067
G1 X112.666 Y110.065 F7800.000
M106 S255
G1 Z1.300 F7800.000
G1 X112.380 Y110.000 F7800.000
G1 F600.000
G1 X112.333 Y110.169 E2.63985
G1 X112.256 Y110.258 E2.64601
G1 X112.152 Y110.314 E2.65217
G1 X112.035 Y110.330 E2.65834
G1 X111.920 Y110.304 E2.66450
G1 X111.822 Y110.239 E2.67066
G1 X111.752 Y110.143 E2.67682
G1 X111.721 Y110.030 E2.68298
G1 X111.732 Y109.912 E2.68914
G1 X111.783 Y109.806 E2.69531
G1 X111.868 Y109.724 E2.70147
G1 X111.977 Y109.678 E2.70763
G1 X112.094 Y109.673 E2.71379
G1 X112.206 Y109.709 E2.71995
G1 X112.299 Y109.783 E2.72611
G1 X112.375 Y109.940 E2.73525
G1 X112.779 Y110.000 F7800.000
G1 F600.000
G1 X112.767 Y110.130 E2.74138
G1 X112.676 Y110.374 E2.75358
G1 X112.505 Y110.570 E2.76578
G1 X112.275 Y110.693 E2.77797
G1 X112.017 Y110.728 E2.79017
G1 X111.763 Y110.670 E2.80237
G1 X111.546 Y110.527 E2.81457
G1 X111.393 Y110.316 E2.82677
G1 X111.324 Y110.065 E2.83897
G1 X111.347 Y109.806 E2.85116
G1 X111.460 Y109.571 E2.86336
G1 X111.648 Y109.392 E2.87556
G1 X111.763 Y109.330 E2.88169
G1 X112.017 Y109.272 E2.89388
G1 X112.275 Y109.307 E2.90608
G1 X112.505 Y109.430 E2.91828
G1 X112.676 Y109.626 E2.93048
G1 X112.733 Y109.744 E2.93660
G1 X112.774 Y109.940 E2.94601
G1 X112.666 Y110.065 F7800.000
G1 Z1.600 F7800.000
G1 X112.380 Y110.000 F7800.000
G1 F600.000
G1 X112.333 Y110.169 E2.95519
G1 X112.256 Y110.258 E2.96135
G1 X112.152 Y110.314 E2.96751
G1 X112.035 Y110.330 E2.97367
G1 X111.920 Y110.304 E2.97983
G1 X111.822 Y110.239 E2.98599
G1 X111.752 Y110.143 E2.99216
G1 X111.721 Y110.030 E2.99832
G1 X111.732 Y109.912 E3.00448
G1 X111.783 Y109.806 E3.01064
G1 X111.868 Y109.724 E3.01680
G1 X111.977 Y109.678 E3.02296
G1 X112.094 Y109.673 E3.02913
G1 X112.206 Y109.709 E3.03529
G1 X112.299 Y109.783 E3.04145
G1 X112.375 Y109.940 E3.05059
G1 X112.779 Y110.000 F7800.000
G1 F600.000
G1 X112.767 Y110.130 E3.05671
G1 X112.676 Y110.374 E3.06891
G1 X112.505 Y110.570 E3.08111
G1 X112.275 Y110.693 E3.09331
G1 X112.017 Y110.728 E3.10551
G1 X111.763 Y110.670 E3.11771
G1 X111.546 Y110.527 E3.12990
G1 X111.393 Y110.316 E3.14210
G1 X111.324 Y110.065 E3.15430
G1 X111.347 Y109.806 E3.16650
G1 X111.460 Y109.571 E3.17870
G1 X111.546 Y109.473 E3.18482
G1 X111.763 Y109.330 E3.19702
G1 X112.017 Y109.272 E3.20922
G1 X112.275 Y109.307 E3.22142
G1 X112.505 Y109.430 E3.23362
G1 X112.676 Y109.626 E3.24581
G1 X112.733 Y109.744 E3.25194
G1 X112.774 Y109.940 E3.26134
G1 X112.666 Y110.065 F7800.000
G1 E1.26134 F2400.00000
G92 E0
M107
; Filament-specific end gcode 
;END gcode for filament

M104 S0 ; turn off temperature
G28 X0  ; home X axis
M84     ; disable motors

M140 S0 ; set bed temperature
; cog_x = 110.001398
; cog_y = 110.001775
; cog_z = 0.542416
; filament_length_m = 0.0139 
; filament_volume_cm3 = 0.0334
; total_filament_cost = 0.0

; avoid_crossing_perimeters = 0
; bed_shape = 0x0,220x0,220x220,0x220
; bed_temperature = 80
; before_layer_gcode = 
; between_objects_gcode = 
; bridge_acceleration = 0
; bridge_fan_speed = 100
; brim_connections_width = 0
; brim_ears = 0
; brim_ears_max_angle = 125
; brim_width = 0
; complete_objects = 0
; cooling = 1
; default_acceleration = 0
; disable_fan_first_layers = 3
; duplicate_distance = 6
; end_filament_gcode = "; Filament-specific end gcode \n;END gcode for filament\n"
; end_gcode = M104 S0 ; turn off temperature\nG28 X0  ; home X axis\nM84     ; disable motors\n
; extruder_clearance_height = 20
; extruder_clearance_radius = 20
; extruder_offset = 0x0
; extrusion_axis = E
; extrusion_multiplier = 1
; fan_always_on = 0
; fan_below_layer_time = 60
; fan_percentage = 0
; filament_colour = #FFFFFF
; filament_cost = 0
; filament_density = 0
; filament_diameter = 1.75
; filament_max_volumetric_speed = 0
; filament_notes = ""
; first_layer_acceleration = 0
; first_layer_bed_temperature = 85
; first_layer_extrusion_width = 200%
; first_layer_speed = 30
; first_layer_temperature = 225
; gcode_arcs = 0
; gcode_comments = 0
; gcode_flavor = reprap
; has_heatbed = 1
; infill_acceleration = 0
; infill_first = 0
; interior_brim_width = 0
; label_printed_objects = 0
; layer_gcode = 
; max_fan_speed = 100
; max_layer_height = 0.3
; max_print_speed = 80
; max_volumetric_speed = 0
; min_fan_speed = 35
; min_layer_height = 0.15
; min_print_speed = 10
; min_skirt_length = 0
; notes = 
; nozzle_diameter = 0.4
; only_retract_when_crossing_perimeters = 1
; ooze_prevention = 0
; output_filename_format = [input_filename_base].gcode
; perimeter_acceleration = 0
; post_process = 
; pressure_advance = 0
; printer_notes = 
; resolution = 0
; retract_before_travel = 2
; retract_layer_change = 0
; retract_length = 2
; retract_length_toolchange = 10
; retract_lift = 0
; retract_lift_above = 0
; retract_lift_below = 0
; retract_restart_extra = 0
; retract_restart_extra_toolchange = 0
; retract_speed = 40
; skirt_distance = 6
; skirt_height = 1
; skirts = 1
; slowdown_below_layer_time = 5
; spiral_vase = 0
; standby_temperature_delta = -5
; start_filament_gcode = "; Filament gcode\n"
; start_gcode = G28 ; home all axes\nG1 Z5 F5000 ; lift nozzle\n
; temperature = 220
; threads = 8
; toolchange_gcode = 
; travel_speed = 130
; use_firmware_retraction = 0
; use_relative_e_distances = 0
; use_set_and_wait_bed = 0
; use_set_and_wait_extruder = 0
; use_volumetric_e = 0
; vibration_limit = 0
; wipe = 0
; z_offset = 0
; z_steps_per_mm = 0
; adaptive_slicing = 0
; adaptive_slicing_quality = 75%
; dont_support_bridges = 1
; extrusion_width = 0
; first_layer_height = 0.4
; infill_only_where_needed = 0
; interface_shells = 0
; layer_height = 0.3
; match_horizontal_surfaces = 0
; raft_layers = 0
; regions_overlap = 0
; seam_position = aligned
; sequential_print_priority = 0
; support_material = 0
; support_material_angle = 0
; support_material_buildplate_only = 0
; support_material_contact_distance = 0.2
; support_material_enforce_layers = 0
; support_material_extruder = 1
; support_material_extrusion_width = 0
; support_material_interface_extruder = 1
; support_material_interface_extrusion_width = 0
; support_material_interface_layers = 3
; support_material_interface_spacing = 0
; support_material_interface_speed = 100%
; support_material_max_layers = 0
; support_material_pattern = pillars
; support_material_pillar_size = 2.5
; support_material_pillar_spacing = 10
; support_material_spacing = 2.5
; support_material_speed = 60
; support_material_threshold = 60%
; xy_size_compensation = 0
; bottom_infill_pattern = rectilinear
; bottom_solid_layers = 3
; bridge_flow_ratio = 1
; bridge_speed = 60
; external_perimeter_extrusion_width = 0
; external_perimeter_speed = 50%
; external_perimeters_first = 0
; extra_perimeters = 1
; fill_angle = 45
; fill_density = 20%
; fill_gaps = 1
; fill_pattern = stars
; gap_fill_speed = 20
; infill_every_layers = 1
; infill_extruder = 1
; infill_extrusion_width = 0
; infill_overlap = 55%
; infill_speed = 80
; min_shell_thickness = 0
; min_top_bottom_shell_thickness = 0
; overhangs = 1
; perimeter_extruder = 1
; perimeter_extrusion_width = 0
; perimeter_speed = 60
; perimeters = 3
; small_perimeter_speed = 15
; solid_infill_below_area = 70
; solid_infill_every_layers = 0
; solid_infill_extruder = 1
; solid_infill_extrusion_width = 0
; solid_infill_speed = 20
; thin_walls = 1
; top_infill_extrusion_width = 0
; top_infill_pattern = rectilinear
; top_solid_infill_speed = 15
; top_solid_layers = 3

