; generated by Slic3r 1.3.1-dev (Build 18ddd3a36dc69d81fb9b7440498bff9e1dde8b7e) on 2021-11-09 at 18:11:35

; external perimeters extrusion width = 0.44mm (3.38mm^3/s)
; perimeters extrusion width = 0.48mm (7.54mm^3/s)
; infill extrusion width = 0.48mm (10.05mm^3/s)
; solid infill extrusion width = 0.48mm (2.51mm^3/s)
; top infill extrusion width = 0.48mm (1.88mm^3/s)

M107
G92 E0
M190 S85 ; set bed temperature and wait for it to be reached
M104 S225 ; set temperature
G28 ; home all axes
G1 Z5 F5000 ; lift nozzle

; Filament gcode

M109 S225 ; set temperature and wait for it to be reached
G21 ; set units to millimeters
G90 ; use absolute coordinates
M82 ; use absolute distances for extrusion
G92 E0
G1 Z0.400 F7800.000
G1 E-2.00000 F2400.00000
G92 E0
G1 X104.035 Y104.068 F7800.000
G1 E2.00000 F2400.00000
G1 F714.617
G1 X104.579 Y103.566 E2.08787
G1 X105.320 Y103.009 E2.19794
G1 X106.117 Y102.537 E2.30801
G1 X106.961 Y102.155 E2.41805
G1 X108.025 Y101.823 E2.55035
G1 X108.936 Y101.655 E2.66045
G1 X109.861 Y101.589 E2.77051
G1 X110.786 Y101.625 E2.88053
G1 X111.520 Y101.727 E2.96844
G1 X112.420 Y101.944 E3.07849
G1 X113.292 Y102.259 E3.18858
G1 X114.123 Y102.669 E3.29865
G1 X114.905 Y103.167 E3.40870
G1 X115.765 Y103.875 E3.54101
G1 X116.403 Y104.546 E3.65105
G1 X116.965 Y105.284 E3.76115
G1 X117.441 Y106.079 E3.87119
G1 X117.827 Y106.921 E3.98129
G1 X118.118 Y107.801 E4.09137
G1 X118.311 Y108.708 E4.20142
G1 X118.403 Y109.630 E4.31149
G1 X118.403 Y110.370 E4.39936
G1 X118.311 Y111.292 E4.50943
G1 X118.118 Y112.199 E4.61948
G1 X117.757 Y113.252 E4.75177
G1 X117.441 Y113.921 E4.83965
G1 X116.965 Y114.716 E4.94969
G1 X116.403 Y115.454 E5.05979
G1 X115.765 Y116.125 E5.16982
G1 X114.905 Y116.833 E5.30214
G1 X114.123 Y117.331 E5.41219
G1 X113.292 Y117.741 E5.52226
G1 X112.420 Y118.056 E5.63234
G1 X111.519 Y118.273 E5.74240
G1 X110.786 Y118.375 E5.83030
G1 X109.861 Y118.411 E5.94034
G1 X108.936 Y118.345 E6.05039
G1 X108.025 Y118.177 E6.16049
G1 X106.961 Y117.845 E6.29279
G1 X106.117 Y117.463 E6.40283
G1 X105.320 Y116.991 E6.51290
G1 X104.724 Y116.553 E6.60076
G1 X104.035 Y115.933 E6.71083
G1 X103.418 Y115.240 E6.82091
G1 X102.882 Y114.485 E6.93095
G1 X102.352 Y113.505 E7.06327
G1 X102.013 Y112.643 E7.17331
G1 X101.811 Y111.930 E7.26122
G1 X101.649 Y111.019 E7.37123
G1 X101.587 Y110.094 E7.48133
G1 X101.628 Y109.168 E7.59142
G1 X101.770 Y108.252 E7.70143
G1 X102.073 Y107.180 E7.83377
G1 X102.432 Y106.326 E7.94380
G1 X102.882 Y105.515 E8.05392
G1 X103.418 Y104.760 E8.16396
G1 X103.993 Y104.111 E8.26691
G1 E6.26691 F2400.00000
G92 E0
G1 X110.574 Y110.064 F7800.000
G1 E2.00000 F2400.00000
G1 F714.617
G1 X110.539 Y110.220 E2.01897
G1 X110.456 Y110.356 E2.03794
G1 X110.367 Y110.447 E2.05307
G1 X110.260 Y110.517 E2.06820
G1 X110.141 Y110.561 E2.08333
G1 X110.015 Y110.579 E2.09846
G1 X109.888 Y110.568 E2.11359
G1 X109.766 Y110.530 E2.12872
G1 X109.628 Y110.450 E2.14770
G1 X109.502 Y110.306 E2.17051
G1 X109.442 Y110.158 E2.18948
G1 X109.421 Y110.032 E2.20461
G1 X109.429 Y109.872 E2.22358
G1 X109.489 Y109.724 E2.24255
G1 X109.562 Y109.620 E2.25768
G1 X109.680 Y109.512 E2.27665
G1 X109.826 Y109.447 E2.29562
G1 X109.951 Y109.423 E2.31075
G1 X110.078 Y109.426 E2.32589
G1 X110.233 Y109.466 E2.34486
G1 X110.367 Y109.553 E2.36383
G1 X110.456 Y109.644 E2.37896
G1 X110.539 Y109.780 E2.39793
G1 X110.574 Y110.004 E2.42477
G1 X111.271 Y110.220 F7800.000
G1 F1800.000
G1 X111.224 Y110.432 E2.45061
G1 X111.178 Y110.544 E2.46498
G1 X111.023 Y110.797 E2.50021
G1 X110.824 Y111.002 E2.53411
G1 X110.585 Y111.158 E2.56802
G1 X110.317 Y111.258 E2.60192
G1 X110.034 Y111.297 E2.63583
G1 X109.750 Y111.273 E2.66973
G1 X109.477 Y111.188 E2.70364
G1 X109.221 Y111.040 E2.73887
G1 X109.127 Y110.963 E2.75324
G1 X108.925 Y110.731 E2.78979
G1 X108.862 Y110.628 E2.80416
G1 X108.750 Y110.353 E2.83939
G1 X108.703 Y110.071 E2.87329
G1 X108.719 Y109.775 E2.90852
G1 X108.746 Y109.657 E2.92289
G1 X108.858 Y109.382 E2.95812
G1 X109.020 Y109.148 E2.99202
G1 X109.238 Y108.947 E3.02725
G1 X109.340 Y108.881 E3.04162
G1 X109.611 Y108.762 E3.07685
G1 X109.892 Y108.707 E3.11075
G1 X110.177 Y108.715 E3.14466
G1 X110.464 Y108.788 E3.17989
G1 X110.575 Y108.836 E3.19426
G1 X110.824 Y108.998 E3.22949
G1 X111.023 Y109.203 E3.26339
G1 X111.178 Y109.456 E3.29862
G1 X111.224 Y109.568 E3.31299
G1 X111.288 Y109.857 E3.34822
G1 X111.284 Y110.161 E3.38433
G1 X111.068 Y110.297 F7800.000
M104 S220 ; set temperature
M140 S80 ; set bed temperature
G1 Z0.700 F7800.000
G1 X110.652 Y110.072 F7800.000
G1 F600.000
G1 X110.613 Y110.249 E3.39381
G1 X110.518 Y110.404 E3.40329
G1 X110.417 Y110.508 E3.41084
G1 X110.296 Y110.587 E3.41840
G1 X110.160 Y110.637 E3.42596
G1 X110.017 Y110.657 E3.43352
G1 X109.873 Y110.645 E3.44108
G1 X109.735 Y110.602 E3.44864
G1 X109.577 Y110.511 E3.45811
G1 X109.434 Y110.347 E3.46951
G1 X109.366 Y110.179 E3.47899
G1 X109.342 Y110.036 E3.48654
G1 X109.352 Y109.855 E3.49602
G1 X109.420 Y109.687 E3.50550
G1 X109.503 Y109.568 E3.51306
G1 X109.609 Y109.470 E3.52061
G1 X109.735 Y109.398 E3.52817
G1 X109.908 Y109.344 E3.53765
G1 X110.089 Y109.349 E3.54713
G1 X110.265 Y109.393 E3.55660
G1 X110.417 Y109.492 E3.56608
G1 X110.518 Y109.596 E3.57364
G1 X110.613 Y109.751 E3.58312
G1 X110.652 Y109.928 E3.59259
G1 X110.652 Y110.012 E3.59702
G1 X111.061 Y110.164 F7800.000
G1 F600.000
G1 X110.983 Y110.446 E3.61229
G1 X110.850 Y110.663 E3.62559
G1 X110.685 Y110.833 E3.63799
G1 X110.486 Y110.963 E3.65040
G1 X110.264 Y111.046 E3.66280
G1 X110.028 Y111.079 E3.67520
G1 X109.792 Y111.059 E3.68761
G1 X109.565 Y110.988 E3.70001
G1 X109.345 Y110.861 E3.71331
G1 X109.101 Y110.602 E3.73190
G1 X108.960 Y110.294 E3.74959
G1 X108.921 Y110.059 E3.76200
G1 X108.935 Y109.805 E3.77530
G1 X109.050 Y109.486 E3.79299
G1 X109.185 Y109.291 E3.80539
G1 X109.360 Y109.131 E3.81780
G1 X109.565 Y109.012 E3.83020
G1 X109.808 Y108.936 E3.84350
G1 X110.147 Y108.931 E3.86120
G1 X110.472 Y109.028 E3.87889
G1 X110.685 Y109.167 E3.89219
G1 X110.850 Y109.337 E3.90459
G1 X111.015 Y109.633 E3.92229
G1 X111.071 Y109.881 E3.93559
G1 X111.071 Y110.105 E3.94728
G1 X111.449 Y110.251 F7800.000
G1 F900.000
G1 X111.396 Y110.486 E3.95857
G1 X111.339 Y110.626 E3.96564
G1 X111.166 Y110.908 E3.98117
G1 X110.939 Y111.141 E3.99641
G1 X110.666 Y111.319 E4.01165
G1 X110.362 Y111.433 E4.02689
G1 X110.039 Y111.478 E4.04213
G1 X109.715 Y111.451 E4.05738
G1 X109.405 Y111.354 E4.07262
G1 X109.118 Y111.188 E4.08815
G1 X109.001 Y111.092 E4.09521
G1 X108.780 Y110.838 E4.11103
G1 X108.701 Y110.709 E4.11809
G1 X108.576 Y110.402 E4.13362
G1 X108.522 Y110.081 E4.14886
G1 X108.541 Y109.751 E4.16439
G1 X108.574 Y109.603 E4.17146
G1 X108.698 Y109.296 E4.18699
G1 X108.884 Y109.029 E4.20223
G1 X109.123 Y108.809 E4.21747
G1 X109.405 Y108.646 E4.23271
G1 X109.721 Y108.547 E4.24824
G1 X109.870 Y108.526 E4.25531
G1 X110.202 Y108.535 E4.27083
G1 X110.523 Y108.617 E4.28636
G1 X110.661 Y108.677 E4.29343
G1 X110.939 Y108.859 E4.30896
G1 X111.166 Y109.092 E4.32420
G1 X111.339 Y109.374 E4.33973
G1 X111.396 Y109.514 E4.34679
G1 X111.468 Y109.837 E4.36232
G1 X111.462 Y110.192 E4.37895
G1 X111.223 Y110.336 F7800.000
G1 X110.317 Y109.986 F7800.000
G1 F600.000
G1 X109.991 Y109.660 E4.40606
G1 X109.684 Y110.020 F7800.000
G1 F600.000
G1 X110.011 Y110.347 E4.43327
G1 Z1.000 F7800.000
G1 X110.652 Y110.072 F7800.000
G1 F600.000
G1 X110.613 Y110.249 E4.44275
G1 X110.518 Y110.404 E4.45223
G1 X110.417 Y110.508 E4.45979
G1 X110.296 Y110.587 E4.46735
G1 X110.160 Y110.637 E4.47490
G1 X110.017 Y110.657 E4.48246
G1 X109.873 Y110.645 E4.49002
G1 X109.735 Y110.602 E4.49758
G1 X109.577 Y110.511 E4.50706
G1 X109.434 Y110.347 E4.51845
G1 X109.366 Y110.179 E4.52793
G1 X109.342 Y110.036 E4.53549
G1 X109.352 Y109.855 E4.54496
G1 X109.420 Y109.687 E4.55444
G1 X109.503 Y109.568 E4.56200
G1 X109.636 Y109.445 E4.57148
G1 X109.802 Y109.372 E4.58095
G1 X109.944 Y109.345 E4.58851
G1 X110.089 Y109.349 E4.59607
G1 X110.265 Y109.393 E4.60555
G1 X110.417 Y109.492 E4.61502
G1 X110.518 Y109.596 E4.62258
G1 X110.613 Y109.751 E4.63206
G1 X110.652 Y109.928 E4.64153
G1 X110.652 Y110.012 E4.64596
G1 X111.071 Y110.072 F7800.000
G1 F600.000
G1 X111.015 Y110.367 E4.66163
G1 X110.983 Y110.446 E4.66607
G1 X110.850 Y110.663 E4.67937
G1 X110.685 Y110.833 E4.69177
G1 X110.486 Y110.963 E4.70418
G1 X110.264 Y111.046 E4.71658
G1 X110.028 Y111.079 E4.72898
G1 X109.792 Y111.059 E4.74138
G1 X109.565 Y110.988 E4.75379
G1 X109.279 Y110.807 E4.77148
G1 X109.056 Y110.529 E4.79007
G1 X108.960 Y110.294 E4.80337
G1 X108.921 Y110.059 E4.81578
G1 X108.954 Y109.722 E4.83347
G1 X109.050 Y109.486 E4.84677
G1 X109.185 Y109.291 E4.85917
G1 X109.443 Y109.072 E4.87687
G1 X109.677 Y108.970 E4.89017
G1 X109.910 Y108.925 E4.90257
G1 X110.147 Y108.931 E4.91497
G1 X110.394 Y108.994 E4.92827
G1 X110.685 Y109.167 E4.94597
G1 X110.850 Y109.337 E4.95837
G1 X110.983 Y109.554 E4.97167
G1 X111.071 Y109.881 E4.98937
G1 X111.071 Y110.012 E4.99621
G1 X111.468 Y110.072 F7800.000
G1 F900.000
G1 X111.468 Y110.163 E5.00045
G1 X111.396 Y110.486 E5.01597
G1 X111.339 Y110.626 E5.02304
G1 X111.166 Y110.908 E5.03857
G1 X110.939 Y111.141 E5.05381
G1 X110.666 Y111.319 E5.06905
G1 X110.362 Y111.433 E5.08429
G1 X110.039 Y111.478 E5.09953
G1 X109.715 Y111.451 E5.11478
G1 X109.405 Y111.354 E5.13002
G1 X109.118 Y111.188 E5.14554
G1 X109.001 Y111.092 E5.15261
G1 X108.780 Y110.838 E5.16843
G1 X108.701 Y110.709 E5.17549
G1 X108.576 Y110.402 E5.19102
G1 X108.522 Y110.081 E5.20626
G1 X108.541 Y109.751 E5.22179
G1 X108.574 Y109.603 E5.22886
G1 X108.698 Y109.296 E5.24439
G1 X108.884 Y109.029 E5.25963
G1 X109.127 Y108.804 E5.27516
G1 X109.254 Y108.722 E5.28222
G1 X109.557 Y108.589 E5.29775
G1 X109.877 Y108.526 E5.31299
G1 X110.202 Y108.535 E5.32823
G1 X110.523 Y108.617 E5.34376
G1 X110.661 Y108.677 E5.35083
G1 X110.939 Y108.859 E5.36636
G1 X111.166 Y109.092 E5.38160
G1 X111.339 Y109.374 E5.39713
G1 X111.396 Y109.514 E5.40419
G1 X111.468 Y109.837 E5.41972
G1 X111.468 Y110.012 E5.42792
G1 X111.392 Y110.121 F7800.000
G1 X110.311 Y110.020 F7800.000
G1 F600.000
G1 X109.986 Y110.345 E5.45495
G1 X109.657 Y110.008 F7800.000
G1 F600.000
G1 X109.985 Y109.680 E5.48216
M106 S255
G1 Z1.300 F7800.000
G1 X110.652 Y110.072 F7800.000
G1 F600.000
G1 X110.613 Y110.249 E5.49164
G1 X110.518 Y110.404 E5.50112
G1 X110.417 Y110.508 E5.50868
G1 X110.296 Y110.587 E5.51623
G1 X110.160 Y110.637 E5.52379
G1 X110.017 Y110.657 E5.53135
G1 X109.873 Y110.645 E5.53891
G1 X109.735 Y110.602 E5.54647
G1 X109.577 Y110.511 E5.55594
G1 X109.434 Y110.347 E5.56734
G1 X109.366 Y110.179 E5.57682
G1 X109.342 Y110.036 E5.58437
G1 X109.352 Y109.855 E5.59385
G1 X109.420 Y109.687 E5.60333
G1 X109.503 Y109.568 E5.61089
G1 X109.609 Y109.470 E5.61844
G1 X109.735 Y109.398 E5.62600
G1 X109.908 Y109.344 E5.63548
G1 X110.089 Y109.349 E5.64496
G1 X110.265 Y109.393 E5.65443
G1 X110.417 Y109.492 E5.66391
G1 X110.518 Y109.596 E5.67147
G1 X110.613 Y109.751 E5.68095
G1 X110.652 Y109.928 E5.69042
G1 X110.652 Y110.012 E5.69485
G1 X111.061 Y110.164 F7800.000
G1 F600.000
G1 X110.983 Y110.446 E5.71012
G1 X110.850 Y110.663 E5.72342
G1 X110.685 Y110.833 E5.73583
G1 X110.486 Y110.963 E5.74823
G1 X110.264 Y111.046 E5.76063
G1 X110.028 Y111.079 E5.77303
G1 X109.792 Y111.059 E5.78544
G1 X109.565 Y110.988 E5.79784
G1 X109.345 Y110.861 E5.81114
G1 X109.101 Y110.602 E5.82973
G1 X108.960 Y110.294 E5.84742
G1 X108.921 Y110.059 E5.85983
G1 X108.935 Y109.805 E5.87313
G1 X109.050 Y109.486 E5.89082
G1 X109.185 Y109.291 E5.90323
G1 X109.360 Y109.131 E5.91563
G1 X109.565 Y109.012 E5.92803
G1 X109.808 Y108.936 E5.94133
G1 X110.147 Y108.931 E5.95903
G1 X110.472 Y109.028 E5.97672
G1 X110.685 Y109.167 E5.99002
G1 X110.850 Y109.337 E6.00242
G1 X111.015 Y109.633 E6.02012
G1 X111.071 Y109.881 E6.03342
G1 X111.071 Y110.105 E6.04511
G1 X111.449 Y110.251 F7800.000
G1 F900.000
G1 X111.396 Y110.486 E6.05640
G1 X111.339 Y110.626 E6.06347
G1 X111.166 Y110.908 E6.07900
G1 X110.939 Y111.141 E6.09424
G1 X110.666 Y111.319 E6.10948
G1 X110.362 Y111.433 E6.12472
G1 X110.039 Y111.478 E6.13997
G1 X109.715 Y111.451 E6.15521
G1 X109.405 Y111.354 E6.17045
G1 X109.118 Y111.188 E6.18598
G1 X109.001 Y111.092 E6.19304
G1 X108.780 Y110.838 E6.20886
G1 X108.701 Y110.709 E6.21592
G1 X108.576 Y110.402 E6.23145
G1 X108.522 Y110.081 E6.24669
G1 X108.541 Y109.751 E6.26222
G1 X108.574 Y109.603 E6.26929
G1 X108.698 Y109.296 E6.28482
G1 X108.884 Y109.029 E6.30006
G1 X109.123 Y108.809 E6.31530
G1 X109.405 Y108.646 E6.33054
G1 X109.721 Y108.547 E6.34607
G1 X109.870 Y108.526 E6.35314
G1 X110.202 Y108.535 E6.36866
G1 X110.523 Y108.617 E6.38419
G1 X110.661 Y108.677 E6.39126
G1 X110.939 Y108.859 E6.40679
G1 X111.166 Y109.092 E6.42203
G1 X111.339 Y109.374 E6.43756
G1 X111.396 Y109.514 E6.44462
G1 X111.468 Y109.837 E6.46015
G1 X111.462 Y110.192 E6.47678
G1 X111.223 Y110.336 F7800.000
G1 X110.317 Y109.986 F7800.000
G1 F600.000
G1 X109.991 Y109.660 E6.50389
G1 X109.684 Y110.020 F7800.000
G1 F600.000
G1 X110.011 Y110.347 E6.53110
G1 E4.53110 F2400.00000
G92 E0
M107
; Filament-specific end gcode 
;END gcode for filament

M104 S0 ; turn off temperature
G28 X0  ; home X axis
M84     ; disable motors

M140 S0 ; set bed temperature
; cog_x = 109.995986
; cog_y = 110.002346
; cog_z = 0.696027
; filament_length_m = 0.0108 
; filament_volume_cm3 = 0.0260
; total_filament_cost = 0.0

; avoid_crossing_perimeters = 0
; bed_shape = 0x0,220x0,220x220,0x220
; bed_temperature = 80
; before_layer_gcode = 
; between_objects_gcode = 
; bridge_acceleration = 0
; bridge_fan_speed = 100
; brim_connections_width = 0
; brim_ears = 0
; brim_ears_max_angle = 125
; brim_width = 0
; complete_objects = 0
; cooling = 1
; default_acceleration = 0
; disable_fan_first_layers = 3
; duplicate_distance = 6
; end_filament_gcode = "; Filament-specific end gcode \n;END gcode for filament\n"
; end_gcode = M104 S0 ; turn off temperature\nG28 X0  ; home X axis\nM84     ; disable motors\n
; extruder_clearance_height = 20
; extruder_clearance_radius = 20
; extruder_offset = 0x0
; extrusion_axis = E
; extrusion_multiplier = 1
; fan_always_on = 0
; fan_below_layer_time = 60
; fan_percentage = 0
; filament_colour = #FFFFFF
; filament_cost = 0
; filament_density = 0
; filament_diameter = 1.75
; filament_max_volumetric_speed = 0
; filament_notes = ""
; first_layer_acceleration = 0
; first_layer_bed_temperature = 85
; first_layer_extrusion_width = 200%
; first_layer_speed = 30
; first_layer_temperature = 225
; gcode_arcs = 0
; gcode_comments = 0
; gcode_flavor = reprap
; has_heatbed = 1
; infill_acceleration = 0
; infill_first = 0
; interior_brim_width = 0
; label_printed_objects = 0
; layer_gcode = 
; max_fan_speed = 100
; max_layer_height = 0.3
; max_print_speed = 80
; max_volumetric_speed = 0
; min_fan_speed = 35
; min_layer_height = 0.15
; min_print_speed = 10
; min_skirt_length = 0
; notes = 
; nozzle_diameter = 0.4
; only_retract_when_crossing_perimeters = 1
; ooze_prevention = 0
; output_filename_format = [input_filename_base].gcode
; perimeter_acceleration = 0
; post_process = 
; pressure_advance = 0
; printer_notes = 
; resolution = 0
; retract_before_travel = 2
; retract_layer_change = 0
; retract_length = 2
; retract_length_toolchange = 10
; retract_lift = 0
; retract_lift_above = 0
; retract_lift_below = 0
; retract_restart_extra = 0
; retract_restart_extra_toolchange = 0
; retract_speed = 40
; skirt_distance = 6
; skirt_height = 1
; skirts = 1
; slowdown_below_layer_time = 5
; spiral_vase = 0
; standby_temperature_delta = -5
; start_filament_gcode = "; Filament gcode\n"
