; generated by Slic3r 1.3.1-dev (Build 18ddd3a36dc69d81fb9b7440498bff9e1dde8b7e) on 2021-11-11 at 13:04:41

; external perimeters extrusion width = 0.44mm (3.38mm^3/s)
; perimeters extrusion width = 0.48mm (7.54mm^3/s)
; infill extrusion width = 0.48mm (10.05mm^3/s)
; solid infill extrusion width = 0.48mm (2.51mm^3/s)
; top infill extrusion width = 0.48mm (1.88mm^3/s)

M107
G92 E0
M190 S85 ; set bed temperature and wait for it to be reached
M104 S225 ; set temperature
G28 ; home all axes
G1 Z5 F5000 ; lift nozzle

; Filament gcode

M109 S225 ; set temperature and wait for it to be reached
G21 ; set units to millimeters
G90 ; use absolute coordinates
M82 ; use absolute distances for extrusion
G92 E0
G1 Z0.400 F7800.000
G1 E-2.00000 F2400.00000
G92 E0
G1 X100.377 Y103.720 F7800.000
G1 E2.00000 F2400.00000
G1 F1215.108
G1 X102.133 Y102.220 E2.27422
G1 X104.293 Y101.405 E2.54845
G1 X105.550 Y101.286 E2.69842
G1 X114.450 Y101.286 E3.75543
G1 X116.725 Y101.683 E4.02965
G1 X118.730 Y102.827 E4.30388
G1 X120.230 Y104.583 E4.57810
G1 X121.045 Y106.743 E4.85233
G1 X121.164 Y108.000 E5.00229
G1 X121.164 Y112.000 E5.47735
G1 X120.767 Y114.275 E5.75158
G1 X119.623 Y116.280 E6.02580
G1 X117.867 Y117.780 E6.30003
G1 X115.707 Y118.595 E6.57425
G1 X114.450 Y118.714 E6.72422
G1 X105.550 Y118.714 E7.78123
G1 X103.275 Y118.317 E8.05545
G1 X101.270 Y117.173 E8.32968
G1 X99.770 Y115.417 E8.60390
G1 X98.955 Y113.257 E8.87813
G1 X98.836 Y112.000 E9.02809
G1 X98.836 Y108.000 E9.50315
G1 X99.233 Y105.725 E9.77738
G1 X100.347 Y103.772 E10.04448
G1 E8.04448 F2400.00000
G92 E0
G1 X113.336 Y110.886 F7800.000
G1 E2.00000 F2400.00000
G1 F1215.108
G1 X111.564 Y110.886 E2.21041
G1 X111.564 Y109.114 E2.42082
G1 X113.336 Y109.114 E2.63124
G1 X113.336 Y110.826 E2.83453
G1 X114.050 Y111.600 F7800.000
G1 F1800.000
G1 X110.850 Y111.600 E3.21457
G1 X110.850 Y108.400 E3.59462
G1 X114.050 Y108.400 E3.97467
G1 X114.050 Y111.540 E4.34759
G1 X113.664 Y111.496 F7800.000
G1 E2.34759 F2400.00000
G92 E0
G1 X110.450 Y110.672 F7800.000
G1 E2.00000 F2400.00000
G1 F1800.000
G1 X109.512 Y109.728 E2.09888
G1 F1800.000
G1 X109.438 Y109.600 E2.10818
G1 F1800.000
G1 X109.390 Y109.500 E2.11340
G1 X109.359 Y109.308 E2.12256
G1 F1800.000
G1 X109.072 Y108.000 E2.19913
G1 X109.550 Y108.455 F7800.000
G1 F1800.000
G1 X108.171 Y108.179 E2.27545
G1 F1800.000
G1 X107.765 Y108.131 E2.29393
G1 F1800.000
G1 X107.196 Y108.142 E2.31067
G1 F1800.000
G1 X105.550 Y108.406 E2.37464
G1 X105.550 Y108.500 F7800.000
G1 F1800.000
G1 X107.613 Y108.000 E2.51332
G1 X106.070 Y108.000 F7800.000
G1 F1800.000
G1 X105.550 Y109.988 E2.66059
G1 X105.550 Y110.012 F7800.000
G1 F1800.000
G1 X106.070 Y112.000 E2.80788
G1 X105.981 Y112.000 F7800.000
G1 F1800.000
G1 X105.718 Y110.551 E2.87830
G1 F1800.000
G1 X105.677 Y110.128 E2.89332
G1 X105.699 Y109.577 E2.91280
G1 F1800.000
G1 X105.981 Y108.000 E2.99211
G1 E0.99211 F2400.00000
G92 E0
G1 X105.550 Y111.500 F7800.000
G1 E2.00000 F2400.00000
G1 F1800.000
G1 X107.613 Y112.000 E2.13868
G1 X107.765 Y111.869 F7800.000
G1 F1800.000
G1 X107.196 Y111.858 E2.15541
G1 F1800.000
G1 X105.550 Y111.594 E2.21939
G1 E0.21939 F2400.00000
G92 E0
G1 X107.765 Y111.869 F7800.000
G1 E2.00000 F2400.00000
G1 F1800.000
G1 X108.171 Y111.821 E2.01848
G1 F1800.000
G1 X109.550 Y111.545 E2.09480
G1 X109.072 Y112.000 F7800.000
G1 F1800.000
G1 X109.359 Y110.692 E2.17137
G1 F1800.000
G1 X109.390 Y110.500 E2.18054
G1 X109.438 Y110.400 E2.18575
G1 F1800.000
G1 X109.512 Y110.272 E2.19505
G1 F1800.000
G1 X110.279 Y109.500 E2.27592
M104 S220 ; set temperature
M140 S80 ; set bed temperature
G1 Z0.700 F7800.000
G1 E0.27592 F2400.00000
G92 E0
G1 X113.005 Y110.072 F7800.000
G1 E2.00000 F2400.00000
G1 F600.000
G1 X112.960 Y110.209 E2.00753
G1 X112.821 Y110.373 E2.01877
G1 X112.622 Y110.455 E2.03000
G1 X112.478 Y110.455 E2.03753
G1 X112.341 Y110.410 E2.04507
G1 X112.177 Y110.271 E2.05630
G1 X112.095 Y110.072 E2.06754
G1 X112.095 Y109.928 E2.07507
G1 X112.140 Y109.791 E2.08260
G1 X112.279 Y109.627 E2.09384
G1 X112.478 Y109.545 E2.10507
G1 X112.622 Y109.545 E2.11260
G1 X112.759 Y109.590 E2.12013
G1 X112.923 Y109.729 E2.13137
G1 X112.988 Y109.858 E2.13890
G1 X113.010 Y110.012 E2.14705
G1 X113.412 Y110.170 F7800.000
G1 F600.000
G1 X113.335 Y110.400 E2.15974
G1 X113.263 Y110.518 E2.16696
G1 X113.068 Y110.713 E2.18136
G1 X112.950 Y110.785 E2.18858
G1 X112.688 Y110.870 E2.20298
G1 X112.412 Y110.870 E2.21737
G1 X112.150 Y110.785 E2.23177
G1 X112.032 Y110.713 E2.23899
G1 X111.837 Y110.518 E2.25339
G1 X111.765 Y110.400 E2.26061
G1 X111.680 Y110.138 E2.27501
G1 X111.680 Y109.862 E2.28941
G1 X111.765 Y109.600 E2.30381
G1 X111.837 Y109.482 E2.31103
G1 X112.032 Y109.287 E2.32543
G1 X112.150 Y109.215 E2.33265
G1 X112.412 Y109.130 E2.34705
G1 X112.688 Y109.130 E2.36144
G1 X112.822 Y109.162 E2.36867
G1 X113.068 Y109.287 E2.38306
G1 X113.263 Y109.482 E2.39746
G1 X113.388 Y109.728 E2.41186
G1 X113.420 Y109.862 E2.41908
G1 X113.422 Y110.111 E2.43207
G1 X113.799 Y110.263 F7800.000
G1 F900.000
G1 X113.767 Y110.395 E2.43847
G1 X113.690 Y110.581 E2.44787
G1 X113.585 Y110.752 E2.45728
G1 X113.455 Y110.905 E2.46668
G1 X113.302 Y111.035 E2.47609
G1 X113.131 Y111.140 E2.48549
G1 X112.945 Y111.217 E2.49490
G1 X112.750 Y111.264 E2.50430
G1 X112.550 Y111.279 E2.51371
G1 X112.350 Y111.264 E2.52311
G1 X112.155 Y111.217 E2.53252
G1 X111.969 Y111.140 E2.54192
G1 X111.798 Y111.035 E2.55133
G1 X111.645 Y110.905 E2.56073
G1 X111.515 Y110.752 E2.57014
G1 X111.410 Y110.581 E2.57954
G1 X111.333 Y110.395 E2.58895
G1 X111.286 Y110.200 E2.59835
G1 X111.271 Y110.000 E2.60776
G1 X111.286 Y109.800 E2.61716
G1 X111.333 Y109.605 E2.62657
G1 X111.410 Y109.419 E2.63597
G1 X111.515 Y109.248 E2.64537
G1 X111.645 Y109.095 E2.65478
G1 X111.798 Y108.965 E2.66419
G1 X111.969 Y108.860 E2.67359
G1 X112.155 Y108.783 E2.68299
G1 X112.350 Y108.736 E2.69240
G1 X112.550 Y108.721 E2.70180
G1 X112.750 Y108.736 E2.71121
G1 X112.945 Y108.783 E2.72061
G1 X113.131 Y108.860 E2.73002
G1 X113.302 Y108.965 E2.73942
G1 X113.455 Y109.095 E2.74883
G1 X113.585 Y109.248 E2.75823
G1 X113.690 Y109.419 E2.76764
G1 X113.767 Y109.605 E2.77704
G1 X113.814 Y109.800 E2.78645
G1 X113.829 Y110.000 E2.79585
G1 X113.813 Y110.204 E2.80545
G1 X113.669 Y110.307 F7800.000
G1 Z1.000 F7800.000
G1 X113.005 Y110.072 F7800.000
G1 F600.000
G1 X112.960 Y110.209 E2.81299
G1 X112.821 Y110.373 E2.82422
G1 X112.692 Y110.438 E2.83175
G1 X112.478 Y110.455 E2.84299
G1 X112.341 Y110.410 E2.85052
G1 X112.177 Y110.271 E2.86176
G1 X112.095 Y110.072 E2.87299
G1 X112.095 Y109.928 E2.88052
G1 X112.140 Y109.791 E2.88805
G1 X112.279 Y109.627 E2.89929
G1 X112.478 Y109.545 E2.91053
G1 X112.622 Y109.545 E2.91806
G1 X112.759 Y109.590 E2.92559
G1 X112.923 Y109.729 E2.93682
G1 X112.988 Y109.858 E2.94435
G1 X113.010 Y110.012 E2.95251
G1 X113.412 Y110.170 F7800.000
G1 F600.000
G1 X113.335 Y110.400 E2.96519
G1 X113.263 Y110.518 E2.97241
G1 X113.068 Y110.713 E2.98681
G1 X112.822 Y110.838 E3.00121
G1 X112.688 Y110.870 E3.00843
G1 X112.412 Y110.870 E3.02283
G1 X112.150 Y110.785 E3.03723
G1 X112.032 Y110.713 E3.04445
G1 X111.837 Y110.518 E3.05885
G1 X111.765 Y110.400 E3.06607
G1 X111.680 Y110.138 E3.08047
G1 X111.680 Y109.862 E3.09486
G1 X111.765 Y109.600 E3.10926
G1 X111.837 Y109.482 E3.11648
G1 X112.032 Y109.287 E3.13088
G1 X112.278 Y109.162 E3.14528
G1 X112.412 Y109.130 E3.15250
G1 X112.688 Y109.130 E3.16690
G1 X112.950 Y109.215 E3.18130
G1 X113.068 Y109.287 E3.18852
G1 X113.263 Y109.482 E3.20292
G1 X113.388 Y109.728 E3.21731
G1 X113.420 Y109.862 E3.22454
G1 X113.422 Y110.111 E3.23753
G1 X113.799 Y110.263 F7800.000
G1 F900.000
G1 X113.767 Y110.395 E3.24392
G1 X113.690 Y110.581 E3.25333
G1 X113.585 Y110.752 E3.26273
G1 X113.455 Y110.905 E3.27214
G1 X113.302 Y111.035 E3.28154
G1 X113.131 Y111.140 E3.29095
G1 X112.945 Y111.217 E3.30035
G1 X112.750 Y111.264 E3.30976
G1 X112.550 Y111.279 E3.31916
G1 X112.350 Y111.264 E3.32857
G1 X112.155 Y111.217 E3.33797
G1 X111.969 Y111.140 E3.34738
G1 X111.798 Y111.035 E3.35678
G1 X111.645 Y110.905 E3.36619
G1 X111.515 Y110.752 E3.37559
G1 X111.410 Y110.581 E3.38499
G1 X111.333 Y110.395 E3.39440
G1 X111.286 Y110.200 E3.40380
G1 X111.271 Y110.000 E3.41321
G1 X111.286 Y109.800 E3.42261
G1 X111.333 Y109.605 E3.43202
G1 X111.410 Y109.419 E3.44142
G1 X111.515 Y109.248 E3.45083
G1 X111.645 Y109.095 E3.46023
G1 X111.798 Y108.965 E3.46964
G1 X111.969 Y108.860 E3.47904
G1 X112.155 Y108.783 E3.48845
G1 X112.350 Y108.736 E3.49785
G1 X112.550 Y108.721 E3.50726
G1 X112.750 Y108.736 E3.51666
G1 X112.945 Y108.783 E3.52607
G1 X113.131 Y108.860 E3.53547
G1 X113.302 Y108.965 E3.54488
G1 X113.455 Y109.095 E3.55428
G1 X113.585 Y109.248 E3.56369
G1 X113.690 Y109.419 E3.57309
G1 X113.767 Y109.605 E3.58250
G1 X113.814 Y109.800 E3.59190
G1 X113.829 Y110.000 E3.60131
G1 X113.813 Y110.204 E3.61091
G1 X113.669 Y110.307 F7800.000
M106 S255
G1 Z1.300 F7800.000
G1 X113.005 Y110.072 F7800.000
G1 F600.000
G1 X112.960 Y110.209 E3.61844
G1 X112.821 Y110.373 E3.62968
G1 X112.622 Y110.455 E3.64091
G1 X112.478 Y110.455 E3.64844
G1 X112.341 Y110.410 E3.65597
G1 X112.177 Y110.271 E3.66721
G1 X112.095 Y110.072 E3.67845
G1 X112.095 Y109.928 E3.68598
G1 X112.140 Y109.791 E3.69351
G1 X112.279 Y109.627 E3.70474
G1 X112.478 Y109.545 E3.71598
G1 X112.622 Y109.545 E3.72351
G1 X112.759 Y109.590 E3.73104
G1 X112.923 Y109.729 E3.74228
G1 X112.988 Y109.858 E3.74981
G1 X113.010 Y110.012 E3.75796
G1 X113.423 Y110.105 F7800.000
G1 F600.000
G1 X113.388 Y110.272 E3.76689
G1 X113.335 Y110.400 E3.77411
G1 X113.263 Y110.518 E3.78133
G1 X113.068 Y110.713 E3.79573
G1 X112.950 Y110.785 E3.80295
G1 X112.688 Y110.870 E3.81735
G1 X112.412 Y110.870 E3.83175
G1 X112.150 Y110.785 E3.84615
G1 X112.032 Y110.713 E3.85337
G1 X111.837 Y110.518 E3.86777
G1 X111.765 Y110.400 E3.87499
G1 X111.680 Y110.138 E3.88939
G1 X111.680 Y109.862 E3.90378
G1 X111.765 Y109.600 E3.91818
G1 X111.837 Y109.482 E3.92540
G1 X112.032 Y109.287 E3.93980
G1 X112.278 Y109.162 E3.95420
G1 X112.412 Y109.130 E3.96142
G1 X112.688 Y109.130 E3.97582
G1 X112.822 Y109.162 E3.98304
G1 X113.068 Y109.287 E3.99744
G1 X113.263 Y109.482 E4.01184
G1 X113.388 Y109.728 E4.02623
G1 X113.420 Y109.862 E4.03346
G1 X113.427 Y110.045 E4.04302
G1 X113.819 Y110.136 F7800.000
G1 F900.000
G1 X113.767 Y110.395 E4.05540
G1 X113.690 Y110.581 E4.06481
G1 X113.585 Y110.752 E4.07421
G1 X113.455 Y110.905 E4.08362
G1 X113.302 Y111.035 E4.09302
G1 X113.131 Y111.140 E4.10243
G1 X112.945 Y111.217 E4.11183
G1 X112.750 Y111.264 E4.12124
G1 X112.550 Y111.279 E4.13064
G1 X112.350 Y111.264 E4.14005
G1 X112.155 Y111.217 E4.14945
G1 X111.969 Y111.140 E4.15886
G1 X111.798 Y111.035 E4.16826
G1 X111.645 Y110.905 E4.17767
G1 X111.515 Y110.752 E4.18707
G1 X111.410 Y110.581 E4.19648
G1 X111.333 Y110.395 E4.20588
G1 X111.286 Y110.200 E4.21529
G1 X111.271 Y110.000 E4.22469
G1 X111.286 Y109.800 E4.23410
G1 X111.333 Y109.605 E4.24350
G1 X111.410 Y109.419 E4.25291
G1 X111.515 Y109.248 E4.26231
G1 X111.645 Y109.095 E4.27172
G1 X111.798 Y108.965 E4.28112
G1 X111.969 Y108.860 E4.29053
G1 X112.155 Y108.783 E4.29993
G1 X112.350 Y108.736 E4.30934
G1 X112.550 Y108.721 E4.31874
G1 X112.750 Y108.736 E4.32815
G1 X112.945 Y108.783 E4.33755
G1 X113.131 Y108.860 E4.34696
G1 X113.302 Y108.965 E4.35636
G1 X113.455 Y109.095 E4.36577
G1 X113.585 Y109.248 E4.37517
G1 X113.690 Y109.419 E4.38458
G1 X113.767 Y109.605 E4.39398
G1 X113.814 Y109.800 E4.40339
G1 X113.823 Y110.076 E4.41635
G1 X113.762 Y110.166 F7800.000
G1 E2.41635 F2400.00000
G92 E0
M107
; Filament-specific end gcode 
;END gcode for filament

M104 S0 ; turn off temperature
G28 X0  ; home X axis
M84     ; disable motors

M140 S0 ; set bed temperature
; cog_x = 110.622659
; cog_y = 110.001941
; cog_z = 0.579629
; filament_length_m = 0.0143 
; filament_volume_cm3 = 0.0344
; total_filament_cost = 0.0

; avoid_crossing_perimeters = 0
; bed_shape = 0x0,220x0,220x220,0x220
; bed_temperature = 80
; before_layer_gcode = 
; between_objects_gcode = 
; bridge_acceleration = 0
; bridge_fan_speed = 100
; brim_connections_width = 0
; brim_ears = 0
; brim_ears_max_angle = 125
; brim_width = 0
; complete_objects = 0
; cooling = 1
; default_acceleration = 0
; disable_fan_first_layers = 3
; duplicate_distance = 6
; end_filament_gcode = "; Filament-specific end gcode \n;END gcode for filament\n"
; end_gcode = M104 S0 ; turn off temperature\nG28 X0  ; home X axis\nM84     ; disable motors\n
; extruder_clearance_height = 20
; extruder_clearance_radius = 20
; extruder_offset = 0x0
; extrusion_axis = E
; extrusion_multiplier = 1
; fan_always_on = 0
; fan_below_layer_time = 60
; fan_percentage = 0
; filament_colour = #FFFFFF
; filament_cost = 0
; filament_density = 0
; filament_diameter = 1.75
; filament_max_volumetric_speed = 0
; filament_notes = ""
; first_layer_acceleration = 0
; first_layer_bed_temperature = 85
; first_layer_extrusion_width = 200%
; first_layer_speed = 30
; first_layer_temperature = 225
; gcode_arcs = 0
; gcode_comments = 0
; gcode_flavor = reprap
; has_heatbed = 1
; infill_acceleration = 0
; infill_first = 0
; interior_brim_width = 0
; label_printed_objects = 0
; layer_gcode = 
; max_fan_speed = 100
; max_layer_height = 0.3
; max_print_speed = 80
; max_volumetric_speed = 0
; min_fan_speed = 35
; min_layer_height = 0.15
; min_print_speed = 10
; min_skirt_length = 0
; notes = 
; nozzle_diameter = 0.4
; only_retract_when_crossing_perimeters = 1
; ooze_prevention = 0
; output_filename_format = [input_filename_base].gcode
; perimeter_acceleration = 0
; post_process = 
; pressure_advance = 0
; printer_notes = 
; resolution = 0
; retract_before_travel = 2
; retract_layer_change = 0
; retract_length = 2
; retract_length_toolchange = 10
; retract_lift = 0
; retract_lift_above = 0
; retract_lift_below = 0
; retract_restart_extra = 0
; retract_restart_extra_toolchange = 0
; retract_speed = 40
; skirt_distance = 6
; skirt_height = 1
; skirts = 1
; slowdown_below_layer_time = 5
; spiral_vase = 0
; standby_temperature_delta = -5
; start_filament_gcode = "; Filament gcode\n"
; start_gcode = G28 ; home all axes\nG1 Z5 F5000 ; lift nozzle\n
; temperature = 220
; threads = 8
; toolchange_gcode = 
; travel_speed = 130
; use_firmware_retraction = 0
; use_relative_e_distances = 0
; use_set_and_wait_bed = 0
; use_set_and_wait_extruder = 0
; use_volumetric_e = 0
; vibration_limit = 0
; wipe = 0
; z_offset = 0
; z_steps_per_mm = 0
; adaptive_slicing = 0
; adaptive_slicing_quality = 75%
; dont_support_bridges = 1
; extrusion_width = 0
; first_layer_height = 0.4
; infill_only_where_needed = 0
; interface_shells = 0
; layer_height = 0.3
; match_horizontal_surfaces = 0
; raft_layers = 0
; regions_overlap = 0
; seam_position = aligned
; sequential_print_priority = 0
; support_material = 0
; support_material_angle = 0
; support_material_buildplate_only = 0
; support_material_contact_distance = 0.2
; support_material_enforce_layers = 0
; support_material_extruder = 1
; support_material_extrusion_width = 0
; support_material_interface_extruder = 1
; support_material_interface_extrusion_width = 0
; support_material_interface_layers = 3
; support_material_interface_spacing = 0
; support_material_interface_speed = 100%
; support_material_max_layers = 0
; support_material_pattern = pillars
; support_material_pillar_size = 2.5
; support_material_pillar_spacing = 10
; support_material_spacing = 2.5
; support_material_speed = 60
; support_material_threshold = 60%
; xy_size_compensation = 0
; bottom_infill_pattern = rectilinear
; bottom_solid_layers = 3
; bridge_flow_ratio = 1
