; generated by Slic3r 1.3.1-dev (Build 18ddd3a36dc69d81fb9b7440498bff9e1dde8b7e) on 2022-03-03 at 02:33:37

; external perimeters extrusion width = 0.44mm (3.38mm^3/s)
; perimeters extrusion width = 0.48mm (7.54mm^3/s)
; infill extrusion width = 0.48mm (10.05mm^3/s)
; solid infill extrusion width = 0.48mm (2.51mm^3/s)
; top infill extrusion width = 0.48mm (1.88mm^3/s)

M107
G92 E0
M190 S85 ; set bed temperature and wait for it to be reached
M104 S225 ; set temperature
G28 ; home all axes
G1 Z5 F5000 ; lift nozzle

; Filament gcode

M109 S225 ; set temperature and wait for it to be reached
G21 ; set units to millimeters
G90 ; use absolute coordinates
M82 ; use absolute distances for extrusion
G92 E0
G1 Z0.400 F7800.000
G1 E-2.00000 F2400.00000
G92 E0
G1 X82.119 Y80.362 F7800.000
G1 E2.00000 F2400.00000
G1 F1800.000
G1 X82.626 Y79.892 E2.08210
G1 X85.314 Y77.650 E2.49784
G1 X85.867 Y77.235 E2.57994
G1 X88.771 Y75.281 E2.99569
G1 X89.364 Y74.925 E3.07778
G1 X92.454 Y73.280 E3.49353
G1 X93.080 Y72.987 E3.57563
G1 X96.323 Y71.668 E3.99137
G1 X96.976 Y71.441 E4.07347
G1 X100.337 Y70.462 E4.48922
G1 X101.009 Y70.304 E4.57132
G1 X104.453 Y69.676 E4.98706
G1 X105.139 Y69.587 E5.06916
G1 X108.629 Y69.317 E5.48490
G1 X109.320 Y69.299 E5.56700
G1 X112.819 Y69.389 E5.98275
G1 X113.509 Y69.443 E6.06485
G1 X116.980 Y69.892 E6.48059
G1 X117.660 Y70.016 E6.56269
G1 X121.067 Y70.820 E6.97843
G1 X121.731 Y71.013 E7.06053
G1 X125.037 Y72.164 E7.47628
G1 X125.678 Y72.424 E7.55837
G1 X128.848 Y73.908 E7.97412
G1 X129.458 Y74.233 E8.05622
G1 X132.459 Y76.035 E8.47196
G1 X133.033 Y76.421 E8.55406
G1 X135.833 Y78.522 E8.96981
G1 X136.363 Y78.965 E9.05190
G1 X138.932 Y81.342 E9.46765
G1 X139.415 Y81.838 E9.54975
G1 X141.726 Y84.467 E9.96549
G1 X142.155 Y85.009 E10.04759
G1 X144.183 Y87.862 E10.46333
G1 X144.554 Y88.445 E10.54543
G1 X146.278 Y91.492 E10.96118
G1 X146.587 Y92.110 E11.04328
G1 X147.989 Y95.318 E11.45902
G1 X148.233 Y95.965 E11.54112
G1 X149.298 Y99.299 E11.95686
G1 X149.474 Y99.968 E12.03897
G1 X150.190 Y103.394 E12.45471
G1 X150.296 Y104.077 E12.53681
G1 X150.656 Y107.559 E12.95255
G1 X150.692 Y108.250 E13.03465
G1 X150.692 Y111.750 E13.45039
G1 X150.656 Y112.441 E13.53250
G1 X150.296 Y115.923 E13.94824
G1 X150.190 Y116.606 E14.03034
G1 X149.474 Y120.032 E14.44608
G1 X149.298 Y120.701 E14.52818
G1 X148.233 Y124.035 E14.94393
G1 X147.989 Y124.682 E15.02602
G1 X146.587 Y127.890 E15.44177
G1 X146.278 Y128.508 E15.52387
G1 X144.554 Y131.555 E15.93961
G1 X144.183 Y132.138 E16.02171
G1 X142.155 Y134.991 E16.43745
G1 X141.726 Y135.533 E16.51955
G1 X139.415 Y138.162 E16.93530
G1 X138.932 Y138.658 E17.01740
G1 X136.363 Y141.035 E17.43314
G1 X135.833 Y141.478 E17.51524
G1 X133.033 Y143.579 E17.93098
G1 X132.459 Y143.965 E18.01308
G1 X129.458 Y145.767 E18.42883
G1 X128.848 Y146.092 E18.51093
G1 X125.678 Y147.576 E18.92667
G1 X125.037 Y147.836 E19.00877
G1 X121.731 Y148.987 E19.42451
G1 X121.067 Y149.180 E19.50661
G1 X117.660 Y149.984 E19.92236
G1 X116.980 Y150.108 E20.00446
G1 X113.509 Y150.557 E20.42020
G1 X112.819 Y150.611 E20.50230
G1 X109.320 Y150.701 E20.91804
G1 X108.629 Y150.683 E21.00014
G1 X105.139 Y150.413 E21.41589
G1 X104.453 Y150.324 E21.49799
G1 X101.009 Y149.696 E21.91373
G1 X100.337 Y149.538 E21.99583
G1 X96.976 Y148.559 E22.41157
G1 X96.323 Y148.332 E22.49367
G1 X93.080 Y147.013 E22.90942
G1 X92.454 Y146.720 E22.99151
G1 X89.364 Y145.075 E23.40726
G1 X88.771 Y144.719 E23.48936
G1 X85.867 Y142.765 E23.90510
G1 X85.314 Y142.350 E23.98720
G1 X82.626 Y140.108 E24.40294
G1 X82.119 Y139.638 E24.48504
G1 X79.676 Y137.131 E24.90079
G1 X79.219 Y136.612 E24.98289
G1 X77.047 Y133.867 E25.39863
G1 X76.646 Y133.304 E25.48073
G1 X74.768 Y130.350 E25.89648
G1 X74.427 Y129.748 E25.97857
G1 X72.862 Y126.617 E26.39432
G1 X72.585 Y125.984 E26.47642
G1 X71.350 Y122.708 E26.89216
G1 X71.140 Y122.050 E26.97426
G1 X70.249 Y118.665 E27.39001
G1 X70.107 Y117.988 E27.47210
G1 X69.569 Y114.529 E27.88785
G1 X69.497 Y113.842 E27.96995
G1 X69.317 Y110.346 E28.38569
G1 X69.317 Y109.654 E28.46779
G1 X69.497 Y106.158 E28.88353
G1 X69.569 Y105.471 E28.96563
G1 X70.107 Y102.012 E29.38138
G1 X70.249 Y101.335 E29.46348
G1 X71.140 Y97.950 E29.87922
G1 X71.350 Y97.292 E29.96132
G1 X72.585 Y94.016 E30.37706
G1 X72.862 Y93.383 E30.45916
G1 X74.427 Y90.252 E30.87491
G1 X74.768 Y89.650 E30.95701
G1 X76.646 Y86.696 E31.37275
G1 X77.047 Y86.133 E31.45485
G1 X79.219 Y83.388 E31.87059
G1 X79.676 Y82.869 E31.95269
G1 X82.077 Y80.405 E32.36131
G1 E30.36131 F2400.00000
G92 E0
G1 X131.823 Y131.801 F7800.000
G1 E2.00000 F2400.00000
G1 F1800.000
G1 X129.245 Y134.105 E2.41062
G1 X126.426 Y136.106 E2.82125
G1 X123.400 Y137.778 E3.23187
G1 X120.205 Y139.101 E3.64249
G1 X116.883 Y140.058 E4.05312
G1 X113.475 Y140.637 E4.46374
G1 X110.023 Y140.831 E4.87436
G1 X106.571 Y140.637 E5.28499
G1 X103.162 Y140.058 E5.69561
G1 X99.840 Y139.101 E6.10623
G1 X96.645 Y137.778 E6.51686
G1 X93.619 Y136.106 E6.92748
G1 X90.800 Y134.105 E7.33810
G1 X88.222 Y131.801 E7.74873
G1 X85.918 Y129.223 E8.15935
G1 X83.917 Y126.403 E8.56997
G1 X82.245 Y123.377 E8.98060
G1 X80.921 Y120.183 E9.39122
G1 X79.964 Y116.861 E9.80184
G1 X79.385 Y113.452 E10.21246
G1 X79.191 Y110.000 E10.62309
G1 X79.385 Y106.548 E11.03371
G1 X79.964 Y103.139 E11.44433
G1 X80.921 Y99.817 E11.85496
G1 X82.245 Y96.623 E12.26558
G1 X83.917 Y93.597 E12.67620
G1 X85.918 Y90.777 E13.08683
G1 X88.222 Y88.199 E13.49745
G1 X90.800 Y85.895 E13.90807
G1 X93.619 Y83.894 E14.31870
G1 X96.645 Y82.222 E14.72932
G1 X99.840 Y80.899 E15.13994
G1 X103.162 Y79.942 E15.55057
G1 X106.571 Y79.363 E15.96119
G1 X110.023 Y79.169 E16.37181
G1 X113.475 Y79.363 E16.78244
G1 X116.883 Y79.942 E17.19306
G1 X120.205 Y80.899 E17.60368
G1 X123.400 Y82.222 E18.01431
G1 X126.426 Y83.894 E18.42493
G1 X129.245 Y85.895 E18.83555
G1 X131.823 Y88.199 E19.24618
G1 X134.127 Y90.777 E19.65680
G1 X136.128 Y93.597 E20.06742
G1 X137.800 Y96.623 E20.47805
G1 X139.124 Y99.817 E20.88867
G1 X140.081 Y103.139 E21.29929
G1 X140.660 Y106.548 E21.70992
G1 X140.854 Y110.000 E22.12054
G1 X140.660 Y113.452 E22.53116
G1 X140.081 Y116.861 E22.94179
G1 X139.124 Y120.183 E23.35241
G1 X137.800 Y123.377 E23.76303
G1 X136.128 Y126.403 E24.17366
G1 X134.127 Y129.223 E24.58428
G1 X131.863 Y131.756 E24.98778
G1 X131.318 Y131.295 F7800.000
G1 F1800.000
G1 X128.800 Y133.546 E25.38887
G1 X126.045 Y135.500 E25.78997
G1 X123.089 Y137.133 E26.19107
G1 X119.969 Y138.426 E26.59216
G1 X116.724 Y139.361 E26.99326
G1 X113.394 Y139.927 E27.39436
G1 X110.023 Y140.116 E27.79545
G1 X106.651 Y139.927 E28.19655
G1 X103.321 Y139.361 E28.59765
G1 X100.076 Y138.426 E28.99874
G1 X96.956 Y137.133 E29.39984
G1 X94.000 Y135.500 E29.80094
G1 X91.246 Y133.546 E30.20203
G1 X88.727 Y131.295 E30.60313
G1 X86.477 Y128.777 E31.00423
G1 X84.523 Y126.023 E31.40533
G1 X82.889 Y123.067 E31.80642
G1 X81.597 Y119.947 E32.20752
G1 X80.662 Y116.701 E32.60862
G1 X80.096 Y113.372 E33.00971
G1 X79.907 Y110.000 E33.41081
G1 X80.096 Y106.628 E33.81191
G1 X80.662 Y103.299 E34.21300
G1 X81.597 Y100.053 E34.61410
G1 X82.889 Y96.933 E35.01520
G1 X84.523 Y93.977 E35.41629
G1 X86.477 Y91.223 E35.81739
G1 X88.727 Y88.705 E36.21849
G1 X91.246 Y86.454 E36.61958
G1 X94.000 Y84.500 E37.02068
G1 X96.956 Y82.866 E37.42178
G1 X100.076 Y81.574 E37.82287
G1 X103.321 Y80.639 E38.22397
G1 X106.651 Y80.073 E38.62507
G1 X110.023 Y79.884 E39.02616
G1 X113.394 Y80.073 E39.42726
G1 X116.724 Y80.639 E39.82836
G1 X119.969 Y81.574 E40.22945
G1 X123.089 Y82.866 E40.63055
G1 X126.045 Y84.500 E41.03165
G1 X128.800 Y86.454 E41.43274
G1 X131.318 Y88.705 E41.83384
G1 X133.568 Y91.223 E42.23494
G1 X135.522 Y93.977 E42.63604
G1 X137.156 Y96.933 E43.03713
G1 X138.448 Y100.053 E43.43823
G1 X139.383 Y103.299 E43.83933
G1 X139.949 Y106.628 E44.24042
G1 X140.138 Y110.000 E44.64152
G1 X139.949 Y113.372 E45.04262
G1 X139.383 Y116.701 E45.44371
G1 X138.448 Y119.947 E45.84481
G1 X137.156 Y123.067 E46.24591
G1 X135.522 Y126.023 E46.64700
G1 X133.568 Y128.777 E47.04810
G1 X131.358 Y131.250 E47.44207
G1 X130.812 Y130.789 F7800.000
G1 F1800.000
G1 X128.354 Y132.986 E47.83364
G1 X125.665 Y134.894 E48.22521
G1 X122.779 Y136.489 E48.61678
G1 X119.733 Y137.751 E49.00835
G1 X116.565 Y138.663 E49.39992
G1 X113.314 Y139.216 E49.79149
G1 X110.023 Y139.401 E50.18306
G1 X106.731 Y139.216 E50.57463
G1 X103.480 Y138.663 E50.96620
G1 X100.312 Y137.751 E51.35777
G1 X97.266 Y136.489 E51.74934
G1 X94.380 Y134.894 E52.14091
G1 X91.692 Y132.986 E52.53249
G1 X89.233 Y130.789 E52.92406
G1 X87.036 Y128.331 E53.31563
G1 X85.128 Y125.642 E53.70720
G1 X83.533 Y122.756 E54.09877
G1 X82.272 Y119.710 E54.49034
G1 X81.359 Y116.542 E54.88191
G1 X80.807 Y113.292 E55.27348
G1 X80.622 Y110.000 E55.66505
G1 X80.807 Y106.708 E56.05662
G1 X81.359 Y103.458 E56.44819
G1 X82.272 Y100.290 E56.83976
G1 X83.533 Y97.244 E57.23133
G1 X85.128 Y94.358 E57.62290
G1 X87.036 Y91.669 E58.01447
G1 X89.233 Y89.211 E58.40604
G1 X91.692 Y87.014 E58.79761
G1 X94.380 Y85.106 E59.18918
G1 X97.266 Y83.511 E59.58075
G1 X100.312 Y82.249 E59.97232
G1 X103.480 Y81.337 E60.36389
G1 X106.731 Y80.784 E60.75546
G1 X110.023 Y80.599 E61.14703
G1 X113.314 Y80.784 E61.53860
G1 X116.565 Y81.337 E61.93017
G1 X119.733 Y82.249 E62.32174
G1 X122.779 Y83.511 E62.71331
G1 X125.665 Y85.106 E63.10488
G1 X128.354 Y87.014 E63.49645
G1 X130.812 Y89.211 E63.88802
G1 X133.009 Y91.669 E64.27959
G1 X134.917 Y94.358 E64.67117
G1 X136.512 Y97.244 E65.06274
G1 X137.773 Y100.290 E65.45431
G1 X138.686 Y103.458 E65.84588
G1 X139.238 Y106.708 E66.23745
G1 X139.423 Y110.000 E66.62902
G1 X139.238 Y113.292 E67.02059
G1 X138.686 Y116.542 E67.41216
G1 X137.773 Y119.710 E67.80373
G1 X136.512 Y122.756 E68.19530
G1 X134.917 Y125.642 E68.58687
G1 X133.009 Y128.331 E68.97844
G1 X130.852 Y130.745 E69.36288
G1 X130.812 Y130.789 F7800.000
G1 E67.36288 F2400.00000
G92 E0
G1 X132.678 Y132.806 F7800.000
G1 E2.00000 F2400.00000
G1 F1800.000
G1 X130.630 Y134.702 E2.33152
G1 X127.981 Y136.690 E2.72488
G1 X125.141 Y138.395 E3.11824
G1 X122.142 Y139.799 E3.51159
G1 X119.013 Y140.887 E3.90495
G1 X115.790 Y141.648 E4.29831
G1 X112.505 Y142.073 E4.69167
G1 X109.194 Y142.159 E5.08503
G1 X105.892 Y141.903 E5.47838
G1 X102.634 Y141.309 E5.87174
G1 X99.454 Y140.384 E6.26510
G1 X96.386 Y139.136 E6.65846
G1 X93.462 Y137.579 E7.05182
G1 X90.714 Y135.730 E7.44517
G1 X88.171 Y133.609 E7.83853
G1 X85.859 Y131.237 E8.23189
G1 X83.804 Y128.640 E8.62525
G1 X82.026 Y125.845 E9.01861
G1 X80.545 Y122.882 E9.41197
G1 X79.377 Y119.783 E9.80532
G1 X78.533 Y116.580 E10.19868
G1 X78.024 Y113.308 E10.59204
G1 X77.853 Y110.000 E10.98540
G1 X78.024 Y106.692 E11.37876
G1 X78.533 Y103.420 E11.77211
G1 X79.377 Y100.217 E12.16547
G1 X80.545 Y97.118 E12.55883
G1 X82.026 Y94.155 E12.95219
G1 X83.804 Y91.360 E13.34555
G1 X85.859 Y88.763 E13.73890
G1 X88.171 Y86.391 E14.13226
G1 X90.714 Y84.270 E14.52562
G1 X93.462 Y82.421 E14.91898
G1 X96.386 Y80.864 E15.31234
G1 X99.454 Y79.616 E15.70570
G1 X102.634 Y78.691 E16.09905
G1 X105.892 Y78.097 E16.49241
G1 X109.194 Y77.841 E16.88577
G1 X112.505 Y77.927 E17.27913
G1 X115.790 Y78.352 E17.67249
G1 X119.013 Y79.113 E18.06584
G1 X122.142 Y80.201 E18.45920
G1 X125.141 Y81.605 E18.85256
G1 X127.981 Y83.310 E19.24592
G1 X130.630 Y85.298 E19.63928
G1 X133.061 Y87.548 E20.03264
G1 X135.247 Y90.035 E20.42599
G1 X137.166 Y92.735 E20.81935
G1 X138.798 Y95.617 E21.21271
G1 X140.124 Y98.652 E21.60607
G1 X141.131 Y101.807 E21.99943
G1 X141.809 Y105.049 E22.39278
G1 X142.149 Y108.344 E22.78614
G1 X142.149 Y111.656 E23.17950
G1 X141.809 Y114.951 E23.57286
G1 X141.131 Y118.193 E23.96622
G1 X140.124 Y121.348 E24.35958
G1 X138.798 Y124.383 E24.75293
G1 X137.166 Y127.265 E25.14629
G1 X135.247 Y129.965 E25.53965
G1 X133.061 Y132.452 E25.93301
G1 X132.723 Y132.765 E25.98772
G1 X133.164 Y133.330 F7800.000
G1 F1800.000
G1 X131.088 Y135.251 E26.32361
G1 X128.380 Y137.283 E26.72571
G1 X125.477 Y139.026 E27.12782
G1 X122.411 Y140.462 E27.52992
G1 X119.213 Y141.574 E27.93202
G1 X115.918 Y142.352 E28.33412
G1 X112.560 Y142.786 E28.73623
G1 X109.176 Y142.873 E29.13833
G1 X105.800 Y142.612 E29.54043
G1 X102.469 Y142.005 E29.94253
G1 X99.219 Y141.059 E30.34463
G1 X96.082 Y139.783 E30.74674
G1 X93.094 Y138.192 E31.14884
G1 X90.285 Y136.302 E31.55094
G1 X87.685 Y134.133 E31.95304
G1 X85.322 Y131.709 E32.35515
G1 X83.221 Y129.054 E32.75725
G1 X81.404 Y126.197 E33.15935
G1 X79.890 Y123.169 E33.56145
G1 X78.696 Y120.001 E33.96356
G1 X77.833 Y116.727 E34.36566
G1 X77.312 Y113.381 E34.76776
G1 X77.138 Y110.000 E35.16986
G1 X77.312 Y106.619 E35.57196
G1 X77.833 Y103.273 E35.97407
G1 X78.696 Y99.999 E36.37617
G1 X79.890 Y96.831 E36.77827
G1 X81.404 Y93.803 E37.18037
G1 X83.221 Y90.946 E37.58248
G1 X85.322 Y88.291 E37.98458
G1 X87.685 Y85.867 E38.38668
G1 X90.285 Y83.698 E38.78878
G1 X93.094 Y81.808 E39.19089
G1 X96.082 Y80.217 E39.59299
G1 X99.219 Y78.941 E39.99509
G1 X102.469 Y77.995 E40.39719
G1 X105.800 Y77.388 E40.79929
G1 X109.176 Y77.127 E41.20140
G1 X112.560 Y77.214 E41.60350
G1 X115.918 Y77.648 E42.00560
G1 X119.213 Y78.426 E42.40770
G1 X122.411 Y79.538 E42.80981
G1 X125.477 Y80.974 E43.21191
G1 X128.380 Y82.717 E43.61401
G1 X131.088 Y84.749 E44.01611
G1 X133.573 Y87.049 E44.41822
G1 X135.808 Y89.592 E44.82032
G1 X137.770 Y92.351 E45.22242
G1 X139.437 Y95.298 E45.62452
G1 X140.793 Y98.400 E46.02662
G1 X141.823 Y101.625 E46.42873
G1 X142.515 Y104.939 E46.83083
G1 X142.863 Y108.307 E47.23293
G1 X142.863 Y111.693 E47.63503
G1 X142.515 Y115.061 E48.03714
G1 X141.823 Y118.375 E48.43924
G1 X140.793 Y121.600 E48.84134
G1 X139.437 Y124.702 E49.24344
G1 X137.770 Y127.649 E49.64555
G1 X135.808 Y130.408 E50.04765
G1 X133.573 Y132.951 E50.44975
G1 X133.208 Y133.289 E50.50884
G1 X133.649 Y133.854 F7800.000
G1 F1800.000
G1 X131.546 Y135.800 E50.84910
G1 X128.779 Y137.877 E51.25995
G1 X125.814 Y139.658 E51.67079
G1 X122.680 Y141.124 E52.08164
G1 X119.413 Y142.261 E52.49248
G1 X116.046 Y143.055 E52.90333
G1 X112.616 Y143.499 E53.31418
G1 X109.157 Y143.588 E53.72502
G1 X105.708 Y143.321 E54.13587
G1 X102.305 Y142.701 E54.54672
G1 X98.984 Y141.734 E54.95756
G1 X95.779 Y140.431 E55.36841
G1 X92.726 Y138.805 E55.77926
G1 X89.856 Y136.874 E56.19010
G1 X87.199 Y134.658 E56.60095
G1 X84.785 Y132.181 E57.01180
G1 X82.638 Y129.468 E57.42264
G1 X80.781 Y126.549 E57.83349
G1 X79.235 Y123.455 E58.24433
G1 X78.014 Y120.218 E58.65518
G1 X77.134 Y116.873 E59.06603
G1 X76.601 Y113.455 E59.47687
G1 X76.423 Y110.000 E59.88772
G1 X76.601 Y106.545 E60.29857
G1 X77.134 Y103.127 E60.70941
G1 X78.014 Y99.782 E61.12026
G1 X79.235 Y96.545 E61.53111
G1 X80.781 Y93.451 E61.94195
G1 X82.638 Y90.532 E62.35280
G1 X84.785 Y87.819 E62.76365
G1 X87.199 Y85.342 E63.17449
G1 X89.856 Y83.126 E63.58534
G1 X92.726 Y81.195 E63.99619
G1 X95.779 Y79.569 E64.40703
G1 X98.984 Y78.266 E64.81788
G1 X102.305 Y77.299 E65.22873
G1 X105.708 Y76.679 E65.63957
G1 X109.157 Y76.412 E66.05042
G1 X112.616 Y76.501 E66.46126
G1 X116.046 Y76.945 E66.87211
G1 X119.413 Y77.739 E67.28296
G1 X122.680 Y78.876 E67.69380
G1 X125.814 Y80.342 E68.10465
G1 X128.779 Y82.123 E68.51550
G1 X131.546 Y84.200 E68.92634
G1 X134.085 Y86.549 E69.33719
G1 X136.369 Y89.148 E69.74804
G1 X138.373 Y91.967 E70.15888
G1 X140.077 Y94.978 E70.56973
G1 X141.462 Y98.148 E70.98058
G1 X142.514 Y101.443 E71.39142
G1 X143.222 Y104.829 E71.80227
G1 X143.577 Y108.270 E72.21312
G1 X143.577 Y111.730 E72.62396
G1 X143.222 Y115.171 E73.03481
G1 X142.514 Y118.557 E73.44565
G1 X141.462 Y121.852 E73.85650
G1 X140.077 Y125.022 E74.26735
G1 X138.373 Y128.033 E74.67819
G1 X136.369 Y130.852 E75.08904
