; generated by Slic3r 1.3.1-dev (Build 18ddd3a36dc69d81fb9b7440498bff9e1dde8b7e) on 2021-07-11 at 17:57:08

; external perimeters extrusion width = 0.44mm (3.38mm^3/s)
; perimeters extrusion width = 0.48mm (7.54mm^3/s)
; infill extrusion width = 0.48mm (10.05mm^3/s)
; solid infill extrusion width = 0.48mm (2.51mm^3/s)
; top infill extrusion width = 0.48mm (1.88mm^3/s)

M107
G92 E0
M190 S85 ; set bed temperature and wait for it to be reached
M104 S225 ; set temperature
G28 ; home all axes
G1 Z5 F5000 ; lift nozzle

; Filament gcode

M109 S225 ; set temperature and wait for it to be reached
G21 ; set units to millimeters
G90 ; use absolute coordinates
M82 ; use absolute distances for extrusion
G92 E0
G1 Z0.400 F7800.000
G1 E-2.00000 F2400.00000
G92 E0
G1 X65.045 Y64.058 F7800.000
G1 E2.00000 F2400.00000
G1 F1800.000
G1 X67.386 Y61.874 E2.38024
G1 X69.834 Y59.810 E2.76050
G1 X72.381 Y57.870 E3.14074
G1 X75.021 Y56.059 E3.52100
G1 X77.749 Y54.383 E3.90125
G1 X80.557 Y52.844 E4.28153
G1 X83.438 Y51.448 E4.66174
G1 X86.385 Y50.196 E5.04203
G1 X89.390 Y49.093 E5.42215
G1 X92.448 Y48.141 E5.80253
G1 X95.548 Y47.343 E6.18276
G1 X98.685 Y46.701 E6.56304
G1 X101.849 Y46.215 E6.94322
G1 X105.036 Y45.888 E7.32364
G1 X108.232 Y45.720 E7.70375
G1 X111.434 Y45.712 E8.08402
G1 X114.632 Y45.863 E8.46430
G1 X117.817 Y46.173 E8.84439
G1 X120.986 Y46.643 E9.22483
G1 X124.125 Y47.269 E9.60500
G1 X127.230 Y48.051 E9.98529
G1 X130.292 Y48.986 E10.36551
G1 X133.304 Y50.074 E10.74591
G1 X136.257 Y51.310 E11.12600
G1 X139.145 Y52.692 E11.50631
G1 X141.961 Y54.215 E11.88651
G1 X144.979 Y56.059 E12.30654
G1 X147.619 Y57.870 E12.68680
G1 X150.166 Y59.810 E13.06704
G1 X152.614 Y61.874 E13.44730
G1 X154.955 Y64.058 E13.82754
G1 X157.185 Y66.356 E14.20781
G1 X159.297 Y68.762 E14.58806
G1 X161.287 Y71.270 E14.96829
G1 X163.149 Y73.875 E15.34857
G1 X164.879 Y76.569 E15.72886
G1 X166.472 Y79.346 E16.10904
G1 X167.925 Y82.198 E16.48922
G1 X169.235 Y85.120 E16.86955
G1 X170.397 Y88.104 E17.24986
G1 X171.409 Y91.141 E17.63007
G1 X172.268 Y94.226 E18.01032
G1 X172.972 Y97.349 E18.39054
G1 X173.470 Y100.172 E18.73104
G1 X173.877 Y103.348 E19.11133
G1 X174.124 Y106.541 E19.49166
G1 X174.212 Y109.741 E19.87183
G1 X174.141 Y112.942 E20.25210
G1 X173.910 Y116.135 E20.63227
G1 X173.520 Y119.313 E21.01259
G1 X172.972 Y122.468 E21.39289
G1 X172.268 Y125.591 E21.77311
G1 X171.409 Y128.675 E22.15335
G1 X170.397 Y131.713 E22.53357
G1 X169.235 Y134.696 E22.91387
G1 X167.925 Y137.619 E23.29421
G1 X166.472 Y140.471 E23.67438
G1 X164.879 Y143.247 E24.05456
G1 X163.149 Y145.942 E24.43485
G1 X161.287 Y148.546 E24.81513
G1 X159.297 Y151.055 E25.19536
G1 X157.185 Y153.461 E25.57562
G1 X154.955 Y155.759 E25.95588
G1 X152.614 Y157.942 E26.33612
G1 X150.166 Y160.007 E26.71638
G1 X147.619 Y161.947 E27.09662
G1 X144.979 Y163.757 E27.47689
G1 X141.961 Y165.601 E27.89691
G1 X139.145 Y167.125 E28.27711
G1 X136.257 Y168.507 E28.65742
G1 X133.304 Y169.742 E29.03751
G1 X130.292 Y170.830 E29.41791
G1 X127.230 Y171.766 E29.79813
G1 X124.125 Y172.548 E30.17842
G1 X120.986 Y173.174 E30.55860
G1 X117.817 Y173.643 E30.93903
G1 X114.632 Y173.953 E31.31912
G1 X111.434 Y174.104 E31.69940
G1 X108.232 Y174.096 E32.07968
G1 X105.036 Y173.928 E32.45977
G1 X101.849 Y173.601 E32.84020
G1 X98.685 Y173.116 E33.22038
G1 X95.548 Y172.473 E33.60067
G1 X92.448 Y171.675 E33.98089
G1 X89.390 Y170.723 E34.36127
G1 X86.385 Y169.620 E34.74139
G1 X83.438 Y168.369 E35.12168
G1 X80.557 Y166.972 E35.50190
G1 X77.749 Y165.434 E35.88217
G1 X75.021 Y163.757 E36.26242
G1 X72.381 Y161.947 E36.64268
G1 X69.834 Y160.007 E37.02293
G1 X67.386 Y157.942 E37.40318
G1 X65.045 Y155.759 E37.78342
G1 X62.815 Y153.461 E38.16369
G1 X60.703 Y151.055 E38.54394
G1 X58.713 Y148.546 E38.92418
G1 X56.851 Y145.942 E39.30446
G1 X55.121 Y143.247 E39.68474
G1 X53.528 Y140.471 E40.06492
G1 X52.075 Y137.619 E40.44510
G1 X50.765 Y134.696 E40.82544
G1 X49.603 Y131.713 E41.20574
G1 X48.591 Y128.675 E41.58596
G1 X47.732 Y125.591 E41.96620
G1 X47.028 Y122.468 E42.34642
G1 X46.530 Y119.644 E42.68692
G1 X46.123 Y116.468 E43.06722
G1 X45.876 Y113.276 E43.44754
G1 X45.788 Y110.076 E43.82771
G1 X45.859 Y106.875 E44.20798
G1 X46.090 Y103.682 E44.58815
G1 X46.480 Y100.503 E44.96848
G1 X47.028 Y97.349 E45.34877
G1 X47.732 Y94.226 E45.72899
G1 X48.591 Y91.141 E46.10923
G1 X49.603 Y88.104 E46.48945
G1 X50.765 Y85.120 E46.86975
G1 X52.075 Y82.198 E47.25009
G1 X53.528 Y79.346 E47.63026
G1 X55.121 Y76.569 E48.01045
G1 X56.851 Y73.875 E48.39073
G1 X58.713 Y71.270 E48.77101
G1 X60.703 Y68.762 E49.15125
G1 X62.815 Y66.356 E49.53150
G1 X65.003 Y64.101 E49.90464
G1 E47.90464 F2400.00000
G92 E0
G1 X158.344 Y134.661 F7800.000
G1 E2.00000 F2400.00000
G1 F1800.000
G1 X157.713 Y135.891 E2.16426
G1 X156.358 Y138.237 E2.48599
G1 X154.889 Y140.513 E2.80770
G1 X153.307 Y142.712 E3.12943
G1 X151.618 Y144.830 E3.45116
G1 X149.826 Y146.861 E3.77288
G1 X147.934 Y148.800 E4.09460
G1 X145.949 Y150.643 E4.41633
G1 X143.873 Y152.384 E4.73805
G1 X141.714 Y154.020 E5.05978
G1 X139.476 Y155.546 E5.38150
G1 X137.164 Y156.958 E5.70323
G1 X134.785 Y158.254 E6.02495
G1 X132.345 Y159.429 E6.34668
G1 X129.849 Y160.482 E6.66840
G1 X127.303 Y161.408 E6.99012
G1 X124.714 Y162.207 E7.31187
G1 X122.089 Y162.875 E7.63357
G1 X119.434 Y163.412 E7.95529
G1 X116.755 Y163.815 E8.27703
G1 X114.060 Y164.085 E8.59875
G1 X111.354 Y164.220 E8.92047
G1 X108.646 Y164.220 E9.24220
G1 X105.940 Y164.085 E9.56392
G1 X103.245 Y163.815 E9.88563
G1 X100.566 Y163.412 E10.20737
G1 X97.911 Y162.875 E10.52909
G1 X95.286 Y162.207 E10.85080
G1 X92.697 Y161.408 E11.17255
G1 X90.151 Y160.482 E11.49427
G1 X87.655 Y159.429 E11.81599
G1 X85.215 Y158.254 E12.13771
G1 X82.836 Y156.958 E12.45944
G1 X80.524 Y155.546 E12.78117
G1 X78.286 Y154.020 E13.10289
G1 X76.127 Y152.384 E13.42461
G1 X74.051 Y150.643 E13.74634
G1 X72.066 Y148.800 E14.06807
G1 X70.174 Y146.861 E14.38979
G1 X68.382 Y144.830 E14.71151
G1 X66.693 Y142.712 E15.03323
G1 X65.111 Y140.513 E15.35496
G1 X63.642 Y138.237 E15.67668
G1 X62.287 Y135.891 E15.99841
G1 X61.051 Y133.481 E16.32013
G1 X59.937 Y131.012 E16.64186
G1 X58.948 Y128.490 E16.96359
G1 X58.085 Y125.922 E17.28531
G1 X57.351 Y123.314 E17.60703
G1 X56.748 Y120.673 E17.92876
G1 X56.278 Y118.006 E18.25048
G1 X55.941 Y115.318 E18.57221
G1 X55.739 Y112.616 E18.89392
G1 X55.671 Y109.908 E19.21565
G1 X55.739 Y107.200 E19.53738
G1 X55.941 Y104.499 E19.85909
G1 X56.278 Y101.811 E20.18082
G1 X56.748 Y99.143 E20.50254
G1 X57.351 Y96.502 E20.82427
G1 X58.085 Y93.895 E21.14600
G1 X58.948 Y91.327 E21.46772
G1 X59.937 Y88.805 E21.78945
G1 X61.051 Y86.336 E22.11117
G1 X62.287 Y83.925 E22.43289
G1 X63.642 Y81.579 E22.75462
G1 X65.111 Y79.304 E23.07634
G1 X66.693 Y77.104 E23.39807
G1 X68.382 Y74.986 E23.71979
G1 X70.174 Y72.955 E24.04152
G1 X72.066 Y71.016 E24.36324
G1 X74.051 Y69.173 E24.68497
G1 X76.126 Y67.432 E25.00669
G1 X78.286 Y65.797 E25.32841
G1 X80.524 Y64.271 E25.65014
G1 X82.836 Y62.858 E25.97187
G1 X85.215 Y61.563 E26.29359
G1 X87.655 Y60.387 E26.61531
G1 X90.151 Y59.335 E26.93704
G1 X92.697 Y58.408 E27.25875
G1 X95.286 Y57.610 E27.58051
G1 X97.911 Y56.942 E27.90221
G1 X100.566 Y56.405 E28.22393
G1 X103.245 Y56.001 E28.54567
G1 X105.940 Y55.731 E28.86739
G1 X108.646 Y55.596 E29.18911
G1 X111.354 Y55.596 E29.51083
G1 X114.060 Y55.731 E29.83255
G1 X116.755 Y56.001 E30.15427
G1 X119.434 Y56.405 E30.47601
G1 X122.089 Y56.942 E30.79773
G1 X124.714 Y57.610 E31.11943
G1 X127.303 Y58.408 E31.44119
G1 X129.849 Y59.335 E31.76290
G1 X132.345 Y60.387 E32.08462
G1 X134.785 Y61.563 E32.40635
G1 X137.164 Y62.858 E32.72807
G1 X139.476 Y64.271 E33.04980
G1 X141.714 Y65.797 E33.37153
G1 X143.873 Y67.432 E33.69325
G1 X145.949 Y69.173 E34.01497
G1 X147.934 Y71.016 E34.33670
G1 X149.826 Y72.955 E34.65842
G1 X151.618 Y74.986 E34.98015
G1 X153.307 Y77.104 E35.30187
G1 X154.889 Y79.304 E35.62360
G1 X156.358 Y81.579 E35.94532
G1 X157.713 Y83.925 E36.26704
G1 X158.949 Y86.336 E36.58877
G1 X160.063 Y88.805 E36.91049
G1 X161.052 Y91.327 E37.23222
G1 X161.915 Y93.895 E37.55394
G1 X162.649 Y96.502 E37.87567
G1 X163.252 Y99.143 E38.19740
G1 X163.722 Y101.811 E38.51912
G1 X164.059 Y104.499 E38.84085
G1 X164.261 Y107.200 E39.16256
G1 X164.329 Y109.908 E39.48429
G1 X164.261 Y112.616 E39.80602
G1 X164.059 Y115.318 E40.12773
G1 X163.722 Y118.006 E40.44946
G1 X163.252 Y120.673 E40.77118
G1 X162.649 Y123.314 E41.09291
G1 X161.915 Y125.922 E41.41463
G1 X161.052 Y128.490 E41.73635
G1 X160.063 Y131.012 E42.05808
G1 X158.949 Y133.481 E42.37981
G1 X158.371 Y134.607 E42.53015
G1 X157.708 Y134.335 F7800.000
G1 F1800.000
G1 X157.085 Y135.550 E42.69229
G1 X155.749 Y137.865 E43.00978
G1 X154.298 Y140.110 E43.32727
G1 X152.738 Y142.281 E43.64477
G1 X151.071 Y144.371 E43.96226
G1 X149.302 Y146.375 E44.27976
G1 X147.436 Y148.289 E44.59725
G1 X145.476 Y150.107 E44.91475
G1 X143.428 Y151.826 E45.23224
G1 X141.297 Y153.440 E45.54973
G1 X139.088 Y154.946 E45.86722
G1 X136.807 Y156.340 E46.18472
G1 X134.459 Y157.618 E46.50222
G1 X132.051 Y158.778 E46.81971
G1 X129.588 Y159.817 E47.13720
G1 X127.076 Y160.731 E47.45469
G1 X124.521 Y161.519 E47.77221
G1 X121.930 Y162.178 E48.08969
G1 X119.310 Y162.708 E48.40718
G1 X116.667 Y163.107 E48.72468
G1 X114.007 Y163.373 E49.04217
G1 X111.337 Y163.506 E49.35966
G1 X108.663 Y163.506 E49.67716
G1 X105.993 Y163.373 E49.99465
G1 X103.333 Y163.107 E50.31214
G1 X100.690 Y162.708 E50.62964
G1 X98.070 Y162.178 E50.94713
G1 X95.479 Y161.519 E51.26461
G1 X92.924 Y160.731 E51.58213
G1 X90.412 Y159.817 E51.89961
G1 X87.949 Y158.778 E52.21711
G1 X85.541 Y157.618 E52.53460
G1 X83.193 Y156.340 E52.85209
G1 X80.912 Y154.946 E53.16959
G1 X78.703 Y153.440 E53.48709
G1 X76.572 Y151.826 E53.80458
G1 X74.524 Y150.107 E54.12207
G1 X72.564 Y148.289 E54.43957
G1 X70.698 Y146.375 E54.75706
G1 X68.929 Y144.371 E55.07455
G1 X67.262 Y142.281 E55.39205
G1 X65.702 Y140.110 E55.70954
G1 X64.251 Y137.865 E56.02703
G1 X62.915 Y135.550 E56.34453
G1 X61.695 Y133.171 E56.66202
G1 X60.596 Y130.734 E56.97952
G1 X59.619 Y128.245 E57.29702
G1 X58.768 Y125.711 E57.61451
G1 X58.043 Y123.138 E57.93200
G1 X57.449 Y120.532 E58.24950
G1 X56.984 Y117.899 E58.56699
G1 X56.652 Y115.246 E58.88449
G1 X56.452 Y112.581 E59.20197
G1 X56.385 Y109.908 E59.51947
G1 X56.452 Y107.236 E59.83697
G1 X56.652 Y104.570 E60.15445
G1 X56.984 Y101.917 E60.47195
G1 X57.449 Y99.285 E60.78944
G1 X58.043 Y96.678 E61.10694
G1 X58.768 Y94.105 E61.42443
G1 X59.619 Y91.571 E61.74192
G1 X60.596 Y89.082 E62.05942
G1 X61.695 Y86.646 E62.37691
G1 X62.915 Y84.267 E62.69441
G1 X64.251 Y81.952 E63.01190
G1 X65.702 Y79.706 E63.32939
G1 X67.262 Y77.536 E63.64689
G1 X68.929 Y75.446 E63.96438
G1 X70.698 Y73.441 E64.28188
G1 X72.564 Y71.527 E64.59937
G1 X74.524 Y69.709 E64.91687
G1 X76.572 Y67.991 E65.23436
G1 X78.703 Y66.377 E65.55185
G1 X80.912 Y64.871 E65.86935
G1 X83.193 Y63.477 E66.18684
G1 X85.541 Y62.198 E66.50434
G1 X87.949 Y61.038 E66.82183
G1 X90.412 Y60.000 E67.13932
G1 X92.924 Y59.086 E67.45681
G1 X95.479 Y58.297 E67.77433
G1 X98.070 Y57.638 E68.09180
G1 X100.690 Y57.108 E68.40930
G1 X103.333 Y56.710 E68.72680
G1 X105.993 Y56.444 E69.04429
G1 X108.663 Y56.311 E69.36178
G1 X111.337 Y56.311 E69.67928
G1 X114.007 Y56.444 E69.99677
G1 X116.667 Y56.710 E70.31426
G1 X119.310 Y57.108 E70.63176
G1 X121.930 Y57.638 E70.94925
G1 X124.521 Y58.297 E71.26673
G1 X127.076 Y59.086 E71.58424
G1 X129.588 Y60.000 E71.90174
G1 X132.051 Y61.038 E72.21923
G1 X134.459 Y62.198 E72.53672
G1 X136.807 Y63.477 E72.85421
G1 X139.088 Y64.871 E73.17171
G1 X141.297 Y66.377 E73.48920
G1 X143.428 Y67.991 E73.80670
G1 X145.476 Y69.709 E74.12419
G1 X147.436 Y71.527 E74.44169
G1 X149.302 Y73.441 E74.75918
G1 X151.071 Y75.446 E75.07667
G1 X152.738 Y77.536 E75.39417
G1 X154.298 Y79.706 E75.71167
G1 X155.749 Y81.952 E76.02915
G1 X157.085 Y84.267 E76.34665
G1 X158.305 Y86.646 E76.66414
G1 X159.404 Y89.082 E76.98164
G1 X160.381 Y91.571 E77.29914
G1 X161.232 Y94.105 E77.61663
G1 X161.957 Y96.678 E77.93412
G1 X162.551 Y99.285 E78.25162
G1 X163.016 Y101.917 E78.56911
G1 X163.348 Y104.570 E78.88661
G1 X163.548 Y107.236 E79.20409
G1 X163.615 Y109.908 E79.52159
G1 X163.548 Y112.581 E79.83909
G1 X163.348 Y115.246 E80.15657
G1 X163.016 Y117.899 E80.47407
G1 X162.551 Y120.532 E80.79156
G1 X161.957 Y123.138 E81.10906
G1 X161.232 Y125.711 E81.42655
G1 X160.381 Y128.245 E81.74404
G1 X159.404 Y130.734 E82.06154
G1 X158.305 Y133.171 E82.37903
G1 X157.736 Y134.281 E82.52726
G1 X157.073 Y134.009 F7800.000
G1 F1800.000
G1 X156.458 Y135.208 E82.68729
G1 X155.139 Y137.492 E83.00055
G1 X153.708 Y139.708 E83.31381
G1 X152.168 Y141.850 E83.62708
G1 X150.524 Y143.912 E83.94034
G1 X148.779 Y145.889 E84.25360
G1 X146.937 Y147.778 E84.56686
G1 X145.003 Y149.572 E84.88013
G1 X142.983 Y151.267 E85.19339
G1 X140.880 Y152.860 E85.50666
G1 X138.701 Y154.346 E85.81992
G1 X136.450 Y155.721 E86.13319
G1 X134.134 Y156.983 E86.44645
G1 X131.757 Y158.127 E86.75971
G1 X129.327 Y159.152 E87.07297
G1 X126.848 Y160.054 E87.38624
G1 X124.327 Y160.831 E87.69952
G1 X121.771 Y161.482 E88.01276
G1 X119.186 Y162.005 E88.32603
G1 X116.578 Y162.398 E88.63930
G1 X113.953 Y162.660 E88.95256
G1 X111.319 Y162.792 E89.26582
G1 X108.681 Y162.792 E89.57908
G1 X106.047 Y162.660 E89.89235
G1 X103.422 Y162.398 E90.20561
G1 X100.814 Y162.005 E90.51887
G1 X98.229 Y161.482 E90.83214
G1 X95.673 Y160.831 E91.14539
G1 X93.152 Y160.054 E91.45867
G1 X90.673 Y159.152 E91.77193
G1 X88.243 Y158.127 E92.08519
G1 X85.866 Y156.983 E92.39846
G1 X83.550 Y155.721 E92.71172
G1 X81.299 Y154.346 E93.02499
G1 X79.120 Y152.860 E93.33825
G1 X77.017 Y151.267 E93.65151
G1 X74.997 Y149.572 E93.96477
G1 X73.063 Y147.778 E94.27804
G1 X71.221 Y145.889 E94.59130
G1 X69.476 Y143.912 E94.90457
G1 X67.832 Y141.850 E95.21783
G1 X66.292 Y139.708 E95.53109
G1 X64.861 Y137.492 E95.84435
G1 X63.542 Y135.208 E96.15762
G1 X62.339 Y132.861 E96.47088
G1 X61.254 Y130.457 E96.78414
G1 X60.290 Y128.001 E97.09741
G1 X59.450 Y125.501 E97.41067
G1 X58.736 Y122.962 E97.72394
G1 X58.149 Y120.390 E98.03720
G1 X57.691 Y117.793 E98.35047
G1 X57.363 Y115.175 E98.66373
G1 X57.166 Y112.545 E98.97699
G1 X57.100 Y109.908 E99.29025
G1 X57.166 Y107.271 E99.60352
G1 X57.363 Y104.641 E99.91678
G1 X57.691 Y102.024 E100.23004
G1 X58.149 Y99.426 E100.54330
G1 X58.736 Y96.855 E100.85657
G1 X59.450 Y94.316 E101.16983
G1 X60.290 Y91.815 E101.48309
G1 X61.254 Y89.360 E101.79636
G1 X62.339 Y86.956 E102.10962
G1 X63.542 Y84.609 E102.42289
G1 X64.861 Y82.324 E102.73615
G1 X66.292 Y80.109 E103.04941
G1 X67.832 Y77.967 E103.36268
G1 X69.476 Y75.905 E103.67594
G1 X71.221 Y73.927 E103.98921
G1 X73.063 Y72.039 E104.30247
G1 X74.997 Y70.245 E104.61573
G1 X77.017 Y68.549 E104.92900
G1 X79.120 Y66.957 E105.24226
G1 X81.299 Y65.471 E105.55552
G1 X83.550 Y64.095 E105.86879
G1 X85.866 Y62.834 E106.18205
G1 X88.243 Y61.689 E106.49532
G1 X90.673 Y60.665 E106.80858
G1 X93.152 Y59.763 E107.12184
G1 X95.673 Y58.985 E107.43512
G1 X98.229 Y58.335 E107.74837
G1 X100.814 Y57.812 E108.06163
G1 X103.422 Y57.419 E108.37490
G1 X106.047 Y57.156 E108.68816
G1 X108.681 Y57.025 E109.00142
G1 X111.319 Y57.025 E109.31469
G1 X113.953 Y57.156 E109.62795
G1 X116.578 Y57.419 E109.94121
G1 X119.186 Y57.812 E110.25448
G1 X121.771 Y58.335 E110.56774
G1 X124.327 Y58.985 E110.88099
G1 X126.848 Y59.763 E111.19427
G1 X129.327 Y60.665 E111.50753
G1 X131.757 Y61.689 E111.82079
G1 X134.134 Y62.834 E112.13406
G1 X136.450 Y64.095 E112.44732
G1 X138.701 Y65.471 E112.76059
G1 X140.880 Y66.957 E113.07385
G1 X142.983 Y68.549 E113.38711
G1 X145.003 Y70.245 E113.70038
